/* XPM */
static char * north_xpm[] = {
"400 400 1302 2",
"  	c #E4CAC4",
". 	c #ECCEC4",
"+ 	c #F4D6CC",
"@ 	c #ECD2C4",
"# 	c #F4DACC",
"$ 	c #F4D2C4",
"% 	c #ECCEBC",
"& 	c #ECCABC",
"* 	c #ECC6B4",
"= 	c #ECC2B4",
"- 	c #F4C6B4",
"; 	c #ECC6BC",
"> 	c #F4CABC",
", 	c #E4C2B4",
"' 	c #E4C6BC",
") 	c #E4CEC4",
"! 	c #E4D2C4",
"~ 	c #ECD6C4",
"{ 	c #E4D6C4",
"] 	c #ECD6CC",
"^ 	c #ECDACC",
"/ 	c #F4D6C4",
"( 	c #E4CABC",
"_ 	c #E4D6CC",
": 	c #DCC6BC",
"< 	c #DCBEB4",
"[ 	c #DCB2AC",
"} 	c #D4B2A4",
"| 	c #E4BAB4",
"1 	c #DCBAAC",
"2 	c #E4CEBC",
"3 	c #F4CEC4",
"4 	c #DCBAB4",
"5 	c #D4B6AC",
"6 	c #DCB6AC",
"7 	c #E4BEB4",
"8 	c #DCC2B4",
"9 	c #ECCAC4",
"0 	c #E4C6B4",
"a 	c #E4BEAC",
"b 	c #E4BAAC",
"c 	c #ECD2CC",
"d 	c #E4C2BC",
"e 	c #E4CAB4",
"f 	c #ECD2BC",
"g 	c #F4D2CC",
"h 	c #D4BAB4",
"i 	c #DCB6A4",
"j 	c #DCB2A4",
"k 	c #ECBEB4",
"l 	c #ECC2BC",
"m 	c #ECDAC4",
"n 	c #E4D2CC",
"o 	c #E4D2BC",
"p 	c #DCC2BC",
"q 	c #CCB2A4",
"r 	c #CCAEA4",
"s 	c #E4DACC",
"t 	c #F4D2BC",
"u 	c #D4AEA4",
"v 	c #D4AE9C",
"w 	c #F4CEBC",
"x 	c #DCCABC",
"y 	c #DCCEBC",
"z 	c #D4BAAC",
"A 	c #F4CAC4",
"B 	c #CCAAA4",
"C 	c #D4AA9C",
"D 	c #E4B6AC",
"E 	c #DCC6B4",
"F 	c #D4BEAC",
"G 	c #D4BEB4",
"H 	c #CCA69C",
"I 	c #E4C2AC",
"J 	c #DCBEAC",
"K 	c #DCCEC4",
"L 	c #D4C2B4",
"M 	c #F4C6BC",
"N 	c #C49A8C",
"O 	c #F4C6C4",
"P 	c #D4C6B4",
"Q 	c #CCA29C",
"R 	c #BC9A8C",
"S 	c #FCDACC",
"T 	c #D4AEAC",
"U 	c #C49E94",
"V 	c #FCD6CC",
"W 	c #E4BEBC",
"X 	c #D4B2AC",
"Y 	c #C4A294",
"Z 	c #D4B6A4",
"` 	c #DCBEBC",
" .	c #DCBAA4",
"..	c #C4A29C",
"+.	c #CCAA9C",
"@.	c #B48E84",
"#.	c #BC928C",
"$.	c #D4AAA4",
"%.	c #DCC2AC",
"&.	c #CCA6A4",
"*.	c #CC9E94",
"=.	c #CCA294",
"-.	c #D4A69C",
";.	c #C49A94",
">.	c #BC968D",
",.	c #C4968C",
"'.	c #DCAEA4",
").	c #DCAEAC",
"!.	c #BC9284",
"~.	c #C49694",
"{.	c #DCAA9C",
"].	c #BC8E84",
"^.	c #ECDAD4",
"/.	c #C4A69C",
"(.	c #D4A6A4",
"_.	c #D4A294",
":.	c #B48A84",
"<.	c #CC9A8C",
"[.	c #E4B2A4",
"}.	c #DCAAA4",
"|.	c #E4C6C4",
"1.	c #BC9A94",
"2.	c #D4A29C",
"3.	c #C4928C",
"4.	c #C48A84",
"5.	c #C49284",
"6.	c #DCA29C",
"7.	c #E4AEA4",
"8.	c #B4867C",
"9.	c #CCB6AC",
"0.	c #ECD6D4",
"a.	c #F4DAD4",
"b.	c #F4C2B4",
"c.	c #AC827C",
"d.	c #D49E94",
"e.	c #CC9284",
"f.	c #E4AAA4",
"g.	c #DCCAC4",
"h.	c #CC928C",
"i.	c #BC827C",
"j.	c #E4B2AC",
"k.	c #AC8A84",
"l.	c #A4766C",
"m.	c #AC7E74",
"n.	c #C48E84",
"o.	c #B48274",
"p.	c #AC7A6C",
"q.	c #CCB2AC",
"r.	c #C4AAA4",
"s.	c #CCAEAC",
"t.	c #BC8A7C",
"u.	c #AC7A74",
"v.	c #AC766C",
"w.	c #B4827C",
"x.	c #B47A74",
"y.	c #9C6A64",
"z.	c #D4B6B4",
"A.	c #CCBAB4",
"B.	c #DCB6B4",
"C.	c #AC867C",
"D.	c #CC9E9C",
"E.	c #BC8A84",
"F.	c #B47E74",
"G.	c #946258",
"H.	c #CCBEB4",
"I.	c #CCC2BC",
"J.	c #C49E9C",
"K.	c #CC9A94",
"L.	c #BC867E",
"M.	c #A47268",
"N.	c #D4C6BC",
"O.	c #D4CAC4",
"P.	c #D4BEBC",
"Q.	c #CCB2B4",
"R.	c #CC968C",
"S.	c #D4C2BC",
"T.	c #DCC6C4",
"U.	c #BC9E8C",
"V.	c #D49E9C",
"W.	c #84524C",
"X.	c #C4AA9C",
"Y.	c #DCCAB4",
"Z.	c #9C7264",
"`.	c #CCAE9C",
" +	c #9C6E64",
".+	c #ECCECC",
"++	c #DCD2C4",
"@+	c #CC9694",
"#+	c #AC7E7C",
"$+	c #CCBAAC",
"%+	c #CCBEAC",
"&+	c #BCA29C",
"*+	c #9C7A6C",
"=+	c #DCD6CC",
"-+	c #DCD2CC",
";+	c #E4B6A4",
">+	c #B4928C",
",+	c #A47E74",
"'+	c #B48A7C",
")+	c #CC9E8C",
"!+	c #ECBAB4",
"~+	c #DCA69C",
"{+	c #E4DAD4",
"]+	c #D4A694",
"^+	c #E4AE9C",
"/+	c #B48674",
"(+	c #AC8274",
"_+	c #9C766C",
":+	c #CCA694",
"<+	c #A46E64",
"[+	c #FCDED0",
"}+	c #ECCAB4",
"|+	c #AC7E6C",
"1+	c #ECB6AC",
"2+	c #ECBAAC",
"3+	c #B49284",
"4+	c #C49684",
"5+	c #F4DED4",
"6+	c #F4D6D4",
"7+	c #9C6654",
"8+	c #DCAE9C",
"9+	c #945E54",
"0+	c #E4BAA4",
"a+	c #ECBEAC",
"b+	c #AC726C",
"c+	c #CCAA94",
"d+	c #C49E8C",
"e+	c #F4BEB4",
"f+	c #DCB29C",
"g+	c #C48A7C",
"h+	c #A46A5C",
"i+	c #FCCEBC",
"j+	c #ECDED4",
"k+	c #C4A694",
"l+	c #B4968C",
"m+	c #DCA694",
"n+	c #A47A6C",
"o+	c #B48E7C",
"p+	c #D4AA94",
"q+	c #B4927C",
"r+	c #BC9684",
"s+	c #D49E8C",
"t+	c #ECCEB4",
"u+	c #ECB2A4",
"v+	c #E4AA9C",
"w+	c #A47664",
"x+	c #CC8E84",
"y+	c #ECBEBC",
"z+	c #ECD6BC",
"A+	c #DBB9B3",
"B+	c #D7B3AA",
"C+	c #C19B96",
"D+	c #B09189",
"E+	c #A2867E",
"F+	c #947773",
"G+	c #7D6660",
"H+	c #6F5750",
"I+	c #5E4946",
"J+	c #483A34",
"K+	c #443734",
"L+	c #3A302F",
"M+	c #2D2422",
"N+	c #191513",
"O+	c #0B0807",
"P+	c #2A2320",
"Q+	c #352E2D",
"R+	c #3E3634",
"S+	c #534540",
"T+	c #66564F",
"U+	c #76625D",
"V+	c #7F6B63",
"W+	c #917B71",
"X+	c #A2897F",
"Y+	c #B09284",
"Z+	c #B99C90",
"`+	c #D8B1A4",
" @	c #DFC1B0",
".@	c #E0BFB1",
"+@	c #C8A6A5",
"@@	c #A89089",
"#@	c #8C756C",
"$@	c #61504D",
"%@	c #211B19",
"&@	c #000000",
"*@	c #4C403A",
"=@	c #846B63",
"-@	c #A7887E",
";@	c #C29F93",
">@	c #D6B6A9",
",@	c #AA9183",
"'@	c #A38E87",
")@	c #927C73",
"!@	c #8A7771",
"~@	c #D9BCBA",
"{@	c #C6A89C",
"]@	c #A08783",
"^@	c #705E5B",
"/@	c #1B1714",
"(@	c #8F776C",
"_@	c #B59C8E",
":@	c #D7B7A9",
"<@	c #AA8B83",
"[@	c #28231F",
"}@	c #D8C3B9",
"|@	c #927E73",
"1@	c #8A7971",
"2@	c #D6BDAF",
"3@	c #BAA199",
"4@	c #84706C",
"5@	c #2F2724",
"6@	c #614F4B",
"7@	c #9C8679",
"8@	c #C8A9A3",
"9@	c #B08E89",
"0@	c #938278",
"a@	c #927E78",
"b@	c #E3C1B3",
"c@	c #BCA5A0",
"d@	c #827269",
"e@	c #251E1B",
"f@	c #5C4F4A",
"g@	c #A9928B",
"h@	c #D9BCB2",
"i@	c #B08E83",
"j@	c #191512",
"k@	c #D3BBB5",
"l@	c #928178",
"m@	c #856F6C",
"n@	c #DCC3B6",
"o@	c #A8958A",
"p@	c #4E4541",
"q@	c #191412",
"r@	c #84746C",
"s@	c #C7B0A4",
"t@	c #88756F",
"u@	c #806A67",
"v@	c #D7BBB1",
"w@	c #9B887F",
"x@	c #312A26",
"y@	c #706158",
"z@	c #BDA89C",
"A@	c #C6B2A9",
"B@	c #85726C",
"C@	c #D3BAAC",
"D@	c #9C847A",
"E@	c #231E1B",
"F@	c #675D54",
"G@	c #C2AC9F",
"H@	c #B08B83",
"I@	c #7C6860",
"J@	c #8D7E78",
"K@	c #85746C",
"L@	c #DAB8AA",
"M@	c #A68F87",
"N@	c #776B66",
"O@	c #D1B9AC",
"P@	c #AA8176",
"Q@	c #BFACA3",
"R@	c #B99F96",
"S@	c #5C4C4A",
"T@	c #181513",
"U@	c #9C8D86",
"V@	c #DFC6B8",
"W@	c #A37E76",
"X@	c #6B5B56",
"Y@	c #D0AEA8",
"Z@	c #886E67",
"`@	c #080505",
" #	c #594E48",
".#	c #C9AEA5",
"+#	c #967169",
"@#	c #B89F96",
"##	c #928478",
"$#	c #857771",
"%#	c #9B756F",
"&#	c #483834",
"*#	c #0A0706",
"=#	c #9B8B83",
"-#	c #E2C9BB",
";#	c #89615C",
">#	c #5D4F4B",
",#	c #E3C1BB",
"'#	c #93716C",
")#	c #201716",
"!#	c #756764",
"~#	c #D9C0B2",
"{#	c #966E69",
"]#	c #B09590",
"^#	c #D2ACAA",
"/#	c #876E67",
"(#	c #49413E",
"_#	c #CCB5A8",
":#	c #A37B76",
"<#	c #52453F",
"[#	c #E1BFB9",
"}#	c #92847D",
"|#	c #C5ACAE",
"1#	c #6B5A55",
"2#	c #2B2522",
"3#	c #B7A49C",
"4#	c #966A64",
"5#	c #A89189",
"6#	c #CAB5B3",
"7#	c #5A4D4C",
"8#	c #0A0806",
"9#	c #AD988D",
"0#	c #3F3431",
"a#	c #D7B5AF",
"b#	c #98847D",
"c#	c #CEB6B0",
"d#	c #524948",
"e#	c #99837C",
"f#	c #8A7471",
"g#	c #D8BFB9",
"h#	c #514644",
"i#	c #BCA39D",
"j#	c #988178",
"k#	c #857471",
"l#	c #DAC5BC",
"m#	c #5D504F",
"n#	c #AE968E",
"o#	c #A37776",
"p#	c #857369",
"q#	c #DFC2B8",
"r#	c #6A5956",
"s#	c #090706",
"t#	c #B8988F",
"u#	c #9D7776",
"v#	c #C0ABA2",
"w#	c #E3BDB3",
"x#	c #85706D",
"y#	c #2A2220",
"z#	c #C09994",
"A#	c #9D776F",
"B#	c #877972",
"C#	c #9B8078",
"D#	c #463634",
"E#	c #BB9B8D",
"F#	c #AA7E7C",
"G#	c #110E0D",
"H#	c #CBB6AD",
"I#	c #927973",
"J#	c #A6827D",
"K#	c #6D5652",
"L#	c #C3A193",
"M#	c #AA8483",
"N#	c #867B72",
"O#	c #8D796D",
"P#	c #80726C",
"Q#	c #D7AFA2",
"R#	c #3E312E",
"S#	c #544A44",
"T#	c #8D8279",
"U#	c #A79A8F",
"V#	c #BCAAA2",
"W#	c #CEBAAA",
"X#	c #D6C1B0",
"Y#	c #DBC6BC",
"Z#	c #E0CBB9",
"`#	c #E2C9C3",
" $	c #DEC4B7",
".$	c #D3B7AE",
"+$	c #C5ABA2",
"@$	c #B19A8B",
"#$	c #9A857E",
"$$	c #79675F",
"%$	c #1D1814",
"&$	c #8F7871",
"*$	c #CCBCAF",
"=$	c #76605B",
"-$	c #70645F",
";$	c #B8A098",
">$	c #D3C2BC",
",$	c #D7C1B7",
"'$	c #C2A899",
")$	c #978276",
"!$	c #382E2A",
"~$	c #14110F",
"{$	c #BEA39A",
"]$	c #AA9189",
"^$	c #756F6C",
"/$	c #B39893",
"($	c #232220",
"_$	c #988C87",
":$	c #D7BCB3",
"<$	c #A99182",
"[$	c #63504B",
"}$	c #5C4F4D",
"|$	c #D1B7B1",
"1$	c #BEB2A9",
"2$	c #D1B8AA",
"3$	c #332A26",
"4$	c #8C8078",
"5$	c #D6C5B8",
"6$	c #DBB5AB",
"7$	c #B79890",
"8$	c #4F413D",
"9$	c #9E8887",
"0$	c #6C6360",
"a$	c #86736D",
"b$	c #554E48",
"c$	c #CABAAD",
"d$	c #D8B6A9",
"e$	c #947C78",
"f$	c #26201D",
"g$	c #CEB1A8",
"h$	c #B7A8A2",
"i$	c #C1A397",
"j$	c #897B75",
"k$	c #DDC4BE",
"l$	c #B9A097",
"m$	c #403431",
"n$	c #7F7067",
"o$	c #B79189",
"p$	c #5B4F49",
"q$	c #DAC1BB",
"r$	c #98867D",
"s$	c #8A7C71",
"t$	c #695350",
"u$	c #9F8E87",
"v$	c #D5B1A8",
"w$	c #534843",
"x$	c #C2A49E",
"y$	c #AF9D8E",
"z$	c #B99589",
"A$	c #A79688",
"B$	c #D9B8AB",
"C$	c #5D514B",
"D$	c #715A57",
"E$	c #4F4543",
"F$	c #92867D",
"G$	c #8A7C76",
"H$	c #5D4942",
"I$	c #AE9D8F",
"J$	c #DBBEB5",
"K$	c #564E48",
"L$	c #BE998D",
"M$	c #AD9F94",
"N$	c #A68276",
"O$	c #908680",
"P$	c #D2B6AD",
"Q$	c #38322E",
"R$	c #765E56",
"S$	c #AA847C",
"T$	c #403C38",
"U$	c #DECCBF",
"V$	c #988982",
"W$	c #6F5C54",
"X$	c #796F67",
"Y$	c #E2D0C2",
"Z$	c #C5B2A9",
"`$	c #130F0E",
" %	c #C09286",
".%	c #AA8883",
"+%	c #A49A8C",
"@%	c #C8A595",
"#%	c #3A3531",
"$%	c #D8C7BA",
"%%	c #9E9187",
"&%	c #86655C",
"*%	c #332E2B",
"=%	c #DACDC3",
"-%	c #98837C",
";%	c #B1A9A4",
">%	c #E0CBC1",
",%	c #625650",
"'%	c #251B18",
")%	c #BE9188",
"!%	c #948D89",
"~%	c #988C88",
"{%	c #E0C2B1",
"]%	c #3A322E",
"^%	c #7E7370",
"/%	c #D2BAAE",
"(%	c #A68179",
"_%	c #1F1D1B",
":%	c #D6C1B8",
"<%	c #928982",
"[%	c #B5A29A",
"}%	c #0A0808",
"|%	c #D0C3B3",
"1%	c #887A74",
"2%	c #614A41",
"3%	c #90817B",
"4%	c #928682",
"5%	c #867872",
"6%	c #8E8279",
"7%	c #CBB7AD",
"8%	c #181412",
"9%	c #A1766C",
"0%	c #906A62",
"a%	c #110F0E",
"b%	c #D1BCB3",
"c%	c #8A7976",
"d%	c #DFC9BF",
"e%	c #282321",
"f%	c #191514",
"g%	c #D5C4B7",
"h%	c #8D7C73",
"i%	c #A7837B",
"j%	c #906E69",
"k%	c #847771",
"l%	c #8F7971",
"m%	c #C4AEA9",
"n%	c #877973",
"o%	c #C9B4A4",
"p%	c #695954",
"q%	c #9D7E76",
"r%	c #4C4441",
"s%	c #6E655D",
"t%	c #CBB7AE",
"u%	c #C5B2A2",
"v%	c #77675D",
"w%	c #110C0B",
"x%	c #D5B8AE",
"y%	c #A3847C",
"z%	c #4B433F",
"A%	c #C6B6B1",
"B%	c #7C6B66",
"C%	c #8A746C",
"D%	c #4E4742",
"E%	c #5B514D",
"F%	c #C0A899",
"G%	c #BDA49C",
"H%	c #A3887C",
"I%	c #4B443F",
"J%	c #7B736D",
"K%	c #BDAAA1",
"L%	c #D2C1BB",
"M%	c #A6998F",
"N%	c #E0C6B9",
"O%	c #302924",
"P%	c #95817A",
"Q%	c #4E4642",
"R%	c #D4C0B7",
"S%	c #665B56",
"T%	c #8D8178",
"U%	c #BBA9A1",
"V%	c #CFBBB2",
"W%	c #8B786D",
"X%	c #62544F",
"Y%	c #4B463F",
"Z%	c #877F78",
"`%	c #B5A39A",
" &	c #968881",
".&	c #544D47",
"+&	c #BFA397",
"@&	c #DDC4B6",
"#&	c #BD9B96",
"$&	c #DAC9B5",
"%&	c #13100F",
"&&	c #5C504A",
"*&	c #E2C8BA",
"=&	c #5D5752",
"-&	c #9B8E84",
";&	c #E4C3B5",
">&	c #120F0D",
",&	c #C4B1A8",
"'&	c #4B4642",
")&	c #B49F94",
"!&	c #E7CEC8",
"~&	c #0A0908",
"{&	c #C5B3AA",
"]&	c #6A5A53",
"^&	c #AA9692",
"/&	c #DFCEC1",
"(&	c #26221E",
"_&	c #514642",
":&	c #E8CAC1",
"<&	c #CBBFAF",
"[&	c #E1CFC2",
"}&	c #9C8576",
"|&	c #8C7E72",
"1&	c #4E443F",
"2&	c #A2958C",
"3&	c #AB9A8C",
"4&	c #B5A99B",
"5&	c #574E4A",
"6&	c #B9A091",
"7&	c #615752",
"8&	c #4E463F",
"9&	c #E3CEC4",
"0&	c #38332F",
"a&	c #3E3734",
"b&	c #E5C8BE",
"c&	c #A39187",
"d&	c #91837D",
"e&	c #DBB4A7",
"f&	c #1D1916",
"g&	c #E3D1C3",
"h&	c #B79B96",
"i&	c #4E4442",
"j&	c #AC9C95",
"k&	c #A8958B",
"l&	c #8D7E73",
"m&	c #8A776C",
"n&	c #897976",
"o&	c #AE9D90",
"p&	c #EBC5BB",
"q&	c #231B19",
"r&	c #B79E96",
"s&	c #EED5C7",
"t&	c #49413D",
"u&	c #2E2A26",
"v&	c #E1C5BB",
"w&	c #8D7C78",
"x&	c #7B6057",
"y&	c #675B54",
"z&	c #C3B1A8",
"A&	c #66524C",
"B&	c #C7B3AB",
"C&	c #B5A79C",
"D&	c #998983",
"E&	c #8D7973",
"F&	c #806562",
"G&	c #332D2B",
"H&	c #D6C2B2",
"I&	c #866C64",
"J&	c #BDA89D",
"K&	c #F1D3C9",
"L&	c #575047",
"M&	c #1D1917",
"N&	c #D5C0B0",
"O&	c #8A726C",
"P&	c #E6CCBF",
"Q&	c #E7D1C8",
"R&	c #9B7A73",
"S&	c #A99891",
"T&	c #B79B90",
"U&	c #BEB0A4",
"V&	c #8D7A74",
"W&	c #8F746C",
"X&	c #D4BFB6",
"Y&	c #3D3731",
"Z&	c #A47D72",
"`&	c #9F8B84",
" *	c #A38176",
".*	c #EBD5C3",
"+*	c #665B57",
"@*	c #D0B4A4",
"#*	c #D1B6AD",
"$*	c #615952",
"%*	c #AF8579",
"&*	c #8E7E75",
"**	c #A3817C",
"=*	c #C6B3A4",
"-*	c #826E65",
";*	c #8D8682",
">*	c #C1AE9F",
",*	c #786E67",
"'*	c #875848",
")*	c #7B6C64",
"!*	c #746B63",
"~*	c #C9AFA6",
"{*	c #8B8077",
"]*	c #B38178",
"^*	c #6E6059",
"/*	c #CEBEB2",
"(*	c #75645B",
"_*	c #B2A193",
":*	c #988C83",
"<*	c #E0B4A3",
"[*	c #62514C",
"}*	c #BD9E96",
"|*	c #81756A",
"1*	c #C2ACA0",
"2*	c #B89B93",
"3*	c #998F88",
"4*	c #DBB3A5",
"5*	c #51433F",
"6*	c #D5C5B8",
"7*	c #675D58",
"8*	c #E3D1BB",
"9*	c #92817D",
"0*	c #AF928B",
"a*	c #A3968C",
"b*	c #E6B5A8",
"c*	c #463935",
"d*	c #897E75",
"e*	c #BAA8A0",
"f*	c #856F67",
"g*	c #A0877C",
"h*	c #A79790",
"i*	c #E1B8B2",
"j*	c #3A2D29",
"k*	c #DBC3B6",
"l*	c #594E4C",
"m*	c #EAC8BA",
"n*	c #8D746D",
"o*	c #856A62",
"p*	c #9E8274",
"q*	c #AB9893",
"r*	c #2F2422",
"s*	c #BDA29D",
"t*	c #9A867F",
"u*	c #B99B93",
"v*	c #7D5F58",
"w*	c #7B655C",
"x*	c #9E827A",
"y*	c #A6988E",
"z*	c #0B0706",
"A*	c #312622",
"B*	c #B7A59D",
"C*	c #D8BFB2",
"D*	c #28221F",
"E*	c #4E3E3C",
"F*	c #E7C2B8",
"G*	c #82615D",
"H*	c #806862",
"I*	c #A6877C",
"J*	c #A7948A",
"K*	c #E2C4BA",
"L*	c #3A302C",
"M*	c #B7A89D",
"N*	c #A48C82",
"O*	c #AA8A7F",
"P*	c #987973",
"Q*	c #A88F8A",
"R*	c #A39086",
"S*	c #DFC1B8",
"T*	c #473A36",
"U*	c #DCBBAE",
"V*	c #362C28",
"W*	c #2E1F1C",
"X*	c #BE9587",
"Y*	c #92796D",
"Z*	c #B1948C",
"`*	c #9F8A83",
" =	c #DCC3B5",
".=	c #4C413D",
"+=	c #4E433F",
"@=	c #A2857E",
"#=	c #AC8E89",
"$=	c #927773",
"%=	c #B19A92",
"&=	c #947D74",
"*=	c #D9C0B3",
"==	c #B7AB9D",
"-=	c #4E443C",
";=	c #D7BEB0",
">=	c #473B37",
",=	c #2D2624",
"'=	c #E1C4BA",
")=	c #C0A79F",
"!=	c #7D6B60",
"~=	c #6D605C",
"{=	c #B7ABA3",
"]=	c #4E413C",
"^=	c #B1968B",
"/=	c #9C8A81",
"(=	c #8D776D",
"_=	c #C7AEA5",
":=	c #6D5853",
"<=	c #7F7268",
"[=	c #BDAB9D",
"}=	c #4B3E39",
"|=	c #E2C0B2",
"1=	c #57453F",
"2=	c #1B1917",
"3=	c #D4C3B6",
"4=	c #887168",
"5=	c #C9B9AC",
"6=	c #625149",
"7=	c #BDA49B",
"8=	c #887D74",
"9=	c #BDABA3",
"0=	c #483833",
"a=	c #B2938B",
"b=	c #8C837D",
"c=	c #786158",
"d=	c #D3BFB5",
"e=	c #3F3430",
"f=	c #9E8C88",
"g=	c #453330",
"h=	c #604E4A",
"i=	c #CFC2B9",
"j=	c #7D645D",
"k=	c #E5C8B7",
"l=	c #E0C6B8",
"m=	c #A2867F",
"n=	c #AE9B90",
"o=	c #4B3B36",
"p=	c #C1A098",
"q=	c #7F7571",
"r=	c #2D2522",
"s=	c #D0BCAB",
"t=	c #83706A",
"u=	c #B6A195",
"v=	c #B7A29D",
"w=	c #4B3E3C",
"x=	c #725E58",
"y=	c #C8B5AC",
"z=	c #7D6158",
"A=	c #64514B",
"B=	c #60504D",
"C=	c #CDABA3",
"D=	c #4B3D39",
"E=	c #C9AA9E",
"F=	c #726461",
"G=	c #87716B",
"H=	c #A9958B",
"I=	c #DBBDAB",
"J=	c #241F1C",
"K=	c #DDB9B0",
"L=	c #4B413F",
"M=	c #84726D",
"N=	c #C1A49F",
"O=	c #82645D",
"P=	c #A17E75",
"Q=	c #8D7D74",
"R=	c #CDB1A7",
"S=	c #191210",
"T=	c #EABDB3",
"U=	c #4B403C",
"V=	c #D6BBB2",
"W=	c #0B0806",
"X=	c #645251",
"Y=	c #927468",
"Z=	c #8A6F6C",
"`=	c #A0827A",
" -	c #574D49",
".-	c #B39A8C",
"+-	c #5B4A45",
"@-	c #4B413C",
"#-	c #907D77",
"$-	c #B99A92",
"%-	c #9D7E78",
"&-	c #856D67",
"*-	c #BC938A",
"=-	c #927E71",
"--	c #48433C",
";-	c #DCBCB6",
">-	c #1E1816",
",-	c #534543",
"'-	c #E2B4AA",
")-	c #80655C",
"!-	c #DEB5A7",
"~-	c #BFA99D",
"{-	c #65544D",
"]-	c #A38678",
"^-	c #B09183",
"/-	c #48403C",
"(-	c #96847B",
"_-	c #A4867E",
":-	c #987E73",
"<-	c #806357",
"[-	c #5B4A46",
"}-	c #9C8780",
"|-	c #DDB8A6",
"1-	c #120C0B",
"2-	c #C2A299",
"3-	c #B09589",
"4-	c #48413C",
"5-	c #E1C0B3",
"6-	c #423631",
"7-	c #D0A691",
"8-	c #9D8478",
"9-	c #80635C",
"0-	c #8F7B75",
"a-	c #574C46",
"b-	c #B39085",
"c-	c #E4BBB5",
"d-	c #B09889",
"e-	c #A68E83",
"f-	c #8A6D67",
"g-	c #987C73",
"h-	c #856D62",
"i-	c #B39B93",
"j-	c #D0B4AB",
"k-	c #826B65",
"l-	c #B79590",
"m-	c #E4C0B6",
"n-	c #3C342E",
"o-	c #31231E",
"p-	c #CCA08F",
"q-	c #D0B5A4",
"r-	c #A8948A",
"s-	c #D1A392",
"t-	c #281E1A",
"u-	c #987F78",
"v-	c #A99085",
"w-	c #94766C",
"x-	c #98796D",
"y-	c #493E3B",
"z-	c #5D524B",
"A-	c #A07A6B",
"B-	c #C3A39A",
"C-	c #E0C2B0",
"D-	c #4B4039",
"E-	c #231814",
"F-	c #80625C",
"G-	c #907F76",
"H-	c #C6B3A3",
"I-	c #6C5149",
"J-	c #DBBBAD",
"K-	c #484039",
"L-	c #B99E93",
"M-	c #BCA6A1",
"N-	c #8D7D6F",
"O-	c #D1A69D",
"P-	c #6B5952",
"Q-	c #B79589",
"R-	c #483D39",
"S-	c #E2C4B2",
"T-	c #594C45",
"U-	c #251E1C",
"V-	c #8E786E",
"W-	c #9E817A",
"X-	c #B79889",
"Y-	c #483D36",
"Z-	c #C1ABA0",
"`-	c #83746B",
" ;	c #958175",
".;	c #D4ADA0",
"+;	c #17110F",
"@;	c #D5ADA0",
"#;	c #BD9B90",
"$;	c #483B36",
"%;	c #F3D5C3",
"&;	c #6A6057",
"*;	c #BA9E93",
"=;	c #13100D",
"-;	c #D1BDAC",
";;	c #6B5853",
">;	c #C9B2A6",
",;	c #8F7771",
"';	c #D8BAA9",
");	c #382D2A",
"!;	c #C4A299",
"~;	c #45332D",
"{;	c #796B5F",
"];	c #9C7F76",
"^;	c #BFA798",
"/;	c #D1ACA2",
"(;	c #5D4C47",
"_;	c #2A221F",
":;	c #DDBCB6",
"<;	c #42302A",
"[;	c #D1B9AD",
"};	c #8F7C71",
"|;	c #CEA19B",
"1;	c #413632",
"2;	c #947972",
"3;	c #937B74",
"4;	c #483330",
"5;	c #867269",
"6;	c #8F7C76",
"7;	c #684D45",
"8;	c #7F6C64",
"9;	c #E2C5BB",
"0;	c #BF9A95",
"a;	c #CDB2A9",
"b;	c #45342D",
"c;	c #D7B4AB",
"d;	c #BA8F8A",
"e;	c #9D817C",
"f;	c #CCA99F",
"g;	c #3A2E2B",
"h;	c #776761",
"i;	c #BDA59D",
"j;	c #8D7569",
"k;	c #8F7E76",
"l;	c #DBADA3",
"m;	c #624B48",
"n;	c #B68F8A",
"o;	c #DCAFA6",
"p;	c #584843",
"q;	c #CAB0A8",
"r;	c #BDA8A3",
"s;	c #C69F92",
"t;	c #1A1310",
"u;	c #8F817B",
"v;	c #BE9A8F",
"w;	c #0C0706",
"x;	c #B08F8A",
"y;	c #CA9E95",
"z;	c #5D4B46",
"A;	c #766861",
"B;	c #927067",
"C;	c #8F8176",
"D;	c #6F5A53",
"E;	c #A17C71",
"F;	c #C79892",
"G;	c #4F3D37",
"H;	c #CEBBB2",
"I;	c #BDAFA3",
"J;	c #E1B2A4",
"K;	c #302622",
"L;	c #C7A9A4",
"M;	c #7C5C58",
"N;	c #CE9A88",
"O;	c #BA9791",
"P;	c #40302D",
"Q;	c #867973",
"R;	c #A8897F",
"S;	c #8F837B",
"T;	c #897670",
"U;	c #513F3A",
"V;	c #C49A8A",
"W;	c #D8B7A9",
"X;	c #967B74",
"Y;	c #262220",
"Z;	c #DCCBBE",
"`;	c #EDC4B6",
" >	c #413532",
".>	c #080504",
"+>	c #846660",
"@>	c #C89C8B",
"#>	c #E3CDBB",
"$>	c #B8A091",
"%>	c #4E423E",
"&>	c #A8988B",
"*>	c #B79C91",
"=>	c #281F1A",
"->	c #A48478",
";>	c #D0AA9D",
">>	c #E7CEC0",
",>	c #B7A99D",
"'>	c #5F5751",
")>	c #E8D3C1",
"!>	c #4E433C",
"~>	c #E8C6B9",
"{>	c #4F433D",
"]>	c #8A7E76",
"^>	c #766258",
"/>	c #B89A92",
"(>	c #D3B7A7",
"_>	c #E7D1BF",
":>	c #C3B7AE",
"<>	c #988C82",
"[>	c #12100E",
"}>	c #D3BFAF",
"|>	c #B39B8D",
"1>	c #D6BEB1",
"2>	c #3C3330",
"3>	c #524842",
"4>	c #8E7B6F",
"5>	c #A28F84",
"6>	c #B7A89C",
"7>	c #CFBBAA",
"8>	c #D7C2B1",
"9>	c #DCC7BD",
"0>	c #E9CFC1",
"a>	c #D9C4BA",
"b>	c #C6B6AA",
"c>	c #B9A499",
"d>	c #A18F8A",
"e>	c #756C64",
"f>	c #1E1A19",
"g>	c #AA978C",
"h>	c #C0A697",
"i>	c #786E66",
"j>	c #E3CDC3",
"k>	c #BCAAA1",
"l>	c #9E8C82",
"m>	c #D9C8BB",
"n>	c #4B433C",
"o>	c #6E615A",
"p>	c #E3C5B3",
"q>	c #82726A",
"r>	c #CDB9A9",
"s>	c #B7A596",
"t>	c #CAB4A8",
"u>	c #DEC5B7",
"v>	c #6A5C53",
"w>	c #BDA495",
"x>	c #7B6D65",
"y>	c #D9C4B3",
"z>	c #5E5149",
"A>	c #B7A296",
"B>	c #D6C2B1",
"C>	c #514741",
"D>	c #A99385",
"E>	c #887970",
"F>	c #8F7976",
"G>	c #D5BDB0",
"H>	c #554B42",
"I>	c #A89284",
"J>	c #D8C0B3",
"K>	c #13110F",
"L>	c #D8C3B2",
"M>	c #5E544C",
"N>	c #B09991",
"O>	c #BDA296",
"P>	c #4B4139",
"Q>	c #95847B",
"R>	c #DBC2B5",
"S>	c #75675F",
"T>	c #28211D",
"U>	c #BBA293",
"V>	c #4E4339",
"W>	c #DEC5B8",
"X>	c #E1C8BA",
"Y>	c #947E70",
"Z>	c #433A35",
"`>	c #CBB0A7",
" ,	c #B79E90",
".,	c #9F8D84",
"+,	c #B09B8A",
"@,	c #231D19",
"#,	c #726258",
"$,	c #D8BBB2",
"%,	c #E2C9BC",
"&,	c #352C2B",
"*,	c #D3B8A8",
"=,	c #574D46",
"-,	c #9E8B81",
";,	c #A9938C",
">,	c #E6C9AF",
",,	c #96877B",
"',	c #5A4D46",
"),	c #CEB0A4",
"!,	c #423A35",
"~,	c #8A796C",
"{,	c #CDB2A3",
"],	c #5C524A",
"^,	c #A68E7F",
"/,	c #E7C9B8",
"(,	c #BDA596",
"_,	c #AD968E",
":,	c #E9CBBA",
"<,	c #A9998B",
"[,	c #332B26",
"},	c #796D68",
"|,	c #D7BFAB",
"1,	c #E8BFB1",
"2,	c #53423D",
"3,	c #E1C4B3",
"4,	c #9F8A7E",
"5,	c #69605A",
"6,	c #C7B7AB",
"7,	c #AF9088",
"8,	c #DEC2B8",
"9,	c #9D897C",
"0,	c #2F2624",
"a,	c #6C645D",
"b,	c #C2B3A7",
"c,	c #EBD9CB",
"d,	c #DAB5A3",
"e,	c #5B4842",
"f,	c #E3CABD",
"g,	c #B39A8F",
"h,	c #534840",
"i,	c #877D74",
"j,	c #CDB9AA",
"k,	c #BD9A8E",
"l,	c #EBD1C3",
"m,	c #C2AFA6",
"n,	c #8B7B72",
"o,	c #26211E",
"p,	c #5E544D",
"q,	c #AD9D95",
"r,	c #E0CBBA",
"s,	c #6C5950",
"t,	c #DEC8BE",
"u,	c #B8A69E",
"v,	c #7E736B",
"w,	c #292522",
"x,	c #61554F",
"y,	c #A69689",
"z,	c #D5BDB1",
"A,	c #CCA79B",
"B,	c #D9C3B1",
"C,	c #BEAB9B",
"D,	c #98867C",
"E,	c #655950",
"F,	c #151210",
"G,	c #B39E93",
"H,	c #D6BDB0",
"I,	c #D7BAB0",
"J,	c #C1AD9D",
"K,	c #907C75",
"L,	c #665853",
"M,	c #231C19",
"N,	c #4E403C",
"O,	c #826C62",
"P,	c #A08A83",
"Q,	c #C1A293",
"R,	c #D5B9A8",
"S,	c #EBC9BB",
"T,	c #D6BAB1",
"U,	c #D5ACA4",
"V,	c #B6948F",
"W,	c #AD8B83",
"X,	c #987B71",
"Y,	c #826864",
"Z,	c #644D46",
"`,	c #5C4945",
" '	c #574843",
".'	c #473838",
"+'	c #352D2B",
"@'	c #2C2421",
"#'	c #302926",
"$'	c #5F504A",
"%'	c #705C53",
"&'	c #7E685E",
"*'	c #90776B",
"='	c #A0887E",
"-'	c #AF9483",
";'	c #BF9F8F",
">'	c #C8A99C",
",'	c #DEB9A8",
"  . . + @ # @ $ $ % & * * = = - = ; > & ; ; , ' ' . @ @ @ @ @ ) ! ) @ ~ ~ @ { ] ^ ^ ^ ^ ^ ^ ^ ^ ~ / @ & ( & . @ . @ @ @ _ ~ { { ] { ! ! ~ ! ! ) ) @ ) . ) (   . : ' ' ' < [ } | 1 , & & & ( ( ( 2 ( 2 % 2 % % % % % % % % % . % $ $ . 3 . . & ; 4 5 6 7 < 7 & .   . . + @ # @ $ $ % & * * = = - = ; > & ; ; , ' ' . @ @ @ @ @ ) ! ) @ ~ ~ @ { ] ^ ^ ^ ^ ^ ^ ^ ^ ~ / @ & ( & . @ . @ @ @ _ ~ { { ] { ! ! ~ ! ! ) ) @ ) . ) (   . : ' ' ' < [ } | 1 , & & & ( ( ( 2 ( 2 % 2 % % % % % % % % % . % $ $ . 3 . . & ; 4 5 6 7 < 7 & .   . . + @ # @ $ $ % & * * = = - = ; > & ; ; , ' ' . @ @ @ @ @ ) ! ) @ ~ ~ @ { ] ^ ^ ^ ^ ^ ^ ^ ^ ~ / @ & ( & . @ . @ @ @ _ ~ { { ] { ! ! ~ ! ! ) ) @ ) . ) (   . : ' ' ' < [ } | 1 , & & & ( ( ( 2 ( 2 % 2 % % % % % % % % % . % $ $ . 3 . . & ; 4 5 6 7 < 7 & .   . . + @ # @ $ $ % & * * = = - ",
"< 8 . ' ~ 9 / ( % ; 0 , a b 6 1 b 7 = ; ; 0 ; 0 & . . @ . c @ ! . 2 ) ! ] ! @ { ~ ^ ^ ^ ^ ^ _ ~ ~ @ @ ( ( ( % % . @ c ~ ! { ! { ] ] ~ _ ! ! @ ! . ) @ ) . (   ( & ( ' d 1 6 7 ; 7 ; & & % e 2 2 % f % f . f @ @ % . % . % 3 % $ g c $ . . ; ' , < } } 4 , ' ' d < 8 . ' ~ 9 / ( % ; 0 , a b 6 1 b 7 = ; ; 0 ; 0 & . . @ . c @ ! . 2 ) ! ] ! @ { ~ ^ ^ ^ ^ ^ _ ~ ~ @ @ ( ( ( % % . @ c ~ ! { ! { ] ] ~ _ ! ! @ ! . ) @ ) . (   ( & ( ' d 1 6 7 ; 7 ; & & % e 2 2 % f % f . f @ @ % . % . % 3 % $ g c $ . . ; ' , < } } 4 , ' ' d < 8 . ' ~ 9 / ( % ; 0 , a b 6 1 b 7 = ; ; 0 ; 0 & . . @ . c @ ! . 2 ) ! ] ! @ { ~ ^ ^ ^ ^ ^ _ ~ ~ @ @ ( ( ( % % . @ c ~ ! { ! { ] ] ~ _ ! ! @ ! . ) @ ) . (   ( & ( ' d 1 6 7 ; 7 ; & & % e 2 2 % f % f . f @ @ % . % . % 3 % $ g c $ . . ; ' , < } } 4 , ' ' d < 8 . ' ~ 9 / ( % ; 0 , a b 6 1 ",
"5 h 8 ( 9 . & ( ; ( * ; , 1 i j | a 7 k * l ' , & . . . . @ @ ) 2 ) @ @ ~ ~ c ~ ] ^ ~ ^ _ m _ ~ ~ ~ @ & ( . . . @ @ ! @ ! n ! ! { ] ] @ ) 2 ) ! ) ! . 2   ( 2 ) ( ' ( ; < 1 1 ; & & & % % . % 2 @ % ! % @ 2 % 2 % o . f @ @ $ f @ @ @ @ 9 ' p 8 < q r < ' ; ' 7 5 h 8 ( 9 . & ( ; ( * ; , 1 i j | a 7 k * l ' , & . . . . @ @ ) 2 ) @ @ ~ ~ c ~ ] ^ ~ ^ _ m _ ~ ~ ~ @ & ( . . . @ @ ! @ ! n ! ! { ] ] @ ) 2 ) ! ) ! . 2   ( 2 ) ( ' ( ; < 1 1 ; & & & % % . % 2 @ % ! % @ 2 % 2 % o . f @ @ $ f @ @ @ @ 9 ' p 8 < q r < ' ; ' 7 5 h 8 ( 9 . & ( ; ( * ; , 1 i j | a 7 k * l ' , & . . . . @ @ ) 2 ) @ @ ~ ~ c ~ ] ^ ~ ^ _ m _ ~ ~ ~ @ & ( . . . @ @ ! @ ! n ! ! { ] ] @ ) 2 ) ! ) ! . 2   ( 2 ) ( ' ( ; < 1 1 ; & & & % % . % 2 @ % ! % @ 2 % 2 % o . f @ @ $ f @ @ @ @ 9 ' p 8 < q r < ' ; ' 7 5 h 8 ( 9 . & ( ; ( * ; , 1 i j ",
", 6 r & ; $ d & d * ' * 0 , 7 b 7 b 6 6 7 * ; 9 & % & & . @ . % ) 2 . ~ ] ] ~ ] ~ s ] ^ ^ ^ ~ ] ] $ @ . ( 2 . . @ @ @ { @ ! ! ! @ @ @ ! ) 2   2 ( ) 2   2   (   ( ( (   , 4 1 7 & & & % @ @ @ f o . f @ % 2 % 2 % % @ % . t @ @ ) @ @ @ 2 ( 0 ' 5 5 < , ' ' ( ' , 6 r & ; $ d & d * ' * 0 , 7 b 7 b 6 6 7 * ; 9 & % & & . @ . % ) 2 . ~ ] ] ~ ] ~ s ] ^ ^ ^ ~ ] ] $ @ . ( 2 . . @ @ @ { @ ! ! ! @ @ @ ! ) 2   2 ( ) 2   2   (   ( ( (   , 4 1 7 & & & % @ @ @ f o . f @ % 2 % 2 % % @ % . t @ @ ) @ @ @ 2 ( 0 ' 5 5 < , ' ' ( ' , 6 r & ; $ d & d * ' * 0 , 7 b 7 b 6 6 7 * ; 9 & % & & . @ . % ) 2 . ~ ] ] ~ ] ~ s ] ^ ^ ^ ~ ] ] $ @ . ( 2 . . @ @ @ { @ ! ! ! @ @ @ ! ) 2   2 ( ) 2   2   (   ( ( (   , 4 1 7 & & & % @ @ @ f o . f @ % 2 % 2 % % @ % . t @ @ ) @ @ @ 2 ( 0 ' 5 5 < , ' ' ( ' , 6 r & ; $ d & d * ' * 0 , 7 b ",
"9 6 } u & , & , , d 0 ; ' & ' * a i v v 6 , & w & & . . @ @ . ( & 2 . @ ~ @ @ ] @ ~ ] ~ ] ] ~ ~ ~ @ ) ( ( % ) @ @ @ @ @ ! ! ! ! ! ) 2 ) 2 ( x : ( x ( 2 ( y ) 2 @ ) ' 0 < 4 , & & ( 9 @ ~ ~ f o @ @ ~ ~ @ ~ @ . 2 ) % @ @ @ @ @ % ) ) ) x x : ' z z ' ( ' ' % . 9 6 } u & , & , , d 0 ; ' & ' * a i v v 6 , & w & & . . @ @ . ( & 2 . @ ~ @ @ ] @ ~ ] ~ ] ] ~ ~ ~ @ ) ( ( % ) @ @ @ @ @ ! ! ! ! ! ) 2 ) 2 ( x : ( x ( 2 ( y ) 2 @ ) ' 0 < 4 , & & ( 9 @ ~ ~ f o @ @ ~ ~ @ ~ @ . 2 ) % @ @ @ @ @ % ) ) ) x x : ' z z ' ( ' ' % . 9 6 } u & , & , , d 0 ; ' & ' * a i v v 6 , & w & & . . @ @ . ( & 2 . @ ~ @ @ ] @ ~ ] ~ ] ] ~ ~ ~ @ ) ( ( % ) @ @ @ @ @ ! ! ! ! ! ) 2 ) 2 ( x : ( x ( 2 ( y ) 2 @ ) ' 0 < 4 , & & ( 9 @ ~ ~ f o @ @ ~ ~ @ ~ @ . 2 ) % @ @ @ @ @ % ) ) ) x x : ' z z ' ( ' ' % . 9 6 } u & , & , , d 0 ; ' & ' * ",
"A = 6 B [ , l 1 , ; & ( & % % 9 = 1 C C u D , , ' & % % . $ & ( ' ( ( . @ @ . . ! @ ! ] @ @ ! @ ! . 2 0 ( ( % ) @ @ @ ! ) 2 ! ) 2 ( ( ( ) ( E 8 E ( x ( x ( 2 ) ( ' ' ' < < 8 & ' ( ( f ~ ~ @ o @ ! @ ~ @ ! f ) % 2 . % @ . % @ ) ! 2 y ( E E 8 F G 8 ( ( (   ( A = 6 B [ , l 1 , ; & ( & % % 9 = 1 C C u D , , ' & % % . $ & ( ' ( ( . @ @ . . ! @ ! ] @ @ ! @ ! . 2 0 ( ( % ) @ @ @ ! ) 2 ! ) 2 ( ( ( ) ( E 8 E ( x ( x ( 2 ) ( ' ' ' < < 8 & ' ( ( f ~ ~ @ o @ ! @ ~ @ ! f ) % 2 . % @ . % @ ) ! 2 y ( E E 8 F G 8 ( ( (   ( A = 6 B [ , l 1 , ; & ( & % % 9 = 1 C C u D , , ' & % % . $ & ( ' ( ( . @ @ . . ! @ ! ] @ @ ! @ ! . 2 0 ( ( % ) @ @ @ ! ) 2 ! ) 2 ( ( ( ) ( E 8 E ( x ( x ( 2 ) ( ' ' ' < < 8 & ' ( ( f ~ ~ @ o @ ! @ ~ @ ! f ) % 2 . % @ . % @ ) ! 2 y ( E E 8 F G 8 ( ( (   ( A = 6 B [ , l 1 , ; & ( & % % 9 ",
"; > 6 D H 1 [ < & 9 3 . . . . 2 & = i } i i 1 1 I * ; * ' * 0 , ' 0 & . . 2 ( . % ) . @ ! @ ! @ ) % ( E ' 2 ) . ) . 2 ) 2 ) 2 2 ( ' ' ' 0 : ' E ' x ( ( x ( x 2 E E 0 ' 0 J < 0 ( & % . ! ~ { @ ! @ @ ! @ ! 2 2 2 ) @ ! @ f @ ! f K x x 8 8 L 8 8 < E ' ' ' & ' ; > 6 D H 1 [ < & 9 3 . . . . 2 & = i } i i 1 1 I * ; * ' * 0 , ' 0 & . . 2 ( . % ) . @ ! @ ! @ ) % ( E ' 2 ) . ) . 2 ) 2 ) 2 2 ( ' ' ' 0 : ' E ' x ( ( x ( x 2 E E 0 ' 0 J < 0 ( & % . ! ~ { @ ! @ @ ! @ ! 2 2 2 ) @ ! @ f @ ! f K x x 8 8 L 8 8 < E ' ' ' & ' ; > 6 D H 1 [ < & 9 3 . . . . 2 & = i } i i 1 1 I * ; * ' * 0 , ' 0 & . . 2 ( . % ) . @ ! @ ! @ ) % ( E ' 2 ) . ) . 2 ) 2 ) 2 2 ( ' ' ' 0 : ' E ' x ( ( x ( x 2 E E 0 ' 0 J < 0 ( & % . ! ~ { @ ! @ @ ! @ ! 2 2 2 ) @ ! @ f @ ! f K x x 8 8 L 8 8 < E ' ' ' & ' ; > 6 D H 1 [ < & 9 3 . . . . 2 ",
"M | k b [ N H , O . $ . @ @ . ( & , a a a , I a 1 a , , a 7 7 J ; ' ( % . % 9 ( . . . @ c . . ! . 2 ( ' ( . . % ) 2 ( ( ( x (   ' ( ' d < 8 8 ' ' ( ( x ( ( x ( . ( 0 8 < J 8 ( ( . 2 . o @ o @ ~ ~ ~ ~ ~ . 2 2 . 2 @ o @ @ . 2 ) ( E 8 P 8 8 < 8 p ; ( 8 d & ' M | k b [ N H , O . $ . @ @ . ( & , a a a , I a 1 a , , a 7 7 J ; ' ( % . % 9 ( . . . @ c . . ! . 2 ( ' ( . . % ) 2 ( ( ( x (   ' ( ' d < 8 8 ' ' ( ( x ( ( x ( . ( 0 8 < J 8 ( ( . 2 . o @ o @ ~ ~ ~ ~ ~ . 2 2 . 2 @ o @ @ . 2 ) ( E 8 P 8 8 < 8 p ; ( 8 d & ' M | k b [ N H , O . $ . @ @ . ( & , a a a , I a 1 a , , a 7 7 J ; ' ( % . % 9 ( . . . @ c . . ! . 2 ( ' ( . . % ) 2 ( ( ( x (   ' ( ' d < 8 8 ' ' ( ( x ( ( x ( . ( 0 8 < J 8 ( ( . 2 . o @ o @ ~ ~ ~ ~ ~ . 2 2 . 2 @ o @ @ . 2 ) ( E 8 P 8 8 < 8 p ; ( 8 d & ' M | k b [ N H , O . $ . @ @ . ( ",
"[ 6 6 [ u C Q R 7 9 ; . . S c   & & ; , , , a 1 = 0 * , , I a a < , ; ' & ' ( ' ' ( % . 2   2 . ( ( ' x ( 2 @ ] ( @ ( : 8 J E < < ' 7 8 < < ( d ( < 8   ( 8 ' ( 2 ' 8 8 < z < 0 ( ( 2 % 2 2 ! ~ ! % ~ ~ @ 2 2 2 2 @ ! f ! o 2 2 ( x : p 8 < G 8 d 8 7 d 7 < 4 7 [ 6 6 [ u C Q R 7 9 ; . . S c   & & ; , , , a 1 = 0 * , , I a a < , ; ' & ' ( ' ' ( % . 2   2 . ( ( ' x ( 2 @ ] ( @ ( : 8 J E < < ' 7 8 < < ( d ( < 8   ( 8 ' ( 2 ' 8 8 < z < 0 ( ( 2 % 2 2 ! ~ ! % ~ ~ @ 2 2 2 2 @ ! f ! o 2 2 ( x : p 8 < G 8 d 8 7 d 7 < 4 7 [ 6 6 [ u C Q R 7 9 ; . . S c   & & ; , , , a 1 = 0 * , , I a a < , ; ' & ' ( ' ' ( % . 2   2 . ( ( ' x ( 2 @ ] ( @ ( : 8 J E < < ' 7 8 < < ( d ( < 8   ( 8 ' ( 2 ' 8 8 < z < 0 ( ( 2 % 2 2 ! ~ ! % ~ ~ @ 2 2 2 2 @ ! f ! o 2 2 ( x : p 8 < G 8 d 8 7 d 7 < 4 7 [ 6 6 [ u C Q R 7 9 ; . . S c   ",
"b 6 6 i 7 7 T U u 7 V @ $   ] + % & e ; * , 7 1 a a , = = = , 7 a < 7 , 8 , 0 0 '   @ @ . ( ( ' ( ( 2 . 2 . ) % 9 @ . . ' 8 < } u } B } 6 < ' 7 . ' ' ' ' d ( ( , 8 7 , J 1 < , & ( & ( ) 2 2 2 % 2 @ @ @ 2 ( ) 2 f ! . 2 . 2 x ' , p 0 p 8 < 8 d , W < 1 X 5 6 b 6 6 i 7 7 T U u 7 V @ $   ] + % & e ; * , 7 1 a a , = = = , 7 a < 7 , 8 , 0 0 '   @ @ . ( ( ' ( ( 2 . 2 . ) % 9 @ . . ' 8 < } u } B } 6 < ' 7 . ' ' ' ' d ( ( , 8 7 , J 1 < , & ( & ( ) 2 2 2 % 2 @ @ @ 2 ( ) 2 f ! . 2 . 2 x ' , p 0 p 8 < 8 d , W < 1 X 5 6 b 6 6 i 7 7 T U u 7 V @ $   ] + % & e ; * , 7 1 a a , = = = , 7 a < 7 , 8 , 0 0 '   @ @ . ( ( ' ( ( 2 . 2 . ) % 9 @ . . ' 8 < } u } B } 6 < ' 7 . ' ' ' ' d ( ( , 8 7 , J 1 < , & ( & ( ) 2 2 2 % 2 @ @ @ 2 ( ) 2 f ! . 2 . 2 x ' , p 0 p 8 < 8 d , W < 1 X 5 6 b 6 6 i 7 7 T U u 7 V @ $   ] + ",
", 7 < W & A 7 B u 4 3 @ + . ~ ~ . & 9 & ( * , , 1 6 1 a a , = , * 0 , 7 < 1 < < , 0 (   ( ( ' ( .   ( ' ' ( . @ . @ & & 0 , , < a u U Y u Z = , 1 < , 7 J , ' , d , , J 1 < 0 & ( ( 9 ( & ( ' : ( ' ( ) 2 ( ( . ( . ! 2 ) 2 ( : 8 p , p , ` , d d 8 W < 5 X 6 7 , 7 < W & A 7 B u 4 3 @ + . ~ ~ . & 9 & ( * , , 1 6 1 a a , = , * 0 , 7 < 1 < < , 0 (   ( ( ' ( .   ( ' ' ( . @ . @ & & 0 , , < a u U Y u Z = , 1 < , 7 J , ' , d , , J 1 < 0 & ( ( 9 ( & ( ' : ( ' ( ) 2 ( ( . ( . ! 2 ) 2 ( : 8 p , p , ` , d d 8 W < 5 X 6 7 , 7 < W & A 7 B u 4 3 @ + . ~ ~ . & 9 & ( * , , 1 6 1 a a , = , * 0 , 7 < 1 < < , 0 (   ( ( ' ( .   ( ' ' ( . @ . @ & & 0 , , < a u U Y u Z = , 1 < , 7 J , ' , d , , J 1 < 0 & ( ( 9 ( & ( ' : ( ' ( ) 2 ( ( . ( . ! 2 ) 2 ( : 8 p , p , ` , d d 8 W < 5 X 6 7 , 7 < W & A 7 B u 4 3 @ + . ~ ~ ",
"' 9 . 3 . > d b [ 4 , g @ + . . @ . % % ' & 0 0 1  .6 6 b a a , ; ; ' 7 J 4 J J 8 8 < 8 8 ' & ) 9 ( ' ' ( (   % ) . 0 d , 7 , a ..U R +.} u H U C u 1 1 6 < 7 1 a 7 a 1 b 4 7 < = ' ' ' ' ( ( '   ( ' ( ' ( ( ) ( 2 ) 2 ( ( : 8 8 d 8 ' d < < p 7 < 8 p , W ' . ' 9 . 3 . > d b [ 4 , g @ + . . @ . % % ' & 0 0 1  .6 6 b a a , ; ; ' 7 J 4 J J 8 8 < 8 8 ' & ) 9 ( ' ' ( (   % ) . 0 d , 7 , a ..U R +.} u H U C u 1 1 6 < 7 1 a 7 a 1 b 4 7 < = ' ' ' ' ( ( '   ( ' ( ' ( ( ) ( 2 ) 2 ( ( : 8 8 d 8 ' d < < p 7 < 8 p , W ' . ' 9 . 3 . > d b [ 4 , g @ + . . @ . % % ' & 0 0 1  .6 6 b a a , ; ; ' 7 J 4 J J 8 8 < 8 8 ' & ) 9 ( ' ' ( (   % ) . 0 d , 7 , a ..U R +.} u H U C u 1 1 6 < 7 1 a 7 a 1 b 4 7 < = ' ' ' ' ( ( '   ( ' ( ' ( ( ) ( 2 ) 2 ( ( : 8 8 d 8 ' d < < p 7 < 8 p , W ' . ' 9 . 3 . > d b [ 4 , g @ + . . ",
") @ + + . . ; ; 6 6 1 9 ( % ( @ @ . . ) & ( ' ; ; 7 b 1 6 D b , 7 , , , 0 , ' ' ' 0 , 8 < < 8 0 d ' ( ' ' & ( d ' & , ' , 6 j H [ v Q u 6 [ 1 6 @.#.U C $.u D 7 | D j } 6 b , , d 0 ; ' ' 9 ( & & ( ' ' ' p ' ( ( . ( ( ( ( : , p 8 , p 8 < < 8 8 p , ( . . @ g ) @ + + . . ; ; 6 6 1 9 ( % ( @ @ . . ) & ( ' ; ; 7 b 1 6 D b , 7 , , , 0 , ' ' ' 0 , 8 < < 8 0 d ' ( ' ' & ( d ' & , ' , 6 j H [ v Q u 6 [ 1 6 @.#.U C $.u D 7 | D j } 6 b , , d 0 ; ' ' 9 ( & & ( ' ' ' p ' ( ( . ( ( ( ( : , p 8 , p 8 < < 8 8 p , ( . . @ g ) @ + + . . ; ; 6 6 1 9 ( % ( @ @ . . ) & ( ' ; ; 7 b 1 6 D b , 7 , , , 0 , ' ' ' 0 , 8 < < 8 0 d ' ( ' ' & ( d ' & , ' , 6 j H [ v Q u 6 [ 1 6 @.#.U C $.u D 7 | D j } 6 b , , d 0 ; ' ' 9 ( & & ( ' ' ' p ' ( ( . ( ( ( ( : , p 8 , p 8 < < 8 8 p , ( . . @ g ) @ + + . . ; ; 6 6 1 9 ( % ( @ ",
"] ] @ c g g g 9 7 X u } & & . ( . @ . . ( ; ( & & 0 < b j } 6 b a %., , ' ' e ( & ( ( ' ' 8 8 < < < 4 z 4 ' ( ( , , 4 b 6 C &.*.=.H +.[ b j u Q =.*.Q -.;.>.N *.,.N -.D = | 6 i 7 ' ' ' ' & & ' 9 ' ' d , 8 , ' (   %   ( ( ( : , p < < < G < 8 ' : ' ) @ c @ @ ] ] @ c g g g 9 7 X u } & & . ( . @ . . ( ; ( & & 0 < b j } 6 b a %., , ' ' e ( & ( ( ' ' 8 8 < < < 4 z 4 ' ( ( , , 4 b 6 C &.*.=.H +.[ b j u Q =.*.Q -.;.>.N *.,.N -.D = | 6 i 7 ' ' ' ' & & ' 9 ' ' d , 8 , ' (   %   ( ( ( : , p < < < G < 8 ' : ' ) @ c @ @ ] ] @ c g g g 9 7 X u } & & . ( . @ . . ( ; ( & & 0 < b j } 6 b a %., , ' ' e ( & ( ( ' ' 8 8 < < < 4 z 4 ' ( ( , , 4 b 6 C &.*.=.H +.[ b j u Q =.*.Q -.;.>.N *.,.N -.D = | 6 i 7 ' ' ' ' & & ' 9 ' ' d , 8 , ' (   %   ( ( ( : , p < < < G < 8 ' : ' ) @ c @ @ ] ] @ c g g g 9 7 X u } & & . ( ",
"] _ n ] + + 3 . A 5 +.+.' ( f ' % ) ) 2 ' ( ' & ' d , b 6 u u 6 a , , 0 0 , ' ( 0 ( ( % ( ( ' : , < 6 r X < d 8 < < Z 6 u -.C C [ 6 '.} ).u [ u !.~.-.$.{.'.D D -.N ].>.,.R C | } b d , 7 ' ' d ' 0 d 8 < 4 < 8 ' ' ( ' ( ( : 8 8 < < 8 < G 8 : ( ( ) ! ] { ! ! ] _ n ] + + 3 . A 5 +.+.' ( f ' % ) ) 2 ' ( ' & ' d , b 6 u u 6 a , , 0 0 , ' ( 0 ( ( % ( ( ' : , < 6 r X < d 8 < < Z 6 u -.C C [ 6 '.} ).u [ u !.~.-.$.{.'.D D -.N ].>.,.R C | } b d , 7 ' ' d ' 0 d 8 < 4 < 8 ' ' ( ' ( ( : 8 8 < < 8 < G 8 : ( ( ) ! ] { ! ! ] _ n ] + + 3 . A 5 +.+.' ( f ' % ) ) 2 ' ( ' & ' d , b 6 u u 6 a , , 0 0 , ' ( 0 ( ( % ( ( ' : , < 6 r X < d 8 < < Z 6 u -.C C [ 6 '.} ).u [ u !.~.-.$.{.'.D D -.N ].>.,.R C | } b d , 7 ' ' d ' 0 d 8 < 4 < 8 ' ' ( ' ( ( : 8 8 < < 8 < G 8 : ( ( ) ! ] { ! ! ] _ n ] + + 3 . A 5 +.+.' ( f ' ",
"^ ] ^.^ + . c 3 & , X [ Z ; ; % . ) .   ( ' ' ( ; 0 , , b u '.b 1 J 7 , ' & % . % ( & ( ) 2 ( ( ' 9 ' < < G } /.6 1 6 b 6 (.-.H $.[ } [ D [ '._.:.<.'.[.).D D [ [ }.'.j -.,.#.Y Q u | | 7 7 d 7 , 7 | < < 1 < < < 8 , E : E d 8 < < G G 8 8 : 2   ( ! { ] { ] ^ ^ ] ^.^ + . c 3 & , X [ Z ; ; % . ) .   ( ' ' ( ; 0 , , b u '.b 1 J 7 , ' & % . % ( & ( ) 2 ( ( ' 9 ' < < G } /.6 1 6 b 6 (.-.H $.[ } [ D [ '._.:.<.'.[.).D D [ [ }.'.j -.,.#.Y Q u | | 7 7 d 7 , 7 | < < 1 < < < 8 , E : E d 8 < < G G 8 8 : 2   ( ! { ] { ] ^ ^ ] ^.^ + . c 3 & , X [ Z ; ; % . ) .   ( ' ' ( ; 0 , , b u '.b 1 J 7 , ' & % . % ( & ( ) 2 ( ( ' 9 ' < < G } /.6 1 6 b 6 (.-.H $.[ } [ D [ '._.:.<.'.[.).D D [ [ }.'.j -.,.#.Y Q u | | 7 7 d 7 , 7 | < < 1 < < < 8 , E : E d 8 < < G G 8 8 : 2   ( ! { ] { ] ^ ^ ] ^.^ + . c 3 & , X [ Z ; ; % ",
"] ^ # ] ] ] @ . + |.1 1 4 7 d & . & ( . 2 ( : ' 8 d , < 6 j [ j X 1 7 , d , ' ' (   2 2 ( ) 2 ) ( ' ' ' 8 d 8 < 5 /.u u $.1.[ ,.$.[ [ $.C '.2.3.4.5.6.7.D | [ 1 [ X X X T $.H *.;.8.:.N $.u 6 D 1 6 } } 6 6 5 1 < 8 ' p , : 8 G < z 9.G p : ( ) ) ) ) @ ] ] ] ] ] ^ # ] ] ] @ . + |.1 1 4 7 d & . & ( . 2 ( : ' 8 d , < 6 j [ j X 1 7 , d , ' ' (   2 2 ( ) 2 ) ( ' ' ' 8 d 8 < 5 /.u u $.1.[ ,.$.[ [ $.C '.2.3.4.5.6.7.D | [ 1 [ X X X T $.H *.;.8.:.N $.u 6 D 1 6 } } 6 6 5 1 < 8 ' p , : 8 G < z 9.G p : ( ) ) ) ) @ ] ] ] ] ] ^ # ] ] ] @ . + |.1 1 4 7 d & . & ( . 2 ( : ' 8 d , < 6 j [ j X 1 7 , d , ' ' (   2 2 ( ) 2 ) ( ' ' ' 8 d 8 < 5 /.u u $.1.[ ,.$.[ [ $.C '.2.3.4.5.6.7.D | [ 1 [ X X X T $.H *.;.8.:.N $.u 6 D 1 6 } } 6 6 5 1 < 8 ' p , : 8 G < z 9.G p : ( ) ) ) ) @ ] ] ] ] ] ^ # ] ] ] @ . + |.1 1 4 7 d & ",
"^ 0.^ a.] / c @ c & d 7 7 d b.3 9 ( ( ( . x 0 x ' : , < 1 6 j 6 [ 6 4 , , d ' ( ( % ( ) ) 2 ) 2 ) ) ( ' ( ( ' ' & 1 < X u >.*.c.~.=.C }.-._._.d.e.4.f.}.b j | 1 5 5 5 [ 6 X $.(.6 H ~.!.:.@.*.u | } Q +.6 i 5 4 < < < G < :   : < G G 8 : : x g.( ) ! ] ] ] + + ^ 0.^ a.] / c @ c & d 7 7 d b.3 9 ( ( ( . x 0 x ' : , < 1 6 j 6 [ 6 4 , , d ' ( ( % ( ) ) 2 ) 2 ) ) ( ' ( ( ' ' & 1 < X u >.*.c.~.=.C }.-._._.d.e.4.f.}.b j | 1 5 5 5 [ 6 X $.(.6 H ~.!.:.@.*.u | } Q +.6 i 5 4 < < < G < :   : < G G 8 : : x g.( ) ! ] ] ] + + ^ 0.^ a.] / c @ c & d 7 7 d b.3 9 ( ( ( . x 0 x ' : , < 1 6 j 6 [ 6 4 , , d ' ( ( % ( ) ) 2 ) 2 ) ) ( ' ( ( ' ' & 1 < X u >.*.c.~.=.C }.-._._.d.e.4.f.}.b j | 1 5 5 5 [ 6 X $.(.6 H ~.!.:.@.*.u | } Q +.6 i 5 4 < < < G < :   : < G G 8 : : x g.( ) ! ] ] ] + + ^ 0.^ a.] / c @ c & d 7 7 d b.3 ",
"# # ^.# ^ ] ] @ . 9 ( ; 7 7 l 9 ; ( &   2 ( ( x E E < 4 6 5 6 6 X 1 4 < 7 , ' & |.( ) % ) ! 2 ) ) & ( ' (   (   . , d 1 | H H @.c.].].:.].*.d.5.h.i.d.6.j.} b r X X X X X X r u /.B X 6 +.1.#.k.>.#.U '.X H B ; , ` 7 < < < < z < ` p ' x : ( x g.( ! @ c c ] ^ # # ^.# ^ ] ] @ . 9 ( ; 7 7 l 9 ; ( &   2 ( ( x E E < 4 6 5 6 6 X 1 4 < 7 , ' & |.( ) % ) ! 2 ) ) & ( ' (   (   . , d 1 | H H @.c.].].:.].*.d.5.h.i.d.6.j.} b r X X X X X X r u /.B X 6 +.1.#.k.>.#.U '.X H B ; , ` 7 < < < < z < ` p ' x : ( x g.( ! @ c c ] ^ # # ^.# ^ ] ] @ . 9 ( ; 7 7 l 9 ; ( &   2 ( ( x E E < 4 6 5 6 6 X 1 4 < 7 , ' & |.( ) % ) ! 2 ) ) & ( ' (   (   . , d 1 | H H @.c.].].:.].*.d.5.h.i.d.6.j.} b r X X X X X X r u /.B X 6 +.1.#.k.>.#.U '.X H B ; , ` 7 < < < < z < ` p ' x : ( x g.( ! @ c c ] ^ # # ^.# ^ ] ] @ . 9 ( ; 7 7 l 9 ",
"^.^ # ] ^ + ] ] . . 9 9 d 7 7 7 ' ; ( %   ( 2 ) ( ' 8 F 1 6 1 1 1 1 1 4 < < ' ' ( ( % ) ! @ ! 2 .   : ' : (   ( ' d ' < ; 6 6 $.:.:.c.l.m.].n.o.4.p.n.}.C '.j X q q.q q.q X 9.5 G X q r.B s.u +.;.;.@.c.>.u 6 } 4 1 4 < 4 < < < < p : (   x   ) g.) ) ) ) ! c # ^.^ # ] ^ + ] ] . . 9 9 d 7 7 7 ' ; ( %   ( 2 ) ( ' 8 F 1 6 1 1 1 1 1 4 < < ' ' ( ( % ) ! @ ! 2 .   : ' : (   ( ' d ' < ; 6 6 $.:.:.c.l.m.].n.o.4.p.n.}.C '.j X q q.q q.q X 9.5 G X q r.B s.u +.;.;.@.c.>.u 6 } 4 1 4 < 4 < < < < p : (   x   ) g.) ) ) ) ! c # ^.^ # ] ^ + ] ] . . 9 9 d 7 7 7 ' ; ( %   ( 2 ) ( ' 8 F 1 6 1 1 1 1 1 4 < < ' ' ( ( % ) ! @ ! 2 .   : ' : (   ( ' d ' < ; 6 6 $.:.:.c.l.m.].n.o.4.p.n.}.C '.j X q q.q q.q X 9.5 G X q r.B s.u +.;.;.@.c.>.u 6 } 4 1 4 < 4 < < < < p : (   x   ) g.) ) ) ) ! c # ^.^ # ] ^ + ] ] . . 9 9 d 7 7 7 ",
"] ] ^ ] ^ ~ ] ~ ] ~ c 3 9 ; d 7 d &   9 2 ) ( 2 ) x x 8 8 8 7 , < < < J < < 8 ' ' ( ) @ @ @ . @ . ) (   (   ( . ( ( ( 7 d 5 u u Q ,.!.3.t.u.v.w.x.y.n.'.-.$.6 7 5 5 5 9.z.A.h G A.9.9.h h < h /.B.;.#.Q U C.:.[ 4 b 6 6 6 6 < d 8 ' (   :   ) ! ! ) ) K (   @ ^.] ] ^ ] ^ ~ ] ~ ] ~ c 3 9 ; d 7 d &   9 2 ) ( 2 ) x x 8 8 8 7 , < < < J < < 8 ' ' ( ) @ @ @ . @ . ) (   (   ( . ( ( ( 7 d 5 u u Q ,.!.3.t.u.v.w.x.y.n.'.-.$.6 7 5 5 5 9.z.A.h G A.9.9.h h < h /.B.;.#.Q U C.:.[ 4 b 6 6 6 6 < d 8 ' (   :   ) ! ! ) ) K (   @ ^.] ] ^ ] ^ ~ ] ~ ] ~ c 3 9 ; d 7 d &   9 2 ) ( 2 ) x x 8 8 8 7 , < < < J < < 8 ' ' ( ) @ @ @ . @ . ) (   (   ( . ( ( ( 7 d 5 u u Q ,.!.3.t.u.v.w.x.y.n.'.-.$.6 7 5 5 5 9.z.A.h G A.9.9.h h < h /.B.;.#.Q U C.:.[ 4 b 6 6 6 6 < d 8 ' (   :   ) ! ! ) ) K (   @ ^.] ] ^ ] ^ ~ ] ~ ] ~ c 3 9 ; d 7 ",
"s ] _ ] _ ] ~ ] ] ~ g @ $ . l < 7 d & 9 ( . 2 ) 2 ( ' E d E p 8 d 8 8 8 < 8 p 8 ( ( & 2 . 2 . ) 2 9 ( ' ( ( ) ( ( ' ( 4 z 5 r X +.D.Q }.2.E.F.w.v.G.8.,.'.C 4 6 B.h h h h H.L P I.G I.G A.A.h X T u B $.6 [ J.@.H B T j X } 6 4 : '   : : x x ) ! ) ) x : ( ) c s ] _ ] _ ] ~ ] ] ~ g @ $ . l < 7 d & 9 ( . 2 ) 2 ( ' E d E p 8 d 8 8 8 < 8 p 8 ( ( & 2 . 2 . ) 2 9 ( ' ( ( ) ( ( ' ( 4 z 5 r X +.D.Q }.2.E.F.w.v.G.8.,.'.C 4 6 B.h h h h H.L P I.G I.G A.A.h X T u B $.6 [ J.@.H B T j X } 6 4 : '   : : x x ) ! ) ) x : ( ) c s ] _ ] _ ] ~ ] ] ~ g @ $ . l < 7 d & 9 ( . 2 ) 2 ( ' E d E p 8 d 8 8 8 < 8 p 8 ( ( & 2 . 2 . ) 2 9 ( ' ( ( ) ( ( ' ( 4 z 5 r X +.D.Q }.2.E.F.w.v.G.8.,.'.C 4 6 B.h h h h H.L P I.G I.G A.A.h X T u B $.6 [ J.@.H B T j X } 6 4 : '   : : x x ) ! ) ) x : ( ) c s ] _ ] _ ] ~ ] ] ~ g @ $ . l < ",
"] _ ] { ^ { ^ ] ~ ] @ . . . 0 1 6 < ( ( & 2 ) 2 ( x : E : E : E ' ( ' x ' E ' 8 ' : ' ' ( ( ( ( ' ' : ' ' ' ( ( : 8 E < z 4 } 5 $.-.C -.2.K.n.L.u.M.].].B X b T 1 4 G h G G N.N.I.L O.g.N.P.h Q.r B.[ X 6 [ 5 6 >.R U H u 6 1 , d ' ' : : (   K ) K ( g.K ) ) ! ] _ ] { ^ { ^ ] ~ ] @ . . . 0 1 6 < ( ( & 2 ) 2 ( x : E : E : E ' ( ' x ' E ' 8 ' : ' ' ( ( ( ( ' ' : ' ' ' ( ( : 8 E < z 4 } 5 $.-.C -.2.K.n.L.u.M.].].B X b T 1 4 G h G G N.N.I.L O.g.N.P.h Q.r B.[ X 6 [ 5 6 >.R U H u 6 1 , d ' ' : : (   K ) K ( g.K ) ) ! ] _ ] { ^ { ^ ] ~ ] @ . . . 0 1 6 < ( ( & 2 ) 2 ( x : E : E : E ' ( ' x ' E ' 8 ' : ' ' ( ( ( ( ' ' : ' ' ' ( ( : 8 E < z 4 } 5 $.-.C -.2.K.n.L.u.M.].].B X b T 1 4 G h G G N.N.I.L O.g.N.P.h Q.r B.[ X 6 [ 5 6 >.R U H u 6 1 , d ' ' : : (   K ) K ( g.K ) ) ! ] _ ] { ^ { ^ ] ~ ] @ . . . 0 1 ",
"] m _ ] ] ~ s ^ ] # ] @ . 9 , 4 } 1 0 ; ( % ) 2 ) 2 x ( x ( x : x ( x ( ( ( ' : 8 8 8 8 8 ' 8 ' ' 8 8 p ' (   x ( 8 : 8 z < q } 6 $.(.2.R.L.4.K.v.!.$.Y >.B [ < 4 4 < < G S.N.O.K N.N.g.T.S.P.z.X 5 B.5 < 4 5 6 < u U.R Y +.6 < < p ' : : ( K ) ) ) ! ! @ n ~ c ] m _ ] ] ~ s ^ ] # ] @ . 9 , 4 } 1 0 ; ( % ) 2 ) 2 x ( x ( x : x ( x ( ( ( ' : 8 8 8 8 8 ' 8 ' ' 8 8 p ' (   x ( 8 : 8 z < q } 6 $.(.2.R.L.4.K.v.!.$.Y >.B [ < 4 4 < < G S.N.O.K N.N.g.T.S.P.z.X 5 B.5 < 4 5 6 < u U.R Y +.6 < < p ' : : ( K ) ) ) ! ! @ n ~ c ] m _ ] ] ~ s ^ ] # ] @ . 9 , 4 } 1 0 ; ( % ) 2 ) 2 x ( x ( x : x ( x ( ( ( ' : 8 8 8 8 8 ' 8 ' ' 8 8 p ' (   x ( 8 : 8 z < q } 6 $.(.2.R.L.4.K.v.!.$.Y >.B [ < 4 4 < < G S.N.O.K N.N.g.T.S.P.z.X 5 B.5 < 4 5 6 < u U.R Y +.6 < < p ' : : ( K ) ) ) ! ! @ n ~ c ] m _ ] ] ~ s ^ ] # ] @ . 9 , 4 ",
"^ ^ ^ ^ s ^ ! { ! ! @ . ( ( < < u 6 7 ' ( & . @ ) ( x x x x 2 y 2 y ( y ( x ( x ' ' ' 8 < < < < < 8 d E : ' x ( x E < F B.z 1 4 X C u ~.V.L.w.W.H C $.B +.&.B &.6 B.4 < p : : : g.g.g.T.T.p P.z.` 5 5 < < h 5 < 5 r B 5 Z B X.r 5 4 : ' ) ) ) x ! ] _ ] _ ] ] ] ^ ^ ^ ^ s ^ ! { ! ! @ . ( ( < < u 6 7 ' ( & . @ ) ( x x x x 2 y 2 y ( y ( x ( x ' ' ' 8 < < < < < 8 d E : ' x ( x E < F B.z 1 4 X C u ~.V.L.w.W.H C $.B +.&.B &.6 B.4 < p : : : g.g.g.T.T.p P.z.` 5 5 < < h 5 < 5 r B 5 Z B X.r 5 4 : ' ) ) ) x ! ] _ ] _ ] ] ] ^ ^ ^ ^ s ^ ! { ! ! @ . ( ( < < u 6 7 ' ( & . @ ) ( x x x x 2 y 2 y ( y ( x ( x ' ' ' 8 < < < < < 8 d E : ' x ( x E < F B.z 1 4 X C u ~.V.L.w.W.H C $.B +.&.B &.6 B.4 < p : : : g.g.g.T.T.p P.z.` 5 5 < < h 5 < 5 r B 5 Z B X.r 5 4 : ' ) ) ) x ! ] _ ] _ ] ] ] ^ ^ ^ ^ s ^ ! { ! ! @ . ( ( < < ",
"] _ ^ s ^ { ] { @ ! @ ! . ( p , 1 < , & & % ( 2 ) 2 x Y.x x K 2 g.2 K ) x ) ( (   ( ' ' ' p < 8 < 8 8 8 d 8 : ' : 8 8 < z 5 X r u B K.2.E.L.Z.M.=.r } X q.u B &.>.H z.d d p : : G g.c )   p p ` G < G G < < G < < z J , 8 Z `.q 9.5 < : : : x n _ ] ^ ] _ { ] _ ] _ ^ s ^ { ] { @ ! @ ! . ( p , 1 < , & & % ( 2 ) 2 x Y.x x K 2 g.2 K ) x ) ( (   ( ' ' ' p < 8 < 8 8 8 d 8 : ' : 8 8 < z 5 X r u B K.2.E.L.Z.M.=.r } X q.u B &.>.H z.d d p : : G g.c )   p p ` G < G G < < G < < z J , 8 Z `.q 9.5 < : : : x n _ ] ^ ] _ { ] _ ] _ ^ s ^ { ] { @ ! @ ! . ( p , 1 < , & & % ( 2 ) 2 x Y.x x K 2 g.2 K ) x ) ( (   ( ' ' ' p < 8 < 8 8 8 d 8 : ' : 8 8 < z 5 X r u B K.2.E.L.Z.M.=.r } X q.u B &.>.H z.d d p : : G g.c )   p p ` G < G G < < G < < z J , 8 Z `.q 9.5 < : : : x n _ ] ^ ] _ { ] _ ] _ ^ s ^ { ] { @ ! @ ! . ( p , ",
"_ ] _ ] { ] { ! _ ~ c @ @ ( ' 8 7 , , ' & ) & 2 . 2   x ( y ( K 2 K 2 ) ) ! ) ! 2 )   ( ( ' p 8 < < p 8 p E d E : 8 < < < 1 q +...=.#.(.w.E. +3.H r z h z z.X $...Q H r 4 d ' |.d   .+) |.p 4 h h 8 8 G G 8 < G J G 8 : < z z 1 z r r.G (   ) ! ! _ ] s ~ ] ^ _ _ ] _ ] { ] { ! _ ~ c @ @ ( ' 8 7 , , ' & ) & 2 . 2   x ( y ( K 2 K 2 ) ) ! ) ! 2 )   ( ( ' p 8 < < p 8 p E d E : 8 < < < 1 q +...=.#.(.w.E. +3.H r z h z z.X $...Q H r 4 d ' |.d   .+) |.p 4 h h 8 8 G G 8 < G J G 8 : < z z 1 z r r.G (   ) ! ! _ ] s ~ ] ^ _ _ ] _ ] { ] { ! _ ~ c @ @ ( ' 8 7 , , ' & ) & 2 . 2   x ( y ( K 2 K 2 ) ) ! ) ! 2 )   ( ( ' p 8 < < p 8 p E d E : 8 < < < 1 q +...=.#.(.w.E. +3.H r z h z z.X $...Q H r 4 d ' |.d   .+) |.p 4 h h 8 8 G G 8 < G J G 8 : < z z 1 z r r.G (   ) ! ! _ ] s ~ ] ^ _ _ ] _ ] { ] { ! _ ~ c @ @ ( ' 8 ",
"{ ] { ] ] { ~ _ ~ _ @ ! . 2 ( ' , , , , ' ( & . 2   ( x ( y ) y 2 K 2 ++2 ! ! ! . ) . .   ( ' ' < 8 < 8 8 8 : d E < < J < 6 r H U J.U ;.3.@+u.U B q.z G h < ` 4 | X H ..&.5 | , p , ' d ' |.p < < L 8 < < L < G 8 p E < F h z 5 s.r.X.q.8 x g.x ) ! _ { _ _ c { { ] { ] ] { ~ _ ~ _ @ ! . 2 ( ' , , , , ' ( & . 2   ( x ( y ) y 2 K 2 ++2 ! ! ! . ) . .   ( ' ' < 8 < 8 8 8 : d E < < J < 6 r H U J.U ;.3.@+u.U B q.z G h < ` 4 | X H ..&.5 | , p , ' d ' |.p < < L 8 < < L < G 8 p E < F h z 5 s.r.X.q.8 x g.x ) ! _ { _ _ c { { ] { ] ] { ~ _ ~ _ @ ! . 2 ( ' , , , , ' ( & . 2   ( x ( y ) y 2 K 2 ++2 ! ! ! . ) . .   ( ' ' < 8 < 8 8 8 : d E < < J < 6 r H U J.U ;.3.@+u.U B q.z G h < ` 4 | X H ..&.5 | , p , ' d ' |.p < < L 8 < < L < G 8 p E < F h z 5 s.r.X.q.8 x g.x ) ! _ { _ _ c { { ] { ] ] { ~ _ ~ _ @ ! . 2 ( ' ",
"n ! ] _ ~ _ ~ ! ] ! . ) ( ( ' ( & & * 0 7 , ' ( & ( ( (     ( g.( y ) 2 ! ! @ @ @ @ ! ) ( ( ' : : 8 p 8 p ' 8 p , < 4 1 6 X $...X.H $.;.d.~.#+Q } $+%+G L p ` d 4 < < 6 B H T [ 7 7 d ' ' 8 8 < 8 8 < : 8 < < 8 , ' ' 8 < h q r.&+r 5 9.q.9.8 x ) ! { n ! ! ++) n ! ] _ ~ _ ~ ! ] ! . ) ( ( ' ( & & * 0 7 , ' ( & ( ( (     ( g.( y ) 2 ! ! @ @ @ @ ! ) ( ( ' : : 8 p 8 p ' 8 p , < 4 1 6 X $...X.H $.;.d.~.#+Q } $+%+G L p ` d 4 < < 6 B H T [ 7 7 d ' ' 8 8 < 8 8 < : 8 < < 8 , ' ' 8 < h q r.&+r 5 9.q.9.8 x ) ! { n ! ! ++) n ! ] _ ~ _ ~ ! ] ! . ) ( ( ' ( & & * 0 7 , ' ( & ( ( (     ( g.( y ) 2 ! ! @ @ @ @ ! ) ( ( ' : : 8 p 8 p ' 8 p , < 4 1 6 X $...X.H $.;.d.~.#+Q } $+%+G L p ` d 4 < < 6 B H T [ 7 7 d ' ' 8 8 < 8 8 < : 8 < < 8 , ' ' 8 < h q r.&+r 5 9.q.9.8 x ) ! { n ! ! ++) n ! ] _ ~ _ ~ ! ] ! . ) ( ( ' ( ",
"@ ! n @ _ ~ n { @ ! ) ( ' ( ; ( , 0 0 , 4 J , ' ' ( ' ' x ) x   y ) y ) ! ! ! ! c @ ! .   ( ' ( ' p 8 < 8 8 p 8 8 < 6 X } u Q Y /.+.H -.V.,.w.$.q $+I.L S.p p 4 h 8 d < 6 u $.$.u 6 , , 8 z F L ' 8 < d , 8 < 8 d 8 h z 5 5 5 q r 4 p G 9.z S.L O.x ! K ! ! { ! @ ! n @ _ ~ n { @ ! ) ( ' ( ; ( , 0 0 , 4 J , ' ' ( ' ' x ) x   y ) y ) ! ! ! ! c @ ! .   ( ' ( ' p 8 < 8 8 p 8 8 < 6 X } u Q Y /.+.H -.V.,.w.$.q $+I.L S.p p 4 h 8 d < 6 u $.$.u 6 , , 8 z F L ' 8 < d , 8 < 8 d 8 h z 5 5 5 q r 4 p G 9.z S.L O.x ! K ! ! { ! @ ! n @ _ ~ n { @ ! ) ( ' ( ; ( , 0 0 , 4 J , ' ' ( ' ' x ) x   y ) y ) ! ! ! ! c @ ! .   ( ' ( ' p 8 < 8 8 p 8 8 < 6 X } u Q Y /.+.H -.V.,.w.$.q $+I.L S.p p 4 h 8 d < 6 u $.$.u 6 , , 8 z F L ' 8 < d , 8 < 8 d 8 h z 5 5 5 q r 4 p G 9.z S.L O.x ! K ! ! { ! @ ! n @ _ ~ n { @ ! ) ( ' ( ; ( ",
"! c ! ! ! ! ! ! ) ) 2   ( ( ' ( a 7 , , I < 7 J ' p ' :   (   x 2 K ) ! ) ! @ @ { @ @ ) ) ( ( : ' 8 < < < 8 < 4 1 1 5 X u $.Q Q Y r H $.(.V.:.U r 9.%+P N.: ` ` 8 < < < 7 | 6 u ;.=.+.6 J %.E 2 , 8 7 %., , < 4 < z 5 5 5 4 8 ' d : ' : :   x N.E K K ! ++_ _ ] ! c ! ! ! ! ! ! ) ) 2   ( ( ' ( a 7 , , I < 7 J ' p ' :   (   x 2 K ) ! ) ! @ @ { @ @ ) ) ( ( : ' 8 < < < 8 < 4 1 1 5 X u $.Q Q Y r H $.(.V.:.U r 9.%+P N.: ` ` 8 < < < 7 | 6 u ;.=.+.6 J %.E 2 , 8 7 %., , < 4 < z 5 5 5 4 8 ' d : ' : :   x N.E K K ! ++_ _ ] ! c ! ! ! ! ! ! ) ) 2   ( ( ' ( a 7 , , I < 7 J ' p ' :   (   x 2 K ) ! ) ! @ @ { @ @ ) ) ( ( : ' 8 < < < 8 < 4 1 1 5 X u $.Q Q Y r H $.(.V.:.U r 9.%+P N.: ` ` 8 < < < 7 | 6 u ;.=.+.6 J %.E 2 , 8 7 %., , < 4 < z 5 5 5 4 8 ' d : ' : :   x N.E K K ! ++_ _ ] ! c ! ! ! ! ! ! ) ) 2   ( ( ' ( ",
") ! ) ! @ ! ! ) 2 2 ) 2   ( ' ' ' 0 ' & 0 , J 5 , 8 8 ' ' g.( x ) 2 ) o ! ! ] ! @ n @ @ @   ( : ' 8 < h G G z z 5 5 } X u $.B H /.5 T -.).(.#.*+X.q $+H.S.T.p p G 8 8 : , 7 | b 6 C =.+.Z J %.J J 7 7 1 1 d , 5 z < ' ) .   9 )   ( ) ) ! K ) ! ! { ! ++) ! ! ++) ! ) ! @ ! ! ) 2 2 ) 2   ( ' ' ' 0 ' & 0 , J 5 , 8 8 ' ' g.( x ) 2 ) o ! ! ] ! @ n @ @ @   ( : ' 8 < h G G z z 5 5 } X u $.B H /.5 T -.).(.#.*+X.q $+H.S.T.p p G 8 8 : , 7 | b 6 C =.+.Z J %.J J 7 7 1 1 d , 5 z < ' ) .   9 )   ( ) ) ! K ) ! ! { ! ++) ! ! ++) ! ) ! @ ! ! ) 2 2 ) 2   ( ' ' ' 0 ' & 0 , J 5 , 8 8 ' ' g.( x ) 2 ) o ! ! ] ! @ n @ @ @   ( : ' 8 < h G G z z 5 5 } X u $.B H /.5 T -.).(.#.*+X.q $+H.S.T.p p G 8 8 : , 7 | b 6 C =.+.Z J %.J J 7 7 1 1 d , 5 z < ' ) .   9 )   ( ) ) ! K ) ! ! { ! ++) ! ! ++) ! ) ! @ ! ! ) 2 2 ) 2   ( ' ' ",
") ) . n . ) ( ) ! ) ) ) ( ( ) 2 (   ( ' : 0 0 , a , ; , ( ( p ) x ( ( ) 2 2 ) ) ) ) .   ' ' ' ' 8 < < 8 < 1 5 q 5 5 X X 5 5 X q 9.5 5 z.} u u ..k.q 5 h G p h : p S.p 8 < < p 6 4 6 6 i u -.+.j ).[ 1 | 1 5 z p ' ( : 2 ) ! ) : ) ++! ! ++! ++n _ =+_ _ { -+! ++) ) . n . ) ( ) ! ) ) ) ( ( ) 2 (   ( ' : 0 0 , a , ; , ( ( p ) x ( ( ) 2 2 ) ) ) ) .   ' ' ' ' 8 < < 8 < 1 5 q 5 5 X X 5 5 X q 9.5 5 z.} u u ..k.q 5 h G p h : p S.p 8 < < p 6 4 6 6 i u -.+.j ).[ 1 | 1 5 z p ' ( : 2 ) ! ) : ) ++! ! ++! ++n _ =+_ _ { -+! ++) ) . n . ) ( ) ! ) ) ) ( ( ) 2 (   ( ' : 0 0 , a , ; , ( ( p ) x ( ( ) 2 2 ) ) ) ) .   ' ' ' ' 8 < < 8 < 1 5 q 5 5 X X 5 5 X q 9.5 5 z.} u u ..k.q 5 h G p h : p S.p 8 < < p 6 4 6 6 i u -.+.j ).[ 1 | 1 5 z p ' ( : 2 ) ! ) : ) ++! ! ++! ++n _ =+_ _ { -+! ++) ) . n . ) ( ) ! ) ) ) ( ( ) 2 ",
". ) ) @ ) ) g.) @ ) ! ) ) K ) ! ) ! ) 2 ) % ( ' Z 6 < , ' ( : ) ( x (   x ) ( 2 ( ) % ) ( ( ' ( d 0 8 , 8 < < z G 5 9.5 5 z.z.X h h h 4 5 5 X +.J.@.5 1 d z p G S.p p : p p d < 7 | 1 | k 7 ;+$.C $.$.u X 1 d % ) ) ) ) ! ! ! { n ++n ++n -+! ++++n ++! _ ! =+n . ) ) @ ) ) g.) @ ) ! ) ) K ) ! ) ! ) 2 ) % ( ' Z 6 < , ' ( : ) ( x (   x ) ( 2 ( ) % ) ( ( ' ( d 0 8 , 8 < < z G 5 9.5 5 z.z.X h h h 4 5 5 X +.J.@.5 1 d z p G S.p p : p p d < 7 | 1 | k 7 ;+$.C $.$.u X 1 d % ) ) ) ) ! ! ! { n ++n ++n -+! ++++n ++! _ ! =+n . ) ) @ ) ) g.) @ ) ! ) ) K ) ! ) ! ) 2 ) % ( ' Z 6 < , ' ( : ) ( x (   x ) ( 2 ( ) % ) ( ( ' ( d 0 8 , 8 < < z G 5 9.5 5 z.z.X h h h 4 5 5 X +.J.@.5 1 d z p G S.p p : p p d < 7 | 1 | k 7 ;+$.C $.$.u X 1 d % ) ) ) ) ! ! ! { n ++n ++n -+! ++++n ++! _ ! =+n . ) ) @ ) ) g.) @ ) ! ) ) K ) ! ",
"! ) ) ) ) ( ) ) ) n ! n { n _ c ! ) ! ! ) 2 ( 0 4 6 7 7 d ( 8 x x   2 x ( x ( ) ( ) ) ) &   &   ' 0 , 8 8 p 8 8 < G h h 4 h 4 h p G ` h 6 5 ).H -.>+>.4 < 4 < < p 8 p p < 8 , < < ; ; b [ i D j -.H u B., d ( ) @ @ { ~ ! n c ^ ! n ! n ! ! K n ) ! n n n ! ! ! ! ) ) ) ) ( ) ) ) n ! n { n _ c ! ) ! ! ) 2 ( 0 4 6 7 7 d ( 8 x x   2 x ( x ( ) ( ) ) ) &   &   ' 0 , 8 8 p 8 8 < G h h 4 h 4 h p G ` h 6 5 ).H -.>+>.4 < 4 < < p 8 p p < 8 , < < ; ; b [ i D j -.H u B., d ( ) @ @ { ~ ! n c ^ ! n ! n ! ! K n ) ! n n n ! ! ! ! ) ) ) ) ( ) ) ) n ! n { n _ c ! ) ! ! ) 2 ( 0 4 6 7 7 d ( 8 x x   2 x ( x ( ) ( ) ) ) &   &   ' 0 , 8 8 p 8 8 < G h h 4 h 4 h p G ` h 6 5 ).H -.>+>.4 < 4 < < p 8 p p < 8 , < < ; ; b [ i D j -.H u B., d ( ) @ @ { ~ ! n c ^ ! n ! n ! ! K n ) ! n n n ! ! ! ! ) ) ) ) ( ) ) ) n ! n { n _ c ",
"    ) 2   ) ! n ! @ n ] ~ _ ~ _ n _ c ! ! ) ( 7 0 6 6 1 4 , 8 : ' ( x ( x   x ) x 2 2 . ) . ) & ( ' ' , ' E d : 8 < < h < < ` ` p G < < B.6 [ H D.Q ,+H | z 1 < ' 8 < < 4 < 7 < | 4 1 1 7 b C >.[ 4 7 ; . . . . ) ! ~ _ c ~ ! n ) ! n n n ) n ) ) ) n ! ! K ) g.    ) 2   ) ! n ! @ n ] ~ _ ~ _ n _ c ! ! ) ( 7 0 6 6 1 4 , 8 : ' ( x ( x   x ) x 2 2 . ) . ) & ( ' ' , ' E d : 8 < < h < < ` ` p G < < B.6 [ H D.Q ,+H | z 1 < ' 8 < < 4 < 7 < | 4 1 1 7 b C >.[ 4 7 ; . . . . ) ! ~ _ c ~ ! n ) ! n n n ) n ) ) ) n ! ! K ) g.    ) 2   ) ! n ! @ n ] ~ _ ~ _ n _ c ! ! ) ( 7 0 6 6 1 4 , 8 : ' ( x ( x   x ) x 2 2 . ) . ) & ( ' ' , ' E d : 8 < < h < < ` ` p G < < B.6 [ H D.Q ,+H | z 1 < ' 8 < < 4 < 7 < | 4 1 1 7 b C >.[ 4 7 ; . . . . ) ! ~ _ c ~ ! n ) ! n n n ) n ) ) ) n ! ! K ) g.    ) 2   ) ! n ! @ n ] ~ _ ~ _ ",
"x x g.x g.y ! ! n { ] _ ] { _ { n _ ] _ @ @ ) ' b +.u j } < 7 ' : : ( x x 2 ) ) y ) ) ! @ 2 ( ( ( % ( ) ( ( : : ' 8 L < G p < p < < < 8 7 7 6 }.*.U ].C.u [ 7 4 , 4 J 7 1 1 4 Z b 1 6 +.U U } ; ; ; & & ( 9 ! @ @ ! ) @ ] n @ ) n @ ) ) ) ) ( g.) x )   )   x : x x g.x g.y ! ! n { ] _ ] { _ { n _ ] _ @ @ ) ' b +.u j } < 7 ' : : ( x x 2 ) ) y ) ) ! @ 2 ( ( ( % ( ) ( ( : : ' 8 L < G p < p < < < 8 7 7 6 }.*.U ].C.u [ 7 4 , 4 J 7 1 1 4 Z b 1 6 +.U U } ; ; ; & & ( 9 ! @ @ ! ) @ ] n @ ) n @ ) ) ) ) ( g.) x )   )   x : x x g.x g.y ! ! n { ] _ ] { _ { n _ ] _ @ @ ) ' b +.u j } < 7 ' : : ( x x 2 ) ) y ) ) ! @ 2 ( ( ( % ( ) ( ( : : ' 8 L < G p < p < < < 8 7 7 6 }.*.U ].C.u [ 7 4 , 4 J 7 1 1 4 Z b 1 6 +.U U } ; ; ; & & ( 9 ! @ @ ! ) @ ] n @ ) n @ ) ) ) ) ( g.) x )   )   x : x x g.x g.y ! ! n { ] _ ] { _ { ",
"x ) ) ) y ) ) ! n { _ ~ _ n { n ! n _ _ s ] @ 9 6 H }.[ 6 b 7 8 E : x   ( K y 2 ) ) ) ! . )   ( 9 2 . ) 2 x ' E : : p L < < p p p 8 W 7 4 D [ -.=.E.2.'+:.1 6 1 7 1 | 1 [ +.H Y +.H C 5 a 4 1 < d ( . ) 9 ) @ @ ] !   x ) ! ) ) ) ) ) ( ' : : 8 p : : : : :   ( x ) ) ) y ) ) ! n { _ ~ _ n { n ! n _ _ s ] @ 9 6 H }.[ 6 b 7 8 E : x   ( K y 2 ) ) ) ! . )   ( 9 2 . ) 2 x ' E : : p L < < p p p 8 W 7 4 D [ -.=.E.2.'+:.1 6 1 7 1 | 1 [ +.H Y +.H C 5 a 4 1 < d ( . ) 9 ) @ @ ] !   x ) ! ) ) ) ) ) ( ' : : 8 p : : : : :   ( x ) ) ) y ) ) ! n { _ ~ _ n { n ! n _ _ s ] @ 9 6 H }.[ 6 b 7 8 E : x   ( K y 2 ) ) ) ! . )   ( 9 2 . ) 2 x ' E : : p L < < p p p 8 W 7 4 D [ -.=.E.2.'+:.1 6 1 7 1 | 1 [ +.H Y +.H C 5 a 4 1 < d ( . ) 9 ) @ @ ] !   x ) ! ) ) ) ) ) ( ' : : 8 p : : : : :   ( x ) ) ) y ) ) ! n { _ ~ _ n { n ",
"K ! ! K ) ++! ! ! n { _ { _ ~ _ n _ _ _ ] _ @ . 7 $.6 | D b 7 , 8 x ( 2 K 2 K 2 ++2 ! 2 ! ) ( ( 2 ) . 2 2 ( : x ( : 8 p 8 ` < < ' < 1 1 [ j }.)+R.,._.K.o.$.}.D 1 D 6 j Y N U Q H } 6 < 4 < , . , ( 9 . . !   x .   ( : (   ( ( : ' : : : : E p E ' : ' ( (   ) K ! ! K ) ++! ! ! n { _ { _ ~ _ n _ _ _ ] _ @ . 7 $.6 | D b 7 , 8 x ( 2 K 2 K 2 ++2 ! 2 ! ) ( ( 2 ) . 2 2 ( : x ( : 8 p 8 ` < < ' < 1 1 [ j }.)+R.,._.K.o.$.}.D 1 D 6 j Y N U Q H } 6 < 4 < , . , ( 9 . . !   x .   ( : (   ( ( : ' : : : : E p E ' : ' ( (   ) K ! ! K ) ++! ! ! n { _ { _ ~ _ n _ _ _ ] _ @ . 7 $.6 | D b 7 , 8 x ( 2 K 2 K 2 ++2 ! 2 ! ) ( ( 2 ) . 2 2 ( : x ( : 8 p 8 ` < < ' < 1 1 [ j }.)+R.,._.K.o.$.}.D 1 D 6 j Y N U Q H } 6 < 4 < , . , ( 9 . . !   x .   ( : (   ( ( : ' : : : : E p E ' : ' ( (   ) K ! ! K ) ++! ! ! n { _ { _ ~ _ ",
"x K ! ! ! { _ n ! { ! { n { _ ] s 0.s _ s ] ! . ' } D !+i 7 = ' ' x   2 ) 2 g.y 2 K y ) ! ) ) x . . @ ! ) 2 ( 2 x x : p < 8 ` 8 < z X } u j '.2.t.{.d.*.*.t.$.D '.j j C >.>.C 1 < , d < , ' ' d )   x E : ( ( : : x (   : p : : L 8 E : ( x ( 2   2 ( x ) 2 ) ! x K ! ! ! { _ n ! { ! { n { _ ] s 0.s _ s ] ! . ' } D !+i 7 = ' ' x   2 ) 2 g.y 2 K y ) ! ) ) x . . @ ! ) 2 ( 2 x x : p < 8 ` 8 < z X } u j '.2.t.{.d.*.*.t.$.D '.j j C >.>.C 1 < , d < , ' ' d )   x E : ( ( : : x (   : p : : L 8 E : ( x ( 2   2 ( x ) 2 ) ! x K ! ! ! { _ n ! { ! { n { _ ] s 0.s _ s ] ! . ' } D !+i 7 = ' ' x   2 ) 2 g.y 2 K y ) ! ) ) x . . @ ! ) 2 ( 2 x x : p < 8 ` 8 < z X } u j '.2.t.{.d.*.*.t.$.D '.j j C >.>.C 1 < , d < , ' ' d )   x E : ( ( : : x (   : p : : L 8 E : ( x ( 2   2 ( x ) 2 ) ! x K ! ! ! { _ n ! { ! { n { _ ] ",
"! ++{ -+{ n { ! ++! n { _ { _ n _ _ _ _ _ _ !   ; 4 6 D 7 7 = e ( ' x ) y x 2 ! ! ! ! ! @ ! 2 ) ) @ ! . ( g.( ) ( : 8 G 8 < < z ' z 6 1 j.j _.L.~+{._.~+*.8.C D b u N >.C 7 l 0 ; ' ' ' ( ( ) 2 ) 2 ) ) ! ) ) (   ) ) )       ) x ) ! ) ! ) K y ) ! ) ! 2 ! ! 2 ! ++{ -+{ n { ! ++! n { _ { _ n _ _ _ _ _ _ !   ; 4 6 D 7 7 = e ( ' x ) y x 2 ! ! ! ! ! @ ! 2 ) ) @ ! . ( g.( ) ( : 8 G 8 < < z ' z 6 1 j.j _.L.~+{._.~+*.8.C D b u N >.C 7 l 0 ; ' ' ' ( ( ) 2 ) 2 ) ) ! ) ) (   ) ) )       ) x ) ! ) ! ) K y ) ! ) ! 2 ! ! 2 ! ++{ -+{ n { ! ++! n { _ { _ n _ _ _ _ _ _ !   ; 4 6 D 7 7 = e ( ' x ) y x 2 ! ! ! ! ! @ ! 2 ) ) @ ! . ( g.( ) ( : 8 G 8 < < z ' z 6 1 j.j _.L.~+{._.~+*.8.C D b u N >.C 7 l 0 ; ' ' ' ( ( ) 2 ) 2 ) ) ! ) ) (   ) ) )       ) x ) ! ) ! ) K y ) ! ) ! 2 ! ! 2 ! ++{ -+{ n { ! ++! n { _ { _ n ",
"! ++! ! _ { ! _ { n ! ! ! ! _ ^ _ _ {+_ _ ] ] ) 9 , 4 7 = = , & & ) ) . ) y ) K ! ! ! ! ) @ ) 2 2 @ ) ) ) 2 x ( : E G < G < < 4 h 1 7 7 j -._.<._.[.~+R.)+n.-.C >.-.} 6 a ; ; & ' ' ' ( ( 9 ( . ! ! ! ! ) 2 ) ) ) ) ) ! ) ) ) ) ! ! y ! o ! ! ! ! ++! ! ! ++! ! ! ++! ! _ { ! _ { n ! ! ! ! _ ^ _ _ {+_ _ ] ] ) 9 , 4 7 = = , & & ) ) . ) y ) K ! ! ! ! ) @ ) 2 2 @ ) ) ) 2 x ( : E G < G < < 4 h 1 7 7 j -._.<._.[.~+R.)+n.-.C >.-.} 6 a ; ; & ' ' ' ( ( 9 ( . ! ! ! ! ) 2 ) ) ) ) ) ! ) ) ) ) ! ! y ! o ! ! ! ! ++! ! ! ++! ! ! ++! ! _ { ! _ { n ! ! ! ! _ ^ _ _ {+_ _ ] ] ) 9 , 4 7 = = , & & ) ) . ) y ) K ! ! ! ! ) @ ) 2 2 @ ) ) ) 2 x ( : E G < G < < 4 h 1 7 7 j -._.<._.[.~+R.)+n.-.C >.-.} 6 a ; ; & ' ' ' ( ( 9 ( . ! ! ! ! ) 2 ) ) ) ) ) ! ) ) ) ) ! ! y ! o ! ! ! ! ++! ! ! ++! ! ! ++! ! _ { ! _ { n ! ! ! ! _ ^ ",
"++n { _ { n ! ! _ ! K K ) ! { ] _ _ _ _ s _ ] ! . d d l ; 0 & & ) @ @ ! ) ! ! 2 ! ! ! @ ! ! ( ( ) ) @ ! 2   x ( 8 p 8 < < < < , 7 4 1 1 '.$._.R.[.~+_._.,.8.]+*.U i d * ' ' & @ 9 (   2   ) ! . ! ~ ! ! ) ! ) ! ) @ c n ! n n _ ! ++! ++! ! _ { { ! { ! ! ! ! ++++n { _ { n ! ! _ ! K K ) ! { ] _ _ _ _ s _ ] ! . d d l ; 0 & & ) @ @ ! ) ! ! 2 ! ! ! @ ! ! ( ( ) ) @ ! 2   x ( 8 p 8 < < < < , 7 4 1 1 '.$._.R.[.~+_._.,.8.]+*.U i d * ' ' & @ 9 (   2   ) ! . ! ~ ! ! ) ! ) ! ) @ c n ! n n _ ! ++! ++! ! _ { { ! { ! ! ! ! ++++n { _ { n ! ! _ ! K K ) ! { ] _ _ _ _ s _ ] ! . d d l ; 0 & & ) @ @ ! ) ! ! 2 ! ! ! @ ! ! ( ( ) ) @ ! 2   x ( 8 p 8 < < < < , 7 4 1 1 '.$._.R.[.~+_._.,.8.]+*.U i d * ' ' & @ 9 (   2   ) ! . ! ~ ! ! ) ! ) ! ) @ c n ! n n _ ! ++! ++! ! _ { { ! { ! ! ! ! ++++n { _ { n ! ! _ ! K K ) ! { ] ",
"{ -+{ _ _ { n ! ++! ! { ! ! n ! ~ _ ] _ _ _ ] ) @ 9 9 & 9 & & @ ( ) @ ) @ @ ] ! ~ { ] { @ ) ) ( ) 2 ) . ) 2 x : : 8 G < < < ` , p 1 6 [ j -.*.,.^+[.-.d.C '+@.Y 7 ' ' , ' ( ( . . . ) ) ) ! @ n ] { ! ! ) ! @ c @ _ c ] ] ] ] ] n ++! ! -+{ _ _ _ _ ! _ ++{ -+! { -+{ _ _ { n ! ++! ! { ! ! n ! ~ _ ] _ _ _ ] ) @ 9 9 & 9 & & @ ( ) @ ) @ @ ] ! ~ { ] { @ ) ) ( ) 2 ) . ) 2 x : : 8 G < < < ` , p 1 6 [ j -.*.,.^+[.-.d.C '+@.Y 7 ' ' , ' ( ( . . . ) ) ) ! @ n ] { ! ! ) ! @ c @ _ c ] ] ] ] ] n ++! ! -+{ _ _ _ _ ! _ ++{ -+! { -+{ _ _ { n ! ++! ! { ! ! n ! ~ _ ] _ _ _ ] ) @ 9 9 & 9 & & @ ( ) @ ) @ @ ] ! ~ { ] { @ ) ) ( ) 2 ) . ) 2 x : : 8 G < < < ` , p 1 6 [ j -.*.,.^+[.-.d.C '+@.Y 7 ' ' , ' ( ( . . . ) ) ) ! @ n ] { ! ! ) ! @ c @ _ c ] ] ] ] ] n ++! ! -+{ _ _ _ _ ! _ ++{ -+! { -+{ _ _ { n ! ++! ! { ! ! n ! ",
"! { _ ! _ { ! ! ! n ! _ ] c ! n ] ] s ^ _ ^ ^.] c c . . . % . @ & @ c @ @ ] ~ c ! @ ] @ @ ! ) (   . ) . ) ( ' : 8 8 4 z < 7 < < 6 5 6 j u *.d.-.'.7.D =.o.'+6 7 0 ( ( ' @ c . ! ) @ ) ! @ n c { ] _ ! ! ) n ! ] c ] ] _ ] _ ] _ ! n n n _ n { n ! n ! -+! n ! n ! { _ ! _ { ! ! ! n ! _ ] c ! n ] ] s ^ _ ^ ^.] c c . . . % . @ & @ c @ @ ] ~ c ! @ ] @ @ ! ) (   . ) . ) ( ' : 8 8 4 z < 7 < < 6 5 6 j u *.d.-.'.7.D =.o.'+6 7 0 ( ( ' @ c . ! ) @ ) ! @ n c { ] _ ! ! ) n ! ] c ] ] _ ] _ ] _ ! n n n _ n { n ! n ! -+! n ! n ! { _ ! _ { ! ! ! n ! _ ] c ! n ] ] s ^ _ ^ ^.] c c . . . % . @ & @ c @ @ ] ~ c ! @ ] @ @ ! ) (   . ) . ) ( ' : 8 8 4 z < 7 < < 6 5 6 j u *.d.-.'.7.D =.o.'+6 7 0 ( ( ' @ c . ! ) @ ) ! @ n c { ] _ ! ! ) n ! ] c ] ] _ ] _ ] _ ! n n n _ n { n ! n ! -+! n ! n ! { _ ! _ { ! ! ! n ! _ ] c ! n ",
"n ! ! _ ! ! n ! _ ! ! ! ) ! ! ] { ] ] { _ _ _ n n c c c . . ! @ c @ @ @ . ) ) @ ) ! @ _ ~ ) 2 ) ( ( . 2 ) ( : E p < 5 z 4 7 < 1 4 1 X j $.*.,.)+*.<.t.C.C 6 , ' : ( ) ) c @ ! @ c ! @ ) c ! @ _ ! ! n ! ! ! @ ] ] c _ ] ] ^ _ _ n { n { n { n n ! n ! K ) K n ! n ! ! _ ! ! n ! _ ! ! ! ) ! ! ] { ] ] { _ _ _ n n c c c . . ! @ c @ @ @ . ) ) @ ) ! @ _ ~ ) 2 ) ( ( . 2 ) ( : E p < 5 z 4 7 < 1 4 1 X j $.*.,.)+*.<.t.C.C 6 , ' : ( ) ) c @ ! @ c ! @ ) c ! @ _ ! ! n ! ! ! @ ] ] c _ ] ] ^ _ _ n { n { n { n n ! n ! K ) K n ! n ! ! _ ! ! n ! _ ! ! ! ) ! ! ] { ] ] { _ _ _ n n c c c . . ! @ c @ @ @ . ) ) @ ) ! @ _ ~ ) 2 ) ( ( . 2 ) ( : E p < 5 z 4 7 < 1 4 1 X j $.*.,.)+*.<.t.C.C 6 , ' : ( ) ) c @ ! @ c ! @ ) c ! @ _ ! ! n ! ! ! @ ] ] c _ ] ] ^ _ _ n { n { n { n n ! n ! K ) K n ! n ! ! _ ! ! n ! _ ! ! ! ) ! ! ] ",
"! ! ! ++! ! ! n @ n ) ) ) ! c @ ! ~ { n K ! n ) n c . c @ ! ! ) @ 9 ( . ) : ( ) 2 ) ! @ ) ) ) ( .   ( . ) ( ' p 8 < z 4 1 < | 4 d 1 u u $.,.8.].m./+'.k , i , & ) ! n ) ! ! ) ] ! n ! ! ! n ! ] ! ! ! ! n c ] ] ] ] ] _ ^._ _ _ ] n ! n ! ) ) ! ) K ) ) ) ! ) n ! ! ! ++! ! ! n @ n ) ) ) ! c @ ! ~ { n K ! n ) n c . c @ ! ! ) @ 9 ( . ) : ( ) 2 ) ! @ ) ) ) ( .   ( . ) ( ' p 8 < z 4 1 < | 4 d 1 u u $.,.8.].m./+'.k , i , & ) ! n ) ! ! ) ] ! n ! ! ! n ! ] ! ! ! ! n c ] ] ] ] ] _ ^._ _ _ ] n ! n ! ) ) ! ) K ) ) ) ! ) n ! ! ! ++! ! ! n @ n ) ) ) ! c @ ! ~ { n K ! n ) n c . c @ ! ! ) @ 9 ( . ) : ( ) 2 ) ! @ ) ) ) ( .   ( . ) ( ' p 8 < z 4 1 < | 4 d 1 u u $.,.8.].m./+'.k , i , & ) ! n ) ! ! ) ] ! n ! ! ! n ! ] ! ! ! ! n c ] ] ] ] ] _ ^._ _ _ ] n ! n ! ) ) ! ) K ) ) ) ! ) n ! ! ! ++! ! ! n @ n ) ) ) ! c @ ",
"! ++) K ! ! n ! _ ~ _ ] _ _ n ~ n ~ ] ! ! ! n ! c ! c ! ! ~ ! ! ( ' p ( ' 8 8 2 : ( ) @ ) . 2   ) ( 9 (   ( ' 8 8 < < h < 4 < , [ 4 6 u =.8.(+5.'.6 = 1 d & . ) ) ! K n ^ 0.! ! ! ) c ) @ ! c ! n ! n ! n ~ _ ] 0.] ] _ ^ ] _ ! _ c ! ) g.  K ) ) ) K ) K ) ! n ! ++) K ! ! n ! _ ~ _ ] _ _ n ~ n ~ ] ! ! ! n ! c ! c ! ! ~ ! ! ( ' p ( ' 8 8 2 : ( ) @ ) . 2   ) ( 9 (   ( ' 8 8 < < h < 4 < , [ 4 6 u =.8.(+5.'.6 = 1 d & . ) ) ! K n ^ 0.! ! ! ) c ) @ ! c ! n ! n ! n ~ _ ] 0.] ] _ ^ ] _ ! _ c ! ) g.  K ) ) ) K ) K ) ! n ! ++) K ! ! n ! _ ~ _ ] _ _ n ~ n ~ ] ! ! ! n ! c ! c ! ! ~ ! ! ( ' p ( ' 8 8 2 : ( ) @ ) . 2   ) ( 9 (   ( ' 8 8 < < h < 4 < , [ 4 6 u =.8.(+5.'.6 = 1 d & . ) ) ! K n ^ 0.! ! ! ) c ) @ ! c ! n ! n ! n ~ _ ] 0.] ] _ ^ ] _ ! _ c ! ) g.  K ) ) ) K ) K ) ! n ! ++) K ! ! n ! _ ~ _ ] _ _ n ~ ",
") ! ! n ! n { ] ! _ ! { ] ^ { ! { @ ! ! { n ! ) ) ) ) ! c n ! ! @ ] % : ' ' E ( % 2 ( ( 2 . ) % & . ( ( &   ' p 8 < z q.p p 5 < 5 D i $.>.:.+.Q 5 4 d ' (   ) c ! ! ! { _ ] ] _ @ @ ! ) . . @ ! ! _ ! ! _ _ ] ^ ^ ^ s ] ^ _ ^ _ ) ) g.( K ) ) ) ) ) ) ) ) )     ) ! ! n ! n { ] ! _ ! { ] ^ { ! { @ ! ! { n ! ) ) ) ) ! c n ! ! @ ] % : ' ' E ( % 2 ( ( 2 . ) % & . ( ( &   ' p 8 < z q.p p 5 < 5 D i $.>.:.+.Q 5 4 d ' (   ) c ! ! ! { _ ] ] _ @ @ ! ) . . @ ! ! _ ! ! _ _ ] ^ ^ ^ s ] ^ _ ^ _ ) ) g.( K ) ) ) ) ) ) ) ) )     ) ! ! n ! n { ] ! _ ! { ] ^ { ! { @ ! ! { n ! ) ) ) ) ! c n ! ! @ ] % : ' ' E ( % 2 ( ( 2 . ) % & . ( ( &   ' p 8 < z q.p p 5 < 5 D i $.>.:.+.Q 5 4 d ' (   ) c ! ! ! { _ ] ] _ @ @ ! ) . . @ ! ! _ ! ! _ _ ] ^ ^ ^ s ] ^ _ ^ _ ) ) g.( K ) ) ) ) ) ) ) ) )     ) ! ! n ! n { ] ! _ ! { ] ^ { ! ",
") ) ) ! ! ! ! ! ] _ ] { _ s s ] ! @ ! @ @ ! ) ) ( ) ! ! { c ! ) @ # @ ( & ( 0 % ( % % 2 % . o   ( ( ' ' : ' 8 < h ` 8 q.9.h 5 p 6 j '.N _+U H B 1 < ' ( g.) n ! n ! n { _ ] { ] ) ) 9 ( ' ) . . ) ! ! ] ! ] { ] ] _ ] _ ] _ ] ! ) 2 g.x : x x x x )   )   ) ) ) ) ) ) ! ! ! ! ! ] _ ] { _ s s ] ! @ ! @ @ ! ) ) ( ) ! ! { c ! ) @ # @ ( & ( 0 % ( % % 2 % . o   ( ( ' ' : ' 8 < h ` 8 q.9.h 5 p 6 j '.N _+U H B 1 < ' ( g.) n ! n ! n { _ ] { ] ) ) 9 ( ' ) . . ) ! ! ] ! ] { ] ] _ ] _ ] _ ] ! ) 2 g.x : x x x x )   )   ) ) ) ) ) ) ! ! ! ! ! ] _ ] { _ s s ] ! @ ! @ @ ! ) ) ( ) ! ! { c ! ) @ # @ ( & ( 0 % ( % % 2 % . o   ( ( ' ' : ' 8 < h ` 8 q.9.h 5 p 6 j '.N _+U H B 1 < ' ( g.) n ! n ! n { _ ] { ] ) ) 9 ( ' ) . . ) ! ! ] ! ] { ] ] _ ] _ ] _ ] ! ) 2 g.x : x x x x )   )   ) ) ) ) ) ) ! ! ! ! ! ] _ ] { _ s s ] ",
"2 ) ! ! ! @ _ ~ { { ] { ~ { ] s ! ! ! ! ! ) 2 x x ( ) @ ] ] ! ) ) + ] % ( ( 0 % % . % . ) @ ) ( ( ( ' ' , : 8 < 5 9.5 X X G 5 5 '.'.:+Z.#.H u 7 < '   (   ) n ! _ { _ ] ] ] _ @ ) 2 ( ' ' ( . ) ) ) ! ) n ] ] ^ ] ] { ] ] { c ! ) ) x : x : ' : : x ( x   ) . ) 2 ) ! ! ! @ _ ~ { { ] { ~ { ] s ! ! ! ! ! ) 2 x x ( ) @ ] ] ! ) ) + ] % ( ( 0 % % . % . ) @ ) ( ( ( ' ' , : 8 < 5 9.5 X X G 5 5 '.'.:+Z.#.H u 7 < '   (   ) n ! _ { _ ] ] ] _ @ ) 2 ( ' ' ( . ) ) ) ! ) n ] ] ^ ] ] { ] ] { c ! ) ) x : x : ' : : x ( x   ) . ) 2 ) ! ! ! @ _ ~ { { ] { ~ { ] s ! ! ! ! ! ) 2 x x ( ) @ ] ] ! ) ) + ] % ( ( 0 % % . % . ) @ ) ( ( ( ' ' , : 8 < 5 9.5 X X G 5 5 '.'.:+Z.#.H u 7 < '   (   ) n ! _ { _ ] ] ] _ @ ) 2 ( ' ' ( . ) ) ) ! ) n ] ] ^ ] ] { ] ] { c ! ) ) x : x : ' : : x ( x   ) . ) 2 ) ! ! ! @ _ ~ { { ] { ~ { ] s ",
"( ) ) @ c ! { ] ! ] { ] _ ! ! ~ { @ ! ! ! ) ( : x ( ) ! n @ ) ) ( @ @ % ( & ( ( % % @ . f @ )   ( 9 ' E ' ' 8 < < r B r X 4 X u i D m.C.H +.$.` , '   ) ) ! n ! _ _ ] s ^ { c ! ! ) ) ' : ( . . @ ! n ! ~ _ ^ ] ] _ c ~ n ] ! n ! )   x   K ( g.( ) g.( : ( ( : ( ) ) @ c ! { ] ! ] { ] _ ! ! ~ { @ ! ! ! ) ( : x ( ) ! n @ ) ) ( @ @ % ( & ( ( % % @ . f @ )   ( 9 ' E ' ' 8 < < r B r X 4 X u i D m.C.H +.$.` , '   ) ) ! n ! _ _ ] s ^ { c ! ! ) ) ' : ( . . @ ! n ! ~ _ ^ ] ] _ c ~ n ] ! n ! )   x   K ( g.( ) g.( : ( ( : ( ) ) @ c ! { ] ! ] { ] _ ! ! ~ { @ ! ! ! ) ( : x ( ) ! n @ ) ) ( @ @ % ( & ( ( % % @ . f @ )   ( 9 ' E ' ' 8 < < r B r X 4 X u i D m.C.H +.$.` , '   ) ) ! n ! _ _ ] s ^ { c ! ! ) ) ' : ( . . @ ! n ! ~ _ ^ ] ] _ c ~ n ] ! n ! )   x   K ( g.( ) g.( : ( ( : ( ) ) @ c ! { ] ! ] { ] _ ! ! ~ ",
"( ) ) ! ! @ @ ! @ ! ] ^ ~ ! ! { { { @ { ! ! x : ( 2 ) 2 . ) @ . . % & 2 & & % & % . f ) . ) ) 2 (   ( ' 8 ' , 8 , [ } H H '.[ j *.'+m.-.C u , < ' ' ) ) ) _ ] _ ] ^ ^ ] _ ] { c ~ ~ ) ( ' ( ) ) ! n @ ] n ] ] ] _ ] { c ] ! c ! ) ) K ) x ) g.2 g.( ( : : : : : ( ) ) ! ! @ @ ! @ ! ] ^ ~ ! ! { { { @ { ! ! x : ( 2 ) 2 . ) @ . . % & 2 & & % & % . f ) . ) ) 2 (   ( ' 8 ' , 8 , [ } H H '.[ j *.'+m.-.C u , < ' ' ) ) ) _ ] _ ] ^ ^ ] _ ] { c ~ ~ ) ( ' ( ) ) ! n @ ] n ] ] ] _ ] { c ] ! c ! ) ) K ) x ) g.2 g.( ( : : : : : ( ) ) ! ! @ @ ! @ ! ] ^ ~ ! ! { { { @ { ! ! x : ( 2 ) 2 . ) @ . . % & 2 & & % & % . f ) . ) ) 2 (   ( ' 8 ' , 8 , [ } H H '.[ j *.'+m.-.C u , < ' ' ) ) ) _ ] _ ] ^ ^ ] _ ] { c ~ ~ ) ( ' ( ) ) ! n @ ] n ] ] ] _ ] { c ] ! c ! ) ) K ) x ) g.2 g.( ( : : : : : ( ) ) ! ! @ @ ! @ ! ] ^ ~ ! ! { ",
": ( 2 ( ) ( ) ) ! ) @ ] ] ! @ _ ~ ] { ] ~ ! ( x   2 ) . ) ) ) @ . . ( % & $ $ % & % . . ( . . . ) ) ( ( ' ( ' d 4 7 6 *.Q j -.3.w. +*.Q 6 6 ; ' ' ( ( K n _ ] _ s _ ^ _ ] _ @ n ] ] @ ( : '   2 c ! c { ] ] _ ] ~ ] ! n ~ n ! ! ! ) 2 K   y   ( : g.x : : ( T.' : ( 2 ( ) ( ) ) ! ) @ ] ] ! @ _ ~ ] { ] ~ ! ( x   2 ) . ) ) ) @ . . ( % & $ $ % & % . . ( . . . ) ) ( ( ' ( ' d 4 7 6 *.Q j -.3.w. +*.Q 6 6 ; ' ' ( ( K n _ ] _ s _ ^ _ ] _ @ n ] ] @ ( : '   2 c ! c { ] ] _ ] ~ ] ! n ~ n ! ! ! ) 2 K   y   ( : g.x : : ( T.' : ( 2 ( ) ( ) ) ! ) @ ] ] ! @ _ ~ ] { ] ~ ! ( x   2 ) . ) ) ) @ . . ( % & $ $ % & % . . ( . . . ) ) ( ( ' ( ' d 4 7 6 *.Q j -.3.w. +*.Q 6 6 ; ' ' ( ( K n _ ] _ s _ ^ _ ] _ @ n ] ] @ ( : '   2 c ! c { ] ] _ ] ~ ] ! n ~ n ! ! ! ) 2 K   y   ( : g.x : : ( T.' : ( 2 ( ) ( ) ) ! ) @ ] ] ! @ _ ",
"( (   2 ( ( x ( ( E x ) @ ! @ @ ! { ~ { ] ! x E ( ) ) ) . . . . . e & & 0 % V @ & 2 . ( . ) @ c @ @ @ 2   & ; , | b C *.2._.E.m.8.3.*.'.j l r , ' ( ) ) ) { _ ~ ] ] { ] ! ! ] _ ~ ] @ x d E ' ( @ ! { ] ~ ] m ] ^ _ ~ ] { ] ! ! n ! ) ) K ( x x : ( : : :   (   ( (   2 ( ( x ( ( E x ) @ ! @ @ ! { ~ { ] ! x E ( ) ) ) . . . . . e & & 0 % V @ & 2 . ( . ) @ c @ @ @ 2   & ; , | b C *.2._.E.m.8.3.*.'.j l r , ' ( ) ) ) { _ ~ ] ] { ] ! ! ] _ ~ ] @ x d E ' ( @ ! { ] ~ ] m ] ^ _ ~ ] { ] ! ! n ! ) ) K ( x x : ( : : :   (   ( (   2 ( ( x ( ( E x ) @ ! @ @ ! { ~ { ] ! x E ( ) ) ) . . . . . e & & 0 % V @ & 2 . ( . ) @ c @ @ @ 2   & ; , | b C *.2._.E.m.8.3.*.'.j l r , ' ( ) ) ) { _ ~ ] ] { ] ! ! ] _ ~ ] @ x d E ' ( @ ! { ] ~ ] m ] ^ _ ~ ] { ] ! ! n ! ) ) K ( x x : ( : : :   (   ( (   2 ( ( x ( ( E x ) @ ! @ @ ",
"( ( 2   2 ( E : E L 8 : 2 2 ) ~ ! ! ! ! ! 2 x p ( ) @ @ . )   ( ( ' * ( , & / $ & & . 9 ( . c c c @ . ( ' ' , 7 = ;+2.N h.o.<+L.n.].3.$.k 6 & h ( (   K ! c _ { ] s ] _ @ n ! ] c ~ c ( : ' ( 2 ) ! ! _ m _ ^ ] ^ ^ ^ ^ ^ ^ ^ ] ] n ! ) ) x   : x     : : ( )   ( ( 2   2 ( E : E L 8 : 2 2 ) ~ ! ! ! ! ! 2 x p ( ) @ @ . )   ( ( ' * ( , & / $ & & . 9 ( . c c c @ . ( ' ' , 7 = ;+2.N h.o.<+L.n.].3.$.k 6 & h ( (   K ! c _ { ] s ] _ @ n ! ] c ~ c ( : ' ( 2 ) ! ! _ m _ ^ ] ^ ^ ^ ^ ^ ^ ^ ] ] n ! ) ) x   : x     : : ( )   ( ( 2   2 ( E : E L 8 : 2 2 ) ~ ! ! ! ! ! 2 x p ( ) @ @ . )   ( ( ' * ( , & / $ & & . 9 ( . c c c @ . ( ' ' , 7 = ;+2.N h.o.<+L.n.].3.$.k 6 & h ( (   K ! c _ { ] s ] _ @ n ! ] c ~ c ( : ' ( 2 ) ! ! _ m _ ^ ] ^ ^ ^ ^ ^ ^ ^ ] ] n ! ) ) x   : x     : : ( )   ( ( 2   2 ( E : E L 8 : 2 2 ) ~ ",
". . . . ! . 2 ( ( ' ( ' ( ( ( ) ] { @ { ) x ' ) 2   . ) . ) 9 ( d , 0 , , 0 3 [+& }+9 . 9 . . . @ g @ & ' ; ; 7 b [ '.|+L.M.e.d.-.2._.$.u 7 4 ( ' x 2 ) ! { _ ] _ ~ n ] ^ ] ] ~ ! @ ! ) ' : (   ) ! @ { ] ~ ^ ^ ~ ] ^ ] ~ ] ~ ^ ! ] ! n ) ) ) ) ( ) ) (   )   ( . . . . ! . 2 ( ( ' ( ' ( ( ( ) ] { @ { ) x ' ) 2   . ) . ) 9 ( d , 0 , , 0 3 [+& }+9 . 9 . . . @ g @ & ' ; ; 7 b [ '.|+L.M.e.d.-.2._.$.u 7 4 ( ' x 2 ) ! { _ ] _ ~ n ] ^ ] ] ~ ! @ ! ) ' : (   ) ! @ { ] ~ ^ ^ ~ ] ^ ] ~ ] ~ ^ ! ] ! n ) ) ) ) ( ) ) (   )   ( . . . . ! . 2 ( ( ' ( ' ( ( ( ) ] { @ { ) x ' ) 2   . ) . ) 9 ( d , 0 , , 0 3 [+& }+9 . 9 . . . @ g @ & ' ; ; 7 b [ '.|+L.M.e.d.-.2._.$.u 7 4 ( ' x 2 ) ! { _ ] _ ~ n ] ^ ] ] ~ ! @ ! ) ' : (   ) ! @ { ] ~ ^ ^ ~ ] ^ ] ~ ] ~ ^ ! ] ! n ) ) ) ) ( ) ) (   )   ( . . . . ! . 2 ( ( ' ( ' ( ( ( ) ",
"! . 2 @ @ . %   ( ( ( 2 ( ) ( ( @ o ) @ . x : y (   2 .     ( ' d 0 ' & , , ; w & 0 ; ; & & g . $ @   ; & & 7 6 6 {.*.M.n.*.[.2.}.-.H -.[ 7 < ( ( 2 ) ! n { ] _ ] _ ] ] ^ ^ ] ] ] ] @ . ) (   2 @ { ! @ { ] ^ ^ ^ ^ ^ ^ ^ s ] ^ ] ] ] ! ! ) ! ) ) ) ! )   ) ) ) ! . 2 @ @ . %   ( ( ( 2 ( ) ( ( @ o ) @ . x : y (   2 .     ( ' d 0 ' & , , ; w & 0 ; ; & & g . $ @   ; & & 7 6 6 {.*.M.n.*.[.2.}.-.H -.[ 7 < ( ( 2 ) ! n { ] _ ] _ ] ] ^ ^ ] ] ] ] @ . ) (   2 @ { ! @ { ] ^ ^ ^ ^ ^ ^ ^ s ] ^ ] ] ] ! ! ) ! ) ) ) ! )   ) ) ) ! . 2 @ @ . %   ( ( ( 2 ( ) ( ( @ o ) @ . x : y (   2 .     ( ' d 0 ' & , , ; w & 0 ; ; & & g . $ @   ; & & 7 6 6 {.*.M.n.*.[.2.}.-.H -.[ 7 < ( ( 2 ) ! n { ] _ ] _ ] ] ^ ^ ] ] ] ] @ . ) (   2 @ { ! @ { ] ^ ^ ^ ^ ^ ^ ^ s ] ^ ] ] ] ! ! ) ! ) ) ) ! )   ) ) ) ! . 2 @ @ . %   ( ( ( 2 ( ) ( ( ",
". ! ) . ) . )   . ) . . . .   ) 2 ) 2 ! 2 : ' ( : ( ( x ( ' : : ' ' & & 0 7 , * 7 = & 9 A . 3 . g 3 % & ' 7 b b -.>.N *.'.}.1+2+[ {.(.H 6 7 p (   ) 2 ! ~ @ ] ~ ^ ] ^ ^ ^.^ ] ] ] ~ ^ ! ) 2   2 n @ ] ~ ] ~ ] ~ ] ^ # ^ ] ~ ] ^ ] ^ ] ] n ! @ c ! ! ) ! @ ) ) ) . ! ) . ) . )   . ) . . . .   ) 2 ) 2 ! 2 : ' ( : ( ( x ( ' : : ' ' & & 0 7 , * 7 = & 9 A . 3 . g 3 % & ' 7 b b -.>.N *.'.}.1+2+[ {.(.H 6 7 p (   ) 2 ! ~ @ ] ~ ^ ] ^ ^ ^.^ ] ] ] ~ ^ ! ) 2   2 n @ ] ~ ] ~ ] ~ ] ^ # ^ ] ~ ] ^ ] ^ ] ] n ! @ c ! ! ) ! @ ) ) ) . ! ) . ) . )   . ) . . . .   ) 2 ) 2 ! 2 : ' ( : ( ( x ( ' : : ' ' & & 0 7 , * 7 = & 9 A . 3 . g 3 % & ' 7 b b -.>.N *.'.}.1+2+[ {.(.H 6 7 p (   ) 2 ! ~ @ ] ~ ^ ] ^ ^ ^.^ ] ] ] ~ ^ ! ) 2   2 n @ ] ~ ] ~ ] ~ ] ^ # ^ ] ~ ] ^ ] ^ ] ] n ! @ c ! ! ) ! @ ) ) ) . ! ) . ) . )   . ) . . . .   ) ",
"2 ) ) @ ) . . 2 . %   (   % . .   2 ( )   : E : : : : p : : ( : ( ( ( ' d , , , , ; ; ; & > & 9 A , < l 0 [ Y >.U Q D k D b 7 D [ }.u Q 1 d ( ( ( 2 ) ! ! c ! ~ ] ^ ^ ] ^ a.^ # ^ ] ] ~ ) ) ( ) ~ @ { c ~ ] ] ] ~ ] ^ # ^ # ~ ] ^ ] ] _ @ n ! ] ] . ! @ c (   . 2 ) ) @ ) . . 2 . %   (   % . .   2 ( )   : E : : : : p : : ( : ( ( ( ' d , , , , ; ; ; & > & 9 A , < l 0 [ Y >.U Q D k D b 7 D [ }.u Q 1 d ( ( ( 2 ) ! ! c ! ~ ] ^ ^ ] ^ a.^ # ^ ] ] ~ ) ) ( ) ~ @ { c ~ ] ] ] ~ ] ^ # ^ # ~ ] ^ ] ] _ @ n ! ] ] . ! @ c (   . 2 ) ) @ ) . . 2 . %   (   % . .   2 ( )   : E : : : : p : : ( : ( ( ( ' d , , , , ; ; ; & > & 9 A , < l 0 [ Y >.U Q D k D b 7 D [ }.u Q 1 d ( ( ( 2 ) ! ! c ! ~ ] ^ ^ ] ^ a.^ # ^ ] ] ~ ) ) ( ) ~ @ { c ~ ] ] ] ~ ] ^ # ^ # ~ ] ^ ] ] _ @ n ! ] ] . ! @ c (   . 2 ) ) @ ) . . 2 . %   (   % . . ",
") @ ) ! . 2 ) )   ) & ) &   ( ( ( ' ' ( ' 0 p < 8 8 : E x   g.)   (   ( ' , , a > > = b = l ; > 7 l ; 7 =.3+U 6 7 | 7 , 7 , l 6 D u ).Q 1 ' ( ( ) 2 ) ) @ @ c @ ^ ] ^.^ # ] a.^ ] # ] ~ ) 2 ) ) ~ ] ] ~ ] ~ ~ ] ~ # ] ~ ] ~ ] ] ] ] ] { n ! @ n ] ! c n @ ) ) ) ) @ ) ! . 2 ) )   ) & ) &   ( ( ( ' ' ( ' 0 p < 8 8 : E x   g.)   (   ( ' , , a > > = b = l ; > 7 l ; 7 =.3+U 6 7 | 7 , 7 , l 6 D u ).Q 1 ' ( ( ) 2 ) ) @ @ c @ ^ ] ^.^ # ] a.^ ] # ] ~ ) 2 ) ) ~ ] ] ~ ] ~ ~ ] ~ # ] ~ ] ~ ] ] ] ] ] { n ! @ n ] ! c n @ ) ) ) ) @ ) ! . 2 ) )   ) & ) &   ( ( ( ' ' ( ' 0 p < 8 8 : E x   g.)   (   ( ' , , a > > = b = l ; > 7 l ; 7 =.3+U 6 7 | 7 , 7 , l 6 D u ).Q 1 ' ( ( ) 2 ) ) @ @ c @ ^ ] ^.^ # ] a.^ ] # ] ~ ) 2 ) ) ~ ] ] ~ ] ~ ~ ] ~ # ] ~ ] ~ ] ] ] ] ] { n ! @ n ] ! c n @ ) ) ) ) @ ) ! . 2 ) )   ) & ) &   ( ( ",
") ! @ 2 ) ) ) . ( ( ) . ) ' : , 8 ' 8 0 p 8 < G ( : x ( ) ) ) ! (   . 9 & ' 7 6 6 , b 1 l > = l M j Q :+$.[ 7 & 3 7 4 9 ' 7 4 d 6 [ } ..5 d ( 2 ( 2 ) @ ! ] @ ] ] ^ # ] ^.] ^ ^ # ^ ] ] @ ) ! @ ~ ] ~ ] ^ ] ] ~ ] ~ ^ # ] ] ~ ] { ] _ @ c ! ! @ ] c ! ~ c ) ) @ ) ! @ 2 ) ) ) . ( ( ) . ) ' : , 8 ' 8 0 p 8 < G ( : x ( ) ) ) ! (   . 9 & ' 7 6 6 , b 1 l > = l M j Q :+$.[ 7 & 3 7 4 9 ' 7 4 d 6 [ } ..5 d ( 2 ( 2 ) @ ! ] @ ] ] ^ # ] ^.] ^ ^ # ^ ] ] @ ) ! @ ~ ] ~ ] ^ ] ] ~ ] ~ ^ # ] ] ~ ] { ] _ @ c ! ! @ ] c ! ~ c ) ) @ ) ! @ 2 ) ) ) . ( ( ) . ) ' : , 8 ' 8 0 p 8 < G ( : x ( ) ) ) ! (   . 9 & ' 7 6 6 , b 1 l > = l M j Q :+$.[ 7 & 3 7 4 9 ' 7 4 d 6 [ } ..5 d ( 2 ( 2 ) @ ! ] @ ] ] ^ # ] ^.] ^ ^ # ^ ] ] @ ) ! @ ~ ] ~ ] ^ ] ] ~ ] ~ ^ # ] ] ~ ] { ] _ @ c ! ! @ ] c ! ~ c ) ) @ ) ! @ 2 ) ) ) . ( ( ) . ) ' : , ",
") ) ! ) ) 2   ) '   ( ' ( ' d p ' , p ' ' ' : 8 (   2 ) ! ! ! c ) ) 9 ( ( ; 7 j u D '.C 2+b '.C *.=.-.D 7 = 7 W b . $ d ' ( ' < B.6 u ..+.' : 2   y ) ) @ @ g ] ] a.^ # ] # ^.# ] ^ ~ @ ) ! @ c ~ ] ~ ^ / ^ ~ ] ~ ^ + m ] ~ ] m c ] ] ] _ @ c ! c ~ ] ) ! c . ) ) ) ! ) ) 2   ) '   ( ' ( ' d p ' , p ' ' ' : 8 (   2 ) ! ! ! c ) ) 9 ( ( ; 7 j u D '.C 2+b '.C *.=.-.D 7 = 7 W b . $ d ' ( ' < B.6 u ..+.' : 2   y ) ) @ @ g ] ] a.^ # ] # ^.# ] ^ ~ @ ) ! @ c ~ ] ~ ^ / ^ ~ ] ~ ^ + m ] ~ ] m c ] ] ] _ @ c ! c ~ ] ) ! c . ) ) ) ! ) ) 2   ) '   ( ' ( ' d p ' , p ' ' ' : 8 (   2 ) ! ! ! c ) ) 9 ( ( ; 7 j u D '.C 2+b '.C *.=.-.D 7 = 7 W b . $ d ' ( ' < B.6 u ..+.' : 2   y ) ) @ @ g ] ] a.^ # ] # ^.# ] ^ ~ @ ) ! @ c ~ ] ~ ^ / ^ ~ ] ~ ^ + m ] ~ ] m c ] ] ] _ @ c ! c ~ ] ) ! c . ) ) ) ! ) ) 2   ) '   ( ' ( ' d p ",
"2 ( ) ( : ' ' ( ( ' p ` p d (   ' ( ( ' ) ) ) ) ) ) ) ! ) ! _ ! .+) x ' ' ' 7 1 D b _.4+*.)+n.!.'.j.7 = = d ; ; ' ( ( d . ' p ' | 7 u Y .., , ( ' ( ( . ) @ @ c + ^ ^ a.^ ] # 5+] ] @ ! 2 ( ! @ ] ~ ^ + ^ ^ ] ~ ] # ^ ^ + m ] ^ ~ _ ^ ^ ] ] n @ ! @ ! . ) ) . ) 2 ( ) ( : ' ' ( ( ' p ` p d (   ' ( ( ' ) ) ) ) ) ) ) ! ) ! _ ! .+) x ' ' ' 7 1 D b _.4+*.)+n.!.'.j.7 = = d ; ; ' ( ( d . ' p ' | 7 u Y .., , ( ' ( ( . ) @ @ c + ^ ^ a.^ ] # 5+] ] @ ! 2 ( ! @ ] ~ ^ + ^ ^ ] ~ ] # ^ ^ + m ] ^ ~ _ ^ ^ ] ] n @ ! @ ! . ) ) . ) 2 ( ) ( : ' ' ( ( ' p ` p d (   ' ( ( ' ) ) ) ) ) ) ) ! ) ! _ ! .+) x ' ' ' 7 1 D b _.4+*.)+n.!.'.j.7 = = d ; ; ' ( ( d . ' p ' | 7 u Y .., , ( ' ( ( . ) @ @ c + ^ ^ a.^ ] # 5+] ] @ ! 2 ( ! @ ] ~ ^ + ^ ^ ] ~ ] # ^ ^ + m ] ^ ~ _ ^ ^ ] ] n @ ! @ ! . ) ) . ) 2 ( ) ( : ' ' ( ( ' p ` p d (   ",
"' ' ' 0 ' 0 0 d < , 8 ' ' (   9 . ) ! n ! -+n ++n n n ) ) _ 0.! K 2 ' ( d & b b j '._.t.v.p.5.7.i b b , & ' 0 2 ' ( ( ( ( |.( ' ' 7 1 [ +.=.6 3 , ; ( @ . ! ! _ ^ 6+] ^ ] # ] ] ^ ] ~ @ ) . . @ ~ ] ~ ] m + ~ ^ ^ ~ ] ~ ] ^ ~ ^ ^ ] { _ ! { @ ~ c ! @ 2 ( % ( 2 ' ' ' 0 ' 0 0 d < , 8 ' ' (   9 . ) ! n ! -+n ++n n n ) ) _ 0.! K 2 ' ( d & b b j '._.t.v.p.5.7.i b b , & ' 0 2 ' ( ( ( ( |.( ' ' 7 1 [ +.=.6 3 , ; ( @ . ! ! _ ^ 6+] ^ ] # ] ] ^ ] ~ @ ) . . @ ~ ] ~ ] m + ~ ^ ^ ~ ] ~ ] ^ ~ ^ ^ ] { _ ! { @ ~ c ! @ 2 ( % ( 2 ' ' ' 0 ' 0 0 d < , 8 ' ' (   9 . ) ! n ! -+n ++n n n ) ) _ 0.! K 2 ' ( d & b b j '._.t.v.p.5.7.i b b , & ' 0 2 ' ( ( ( ( |.( ' ' 7 1 [ +.=.6 3 , ; ( @ . ! ! _ ^ 6+] ^ ] # ] ] ^ ] ~ @ ) . . @ ~ ] ~ ] m + ~ ^ ^ ~ ] ~ ] ^ ~ ^ ^ ] { _ ! { @ ~ c ! @ 2 ( % ( 2 ' ' ' 0 ' 0 0 d < , 8 ' ' (   9 ",
"' e ' 0 , , , 0 0 ' ' ' & ) . . ! n n { -+=+-+=+-+-+n n _ n ) x ) ( @ < 0 7 b '.K.M.7+t.7.[.8+[.j 1 , 0 ' ( & ( ( (   (   ( 9 ( ' , 4 } C Q C b = & 3 ( 2 ! ^ ^ ] 6+^ + ^.] ^ ] + ~ ] ! % ) @ ~ ] ~ ^ ] # ^ ^ ] # ] ~ ] ~ ^ ^ ^ ] { ] ~ ! ~ ! @ ! f ) % % 2 ( ( ' e ' 0 , , , 0 0 ' ' ' & ) . . ! n n { -+=+-+=+-+-+n n _ n ) x ) ( @ < 0 7 b '.K.M.7+t.7.[.8+[.j 1 , 0 ' ( & ( ( (   (   ( 9 ( ' , 4 } C Q C b = & 3 ( 2 ! ^ ^ ] 6+^ + ^.] ^ ] + ~ ] ! % ) @ ~ ] ~ ^ ] # ^ ^ ] # ] ~ ] ~ ^ ^ ^ ] { ] ~ ! ~ ! @ ! f ) % % 2 ( ( ' e ' 0 , , , 0 0 ' ' ' & ) . . ! n n { -+=+-+=+-+-+n n _ n ) x ) ( @ < 0 7 b '.K.M.7+t.7.[.8+[.j 1 , 0 ' ( & ( ( (   (   ( 9 ( ' , 4 } C Q C b = & 3 ( 2 ! ^ ^ ] 6+^ + ^.] ^ ] + ~ ] ! % ) @ ~ ] ~ ^ ] # ^ ^ ] # ] ~ ] ~ ^ ^ ^ ] { ] ~ ! ~ ! @ ! f ) % % 2 ( ( ' e ' 0 , , , 0 0 ' ' ' & ) . . ",
", p , < 8 8 , ' ' ( ( . ! @ n ! @ ! ! n =+++_ -+n K   g.) ! n ] . ' 6 6 [ }.n.v.9+M.n.7.- - k 0+u '.a 0 7 ( . ( x ( ) 2 ) @ ) . ' ' , < 6 u u C j = . ( ' ) ^ ^ ] ] ] + ^ ] ^ ] ^ ] ~ @ . @ @ ] + ^ ^ ^ ^ ^ # ^ ^ ^ ^ ] ^ ^ ~ ] ~ ] { ] ~ c @ { . ! @ 2 2 ( 0 0 , p , < 8 8 , ' ' ( ( . ! @ n ! @ ! ! n =+++_ -+n K   g.) ! n ] . ' 6 6 [ }.n.v.9+M.n.7.- - k 0+u '.a 0 7 ( . ( x ( ) 2 ) @ ) . ' ' , < 6 u u C j = . ( ' ) ^ ^ ] ] ] + ^ ] ^ ] ^ ] ~ @ . @ @ ] + ^ ^ ^ ^ ^ # ^ ^ ^ ^ ] ^ ^ ~ ] ~ ] { ] ~ c @ { . ! @ 2 2 ( 0 0 , p , < 8 8 , ' ' ( ( . ! @ n ! @ ! ! n =+++_ -+n K   g.) ! n ] . ' 6 6 [ }.n.v.9+M.n.7.- - k 0+u '.a 0 7 ( . ( x ( ) 2 ) @ ) . ' ' , < 6 u u C j = . ( ' ) ^ ^ ] ] ] + ^ ] ^ ] ^ ] ~ @ . @ @ ] + ^ ^ ^ ^ ^ # ^ ^ ^ ^ ] ^ ^ ~ ] ~ ] { ] ~ c @ { . ! @ 2 2 ( 0 0 , p , < 8 8 , ' ' ( ( . ! @ n ! ",
"4 < < < < 8 ' 0 ( ( 2 ! ! ! ! n @ ! ! ++! ++n ++! ) ) @ c ) ( ( b l b [.D y.,.M.F.~+a+[.'.- > 7 j +.6 ; 7 ' % ( ( 2 ) ) @ ) @ . ( 2 9 ' , 7 6 C H 6 * ; 2 . ~ @ ] ] + ] ] ^ ] ^ # ] ] @ ! @ g ~ ^ ^ ^ ^ # ^ ^ ^ ^ ^ ~ _ ~ ^ ] ~ s ~ ] ] ~ @ ! @ ! . ) ) ' E 8 8 4 < < < < 8 ' 0 ( ( 2 ! ! ! ! n @ ! ! ++! ++n ++! ) ) @ c ) ( ( b l b [.D y.,.M.F.~+a+[.'.- > 7 j +.6 ; 7 ' % ( ( 2 ) ) @ ) @ . ( 2 9 ' , 7 6 C H 6 * ; 2 . ~ @ ] ] + ] ] ^ ] ^ # ] ] @ ! @ g ~ ^ ^ ^ ^ # ^ ^ ^ ^ ^ ~ _ ~ ^ ] ~ s ~ ] ] ~ @ ! @ ! . ) ) ' E 8 8 4 < < < < 8 ' 0 ( ( 2 ! ! ! ! n @ ! ! ++! ++n ++! ) ) @ c ) ( ( b l b [.D y.,.M.F.~+a+[.'.- > 7 j +.6 ; 7 ' % ( ( 2 ) ) @ ) @ . ( 2 9 ' , 7 6 C H 6 * ; 2 . ~ @ ] ] + ] ] ^ ] ^ # ] ] @ ! @ g ~ ^ ^ ^ ^ # ^ ^ ^ ^ ^ ~ _ ~ ^ ] ~ s ~ ] ] ~ @ ! @ ! . ) ) ' E 8 8 4 < < < < 8 ' 0 ( ( 2 ! ! ! ! n ",
"< p ' ( ' ( ( 2 ( 2 ! ! ! { { ! ! . ) ! ! ! ! ) )     . & ( ( & > {.7.u.G.F.b+_.1+2+b ;+b * }+= , C j 0 0 , & ' ) . . ~ @ @ ! !   . . ' ; ; 1 u Q C 4 ; 3 @ . ] g + ] a.^ # ^ ~ ^ ^ @ ! @ @ ] ^ ^ ^ ^ ^ ^ ^ ^ ^ ^ ] ^ m ^ _ ~ _ ~ ] ~ @ ! ! ) ( ( ( : E 8 8 G 8 < p ' ( ' ( ( 2 ( 2 ! ! ! { { ! ! . ) ! ! ! ! ) )     . & ( ( & > {.7.u.G.F.b+_.1+2+b ;+b * }+= , C j 0 0 , & ' ) . . ~ @ @ ! !   . . ' ; ; 1 u Q C 4 ; 3 @ . ] g + ] a.^ # ^ ~ ^ ^ @ ! @ @ ] ^ ^ ^ ^ ^ ^ ^ ^ ^ ^ ] ^ m ^ _ ~ _ ~ ] ~ @ ! ! ) ( ( ( : E 8 8 G 8 < p ' ( ' ( ( 2 ( 2 ! ! ! { { ! ! . ) ! ! ! ! ) )     . & ( ( & > {.7.u.G.F.b+_.1+2+b ;+b * }+= , C j 0 0 , & ' ) . . ~ @ @ ! !   . . ' ; ; 1 u Q C 4 ; 3 @ . ] g + ] a.^ # ^ ~ ^ ^ @ ! @ @ ] ^ ^ ^ ^ ^ ^ ^ ^ ^ ^ ] ^ m ^ _ ~ _ ~ ] ~ @ ! ! ) ( ( ( : E 8 8 G 8 < p ' ( ' ( ( 2 ( 2 ! ! ! { { ! ",
"'     . . 9 ) % ) o ) o ) ++! ! ) . ( ) ) !   ( < , , , 7 , , , *.5.n.9+x.5.1+;+j.b 2+, 7 a , ' = u C | , ' & ( % ) ! ~ n ] @ ! @ ) .   ' ' | [ } C u 7 ; ; % / @ ] + ] # ] ] ^ ^ ~ @ ! @ ] ~ ~ ^ ] ^ ^ ^ ^ ~ ] ^ ^ ] ^ ^ ^ ^ ] @ @ @ ! ) ( ( x ( : : : : : ' x '     . . 9 ) % ) o ) o ) ++! ! ) . ( ) ) !   ( < , , , 7 , , , *.5.n.9+x.5.1+;+j.b 2+, 7 a , ' = u C | , ' & ( % ) ! ~ n ] @ ! @ ) .   ' ' | [ } C u 7 ; ; % / @ ] + ] # ] ] ^ ^ ~ @ ! @ ] ~ ~ ^ ] ^ ^ ^ ^ ~ ] ^ ^ ] ^ ^ ^ ^ ] @ @ @ ! ) ( ( x ( : : : : : ' x '     . . 9 ) % ) o ) o ) ++! ! ) . ( ) ) !   ( < , , , 7 , , , *.5.n.9+x.5.1+;+j.b 2+, 7 a , ' = u C | , ' & ( % ) ! ~ n ] @ ! @ ) .   ' ' | [ } C u 7 ; ; % / @ ] + ] # ] ] ^ ^ ~ @ ! @ ] ~ ~ ^ ] ^ ^ ^ ^ ~ ] ^ ^ ] ^ ^ ^ ^ ] @ @ @ ! ) ( ( x ( : : : : : ' x '     . . 9 ) % ) o ) o ) ++! ! ",
"    ) .   ( 2 9 2 ) 2 2 ) 2 ) 2   ; ' ( ' ' 8 < 6 | b j C c+:+d+*.e+e+e+7.;+1+}.2+7 | 6 1 %.0 & 7 j C u 1 d & ( ( ) @ @ ] { ! n c n ! .   ' , 4 1 [ u j 1 , ; $ . @ c ] ] ~ ] ~ ^ _ @ ! @ ~ ] ] ^ ^ ^ ] ^ _ ^ _ ^ ^ s ] ^ ] _ ! @ ) . 2 & (   ' ' x ( '   )   )     ) .   ( 2 9 2 ) 2 2 ) 2 ) 2   ; ' ( ' ' 8 < 6 | b j C c+:+d+*.e+e+e+7.;+1+}.2+7 | 6 1 %.0 & 7 j C u 1 d & ( ( ) @ @ ] { ! n c n ! .   ' , 4 1 [ u j 1 , ; $ . @ c ] ] ~ ] ~ ^ _ @ ! @ ~ ] ] ^ ^ ^ ] ^ _ ^ _ ^ ^ s ] ^ ] _ ! @ ) . 2 & (   ' ' x ( '   )   )     ) .   ( 2 9 2 ) 2 2 ) 2 ) 2   ; ' ( ' ' 8 < 6 | b j C c+:+d+*.e+e+e+7.;+1+}.2+7 | 6 1 %.0 & 7 j C u 1 d & ( ( ) @ @ ] { ! n c n ! .   ' , 4 1 [ u j 1 , ; $ . @ c ] ] ~ ] ~ ^ _ @ ! @ ~ ] ] ^ ^ ^ ] ^ _ ^ _ ^ ^ s ] ^ ] _ ! @ ) . 2 & (   ' ' x ( '   )   )     ) .   ( 2 9 2 ) 2 2 ) 2 ) 2 ",
"  )   ) 9 ) . . %   & ' ' ( ) 2 ; ' d d , 7 6 } D '.,.m.|+,.f+a b 2+D b 2+D = M b 7 * & * J < 0 ; = j H j , ' 8 & 2 ) @ { ] ~ { ! n ) ) . ' ' d 7 1 6 [ i 7 ; A . @ $ c / ] c ~ ] { @ ! ! ~ # ~ ^ ^ ^ ^ ^ ^ ^ ^ ] _ ] ] _ c ! @ @ % ) % ) ) % ) ' '     (     |.  )   ) 9 ) . . %   & ' ' ( ) 2 ; ' d d , 7 6 } D '.,.m.|+,.f+a b 2+D b 2+D = M b 7 * & * J < 0 ; = j H j , ' 8 & 2 ) @ { ] ~ { ! n ) ) . ' ' d 7 1 6 [ i 7 ; A . @ $ c / ] c ~ ] { @ ! ! ~ # ~ ^ ^ ^ ^ ^ ^ ^ ^ ] _ ] ] _ c ! @ @ % ) % ) ) % ) ' '     (     |.  )   ) 9 ) . . %   & ' ' ( ) 2 ; ' d d , 7 6 } D '.,.m.|+,.f+a b 2+D b 2+D = M b 7 * & * J < 0 ; = j H j , ' 8 & 2 ) @ { ] ~ { ! n ) ) . ' ' d 7 1 6 [ i 7 ; A . @ $ c / ] c ~ ] { @ ! ! ~ # ~ ^ ^ ^ ^ ^ ^ ^ ^ ] _ ] ] _ c ! @ @ % ) % ) ) % ) ' '     (     |.  )   ) 9 ) . . %   & ' ' ( ) 2 ",
"g.) n ) ' ' ( . . & ; ; ; ; l , W | b 1 X :+,.,.o.v.o.n.4+C b a = 0 , = , = ; ; w ; , ; & ( , 8 7 ; i 1 +.} ; & ) @ @ ) _ ~ ! ! n ] ] c ) 9 ( ' ; 7 1 b 6 '.i ; ' . 9 ~ . # ~ ! @ ~ @ @ @ ! ] ~ ] ^ ^ ] { n { ] { ~ ] ~ @ ! @ @ . @ % ( ;   &   ( ( p (   . )   g.) n ) ' ' ( . . & ; ; ; ; l , W | b 1 X :+,.,.o.v.o.n.4+C b a = 0 , = , = ; ; w ; , ; & ( , 8 7 ; i 1 +.} ; & ) @ @ ) _ ~ ! ! n ] ] c ) 9 ( ' ; 7 1 b 6 '.i ; ' . 9 ~ . # ~ ! @ ~ @ @ @ ! ] ~ ] ^ ^ ] { n { ] { ~ ] ~ @ ! @ @ . @ % ( ;   &   ( ( p (   . )   g.) n ) ' ' ( . . & ; ; ; ; l , W | b 1 X :+,.,.o.v.o.n.4+C b a = 0 , = , = ; ; w ; , ; & ( , 8 7 ; i 1 +.} ; & ) @ @ ) _ ~ ! ! n ] ] c ) 9 ( ' ; 7 1 b 6 '.i ; ' . 9 ~ . # ~ ! @ ~ @ @ @ ! ] ~ ] ^ ^ ] { n { ] { ~ ] ~ @ ! @ @ . @ % ( ;   &   ( ( p (   . )   g.) n ) ' ' ( . . & ; ; ; ; l , ",
"g.g.    ) . & , 7 , l ; l l W k D (.1.].@.].K.=.7.~+g+h+<.i+a+0 ; e ( ( & 2 & & . & ' & . & ' , = = 7 7 u b < ' & @ c @ ~ _ ! ^ ! _ ] _ @ )   & . 9 l , b u +.C 6 , 9 $ . @ . c ~ ] ] ] ] ~ + ^ { ] ^ ~ c @ ~ ] # ^ ] c @ @ ) . ( ( . % . & ' , < < , '   9   ' g.g.    ) . & , 7 , l ; l l W k D (.1.].@.].K.=.7.~+g+h+<.i+a+0 ; e ( ( & 2 & & . & ' & . & ' , = = 7 7 u b < ' & @ c @ ~ _ ! ^ ! _ ] _ @ )   & . 9 l , b u +.C 6 , 9 $ . @ . c ~ ] ] ] ] ~ + ^ { ] ^ ~ c @ ~ ] # ^ ] c @ @ ) . ( ( . % . & ' , < < , '   9   ' g.g.    ) . & , 7 , l ; l l W k D (.1.].@.].K.=.7.~+g+h+<.i+a+0 ; e ( ( & 2 & & . & ' & . & ' , = = 7 7 u b < ' & @ c @ ~ _ ! ^ ! _ ] _ @ )   & . 9 l , b u +.C 6 , 9 $ . @ . c ~ ] ] ] ] ~ + ^ { ] ^ ~ c @ ~ ] # ^ ] c @ @ ) . ( ( . % . & ' , < < , '   9   ' g.g.    ) . & , 7 , l ; l l W k ",
"( ( ' : ' . 9 ; 3 i+M b (.*.K.D.#.;.H B.k l k !+1+{.b+L.k k = $ 2 ! 2 2 ) f . @ @ ( ' & . 9 & ' ; a ; 7 1 ; < , 9 @ @ n ^ { ! ^ ! ] ] ] c ! @ . ' ( ' ; d , b 1 $.Z ' & $ % @ + ~ ] ~ ~ ] ] ~ + ] ^ ~ ] ~ ~ ] ] @ @ @ + + @ . ' % & ' < < < , < , d ' ' & 9 & 9 ( ( ' : ' . 9 ; 3 i+M b (.*.K.D.#.;.H B.k l k !+1+{.b+L.k k = $ 2 ! 2 2 ) f . @ @ ( ' & . 9 & ' ; a ; 7 1 ; < , 9 @ @ n ^ { ! ^ ! ] ] ] c ! @ . ' ( ' ; d , b 1 $.Z ' & $ % @ + ~ ] ~ ~ ] ] ~ + ] ^ ~ ] ~ ~ ] ] @ @ @ + + @ . ' % & ' < < < , < , d ' ' & 9 & 9 ( ( ' : ' . 9 ; 3 i+M b (.*.K.D.#.;.H B.k l k !+1+{.b+L.k k = $ 2 ! 2 2 ) f . @ @ ( ' & . 9 & ' ; a ; 7 1 ; < , 9 @ @ n ^ { ! ^ ! ] ] ] c ! @ . ' ( ' ; d , b 1 $.Z ' & $ % @ + ~ ] ~ ~ ] ] ~ + ] ^ ~ ] ~ ~ ] ] @ @ @ + + @ . ' % & ' < < < , < , d ' ' & 9 & 9 ( ( ' : ' . 9 ; 3 i+M b (.*.K.D.",
": p < < 7 1 b D 6 Q 8.8.N ).7 l A ; ; l , k a !+]+R.w.j M = S ( ! ! ) ! ! ! ! ! . ) ( & . . & ( = < = = , 9 0 , $ @ @ @ ] @ ! ^ { ] ] _ ] @ c n c . . ' ; & ; 7 j u 6 7 $ @ g @ g @ / ] ~ ] @ ] ~ ~ ] @ @ @ @ $ @ . . % 9 . % 9 ( , 1 } Z 1 , d d 0 l , 7 7 d 0 : p < < 7 1 b D 6 Q 8.8.N ).7 l A ; ; l , k a !+]+R.w.j M = S ( ! ! ) ! ! ! ! ! . ) ( & . . & ( = < = = , 9 0 , $ @ @ @ ] @ ! ^ { ] ] _ ] @ c n c . . ' ; & ; 7 j u 6 7 $ @ g @ g @ / ] ~ ] @ ] ~ ~ ] @ @ @ @ $ @ . . % 9 . % 9 ( , 1 } Z 1 , d d 0 l , 7 7 d 0 : p < < 7 1 b D 6 Q 8.8.N ).7 l A ; ; l , k a !+]+R.w.j M = S ( ! ! ) ! ! ! ! ! . ) ( & . . & ( = < = = , 9 0 , $ @ @ @ ] @ ! ^ { ] ] _ ] @ c n c . . ' ; & ; 7 j u 6 7 $ @ g @ g @ / ] ~ ] @ ] ~ ~ ] @ @ @ @ $ @ . . % 9 . % 9 ( , 1 } Z 1 , d d 0 l , 7 7 d 0 : p < < 7 1 b D 6 Q 8.8.N ).7 l ",
"4 } } 6 } =.U N H 1 3 g A ' ; 3 d d ; & & l | ;+[ t.'.l , # . ( ! ! ! ! ) ! c @ @ . ( ) . . & % , , 7 0 , , ; 1 + ] . ) ~ _ ! ~ _ ~ ] ~ _ ! n ~ ] c ) ' ' & ' a | u u u ; & @ & @ @ ] ~ g @ c @ @ . f . . . . % . % . % & , 7 < } X 6 1 7 ; d , , 7 | 1 [ } j [ 4 } } 6 } =.U N H 1 3 g A ' ; 3 d d ; & & l | ;+[ t.'.l , # . ( ! ! ! ! ) ! c @ @ . ( ) . . & % , , 7 0 , , ; 1 + ] . ) ~ _ ! ~ _ ~ ] ~ _ ! n ~ ] c ) ' ' & ' a | u u u ; & @ & @ @ ] ~ g @ c @ @ . f . . . . % . % . % & , 7 < } X 6 1 7 ; d , , 7 | 1 [ } j [ 4 } } 6 } =.U N H 1 3 g A ' ; 3 d d ; & & l | ;+[ t.'.l , # . ( ! ! ! ! ) ! c @ @ . ( ) . . & % , , 7 0 , , ; 1 + ] . ) ~ _ ! ~ _ ~ ] ~ _ ! n ~ ] c ) ' ' & ' a | u u u ; & @ & @ @ ] ~ g @ c @ @ . f . . . . % . % . % & , 7 < } X 6 1 7 ; d , , 7 | 1 [ } j [ 4 } } 6 } =.U N H 1 3 g A ' ; 3 ",
"'.u j C U !.U i * , , * . . . ( c . ( ' d , < i ;.U l ; & ) : j+n n n ) n ) ! ! c ) ( . . .   . , & , 0 , 5 , u @ g . 2 c ~ ! ! @ ] ~ { c { n n ) ) )   . . 9 = , b D j 1 l & . @ @ @ g ~ c @ . % . . f . % % & ' & ; , 4 Z u u } 1 8 , l , , b 1 b b 6 j 8+$.v '.u j C U !.U i * , , * . . . ( c . ( ' d , < i ;.U l ; & ) : j+n n n ) n ) ! ! c ) ( . . .   . , & , 0 , 5 , u @ g . 2 c ~ ! ! @ ] ~ { c { n n ) ) )   . . 9 = , b D j 1 l & . @ @ @ g ~ c @ . % . . f . % % & ' & ; , 4 Z u u } 1 8 , l , , b 1 b b 6 j 8+$.v '.u j C U !.U i * , , * . . . ( c . ( ' d , < i ;.U l ; & ) : j+n n n ) n ) ! ! c ) ( . . .   . , & , 0 , 5 , u @ g . 2 c ~ ! ! @ ] ~ { c { n n ) ) )   . . 9 = , b D j 1 l & . @ @ @ g ~ c @ . % . . f . % % & ' & ; , 4 Z u u } 1 8 , l , , b 1 b b 6 j 8+$.v '.u j C U !.U i * , , * . . . ( ",
"{.j '.=.N =.b t * 0 ( ( o @ ! !   ) ( : ' 8 1 u *+; . < : K j+++c .+) ) ) .+) .+!   (   2 & ( & : , & 0 d 1 < } < % .   ) @ ! ! @ { @ ~ ! _ ] _ ] _ c ~ . ) ( , = l b 6 j , & . . . @ @ c @ . ( & 2 & & & ( 0 , 0 J } C H u b , l ; ; , 1 | b b b b b ;+i j '.8+{.j '.=.N =.b t * 0 ( ( o @ ! !   ) ( : ' 8 1 u *+; . < : K j+++c .+) ) ) .+) .+!   (   2 & ( & : , & 0 d 1 < } < % .   ) @ ! ! @ { @ ~ ! _ ] _ ] _ c ~ . ) ( , = l b 6 j , & . . . @ @ c @ . ( & 2 & & & ( 0 , 0 J } C H u b , l ; ; , 1 | b b b b b ;+i j '.8+{.j '.=.N =.b t * 0 ( ( o @ ! !   ) ( : ' 8 1 u *+; . < : K j+++c .+) ) ) .+) .+!   (   2 & ( & : , & 0 d 1 < } < % .   ) @ ! ! @ { @ ~ ! _ ] _ ] _ c ~ . ) ( , = l b 6 j , & . . . @ @ c @ . ( & 2 & & & ( 0 , 0 J } C H u b , l ; ; , 1 | b b b b b ;+i j '.8+{.j '.=.N =.b t * 0 ( ( o @ ! ! ",
"'.8+_.*.C = }+7 & % f @ ! K ! ! ) ) ( 8 8 1 } /.k+' & ' ) { K K ) n ) ) )   ) .   ( ' ' ' ' ' ' 8 J $ * ' , 7 1 r d . ' ( . ) 2 ! @ ! ~ _ ~ _ ^ _ ! ! ! ! %   & 7 M b [ u ' ; ; & & 9 . 3 . & ' , 7 , , , 7 1 6 :+H u 6 , * ; = ' ; ; , b 1 1 1 b b j j {.8+{.8+'.8+_.*.C = }+7 & % f @ ! K ! ! ) ) ( 8 8 1 } /.k+' & ' ) { K K ) n ) ) )   ) .   ( ' ' ' ' ' ' 8 J $ * ' , 7 1 r d . ' ( . ) 2 ! @ ! ~ _ ~ _ ^ _ ! ! ! ! %   & 7 M b [ u ' ; ; & & 9 . 3 . & ' , 7 , , , 7 1 6 :+H u 6 , * ; = ' ; ; , b 1 1 1 b b j j {.8+{.8+'.8+_.*.C = }+7 & % f @ ! K ! ! ) ) ( 8 8 1 } /.k+' & ' ) { K K ) n ) ) )   ) .   ( ' ' ' ' ' ' 8 J $ * ' , 7 1 r d . ' ( . ) 2 ! @ ! ~ _ ~ _ ^ _ ! ! ! ! %   & 7 M b [ u ' ; ; & & 9 . 3 . & ' , 7 , , , 7 1 6 :+H u 6 , * ; = ' ; ; , b 1 1 1 b b j j {.8+{.8+'.8+_.*.C = }+7 & % f @ ! K ! ! ",
";+=.d+i * ; , ( ( ! ) ! ! ! _ ! : K ( p 5 I R l+1 < : x   ++! ! n n ) ) )   ' 8 d ' ' , W d d 7 , ' (   ' ' < J 6 8 , J ' 0 0 @ ( n ] _ _ ] _ { ! ) ! c ) ( . ' ; , a 1 v 6 * * ; & > A & l , k D b D j v -.H +.J a 8 0 ; & ( ; 9 ; 4 B.6 u u b i u =.N 4+)+]+^+;+=.d+i * ; , ( ( ! ) ! ! ! _ ! : K ( p 5 I R l+1 < : x   ++! ! n n ) ) )   ' 8 d ' ' , W d d 7 , ' (   ' ' < J 6 8 , J ' 0 0 @ ( n ] _ _ ] _ { ! ) ! c ) ( . ' ; , a 1 v 6 * * ; & > A & l , k D b D j v -.H +.J a 8 0 ; & ( ; 9 ; 4 B.6 u u b i u =.N 4+)+]+^+;+=.d+i * ; , ( ( ! ) ! ! ! _ ! : K ( p 5 I R l+1 < : x   ++! ! n n ) ) )   ' 8 d ' ' , W d d 7 , ' (   ' ' < J 6 8 , J ' 0 0 @ ( n ] _ _ ] _ { ! ) ! c ) ( . ' ; , a 1 v 6 * * ; & > A & l , k D b D j v -.H +.J a 8 0 ; & ( ; 9 ; 4 B.6 u u b i u =.N 4+)+]+^+;+=.d+i * ; , ( ( ! ) ! ! ! _ ! ",
"d+=.} , & 0 2 @ @ ! ] _ ] ] _ _ n :   < 7 H U } 7 8 |.  2 K 2 ! ++) K ) ( x ' 8 8 , 7 < 4 7 7 < d d ' & ' , 7 < , 0 1 6 7 0 , '   ! ! ! ! { ~ ! ~ ) ! @ % ( & & 0 , ; a } } 7 7 , = = * k 7 b b }.-._.2.-.j 7 & , , 0 }+2 & ( & ; d 7 7 7 6 } 1 i i ;+;+'.m+<.4+d+=.} , & 0 2 @ @ ! ] _ ] ] _ _ n :   < 7 H U } 7 8 |.  2 K 2 ! ++) K ) ( x ' 8 8 , 7 < 4 7 7 < d d ' & ' , 7 < , 0 1 6 7 0 , '   ! ! ! ! { ~ ! ~ ) ! @ % ( & & 0 , ; a } } 7 7 , = = * k 7 b b }.-._.2.-.j 7 & , , 0 }+2 & ( & ; d 7 7 7 6 } 1 i i ;+;+'.m+<.4+d+=.} , & 0 2 @ @ ! ] _ ] ] _ _ n :   < 7 H U } 7 8 |.  2 K 2 ! ++) K ) ( x ' 8 8 , 7 < 4 7 7 < d d ' & ' , 7 < , 0 1 6 7 0 , '   ! ! ! ! { ~ ! ~ ) ! @ % ( & & 0 , ; a } } 7 7 , = = * k 7 b b }.-._.2.-.j 7 & , , 0 }+2 & ( & ; d 7 7 7 6 } 1 i i ;+;+'.m+<.4+d+=.} , & 0 2 @ @ ! ] _ ] ] _ _ ",
"U i * & ' & . @ c ] ] ] _ ^ ] n 0.: ' 8 = U U ; , ' |.  ) ) ! 2 ) ) 2 x ( ' 8 < < < < 1 B.4 < < ' ' : ' p 8 8 < 4 . 3 d 6 [ 4 & . ) c ) . ) @ )   ( ( ( ' & & ; & , 7 i H v 7 > | b | 6 '.C -.-.2.-.[ b l ; , , & &   % . % 2 & 7 W 7 d ; 7 4 a 7 a a a+a+;+{.)+U i * & ' & . @ c ] ] ] _ ^ ] n 0.: ' 8 = U U ; , ' |.  ) ) ! 2 ) ) 2 x ( ' 8 < < < < 1 B.4 < < ' ' : ' p 8 8 < 4 . 3 d 6 [ 4 & . ) c ) . ) @ )   ( ( ( ' & & ; & , 7 i H v 7 > | b | 6 '.C -.-.2.-.[ b l ; , , & &   % . % 2 & 7 W 7 d ; 7 4 a 7 a a a+a+;+{.)+U i * & ' & . @ c ] ] ] _ ^ ] n 0.: ' 8 = U U ; , ' |.  ) ) ! 2 ) ) 2 x ( ' 8 < < < < 1 B.4 < < ' ' : ' p 8 8 < 4 . 3 d 6 [ 4 & . ) c ) . ) @ )   ( ( ( ' & & ; & , 7 i H v 7 > | b | 6 '.C -.-.2.-.[ b l ; , , & &   % . % 2 & 7 W 7 d ; 7 4 a 7 a a a+a+;+{.)+U i * & ' & . @ c ] ] ] _ ^ ] n ",
"7 ; . & & 2 @ ) ! m ] _ _ ] _ n ) ) d ; 7 =.N | d '   . ) o ) ! )     ( ' p , 8 < J 4 z z G < <   ( p d 8 8 < 4 < ; ' 7 4 7 7 4 ' . . . &   &   & & 9 ; , = W b 7 a 7 | j H C u -.C C C C u j j k 7 = d * ; d 0 . . % 2 . % ( ' 7 l ; ; & d 7 l & * 7 b k k a+= 7 ; . & & 2 @ ) ! m ] _ _ ] _ n ) ) d ; 7 =.N | d '   . ) o ) ! )     ( ' p , 8 < J 4 z z G < <   ( p d 8 8 < 4 < ; ' 7 4 7 7 4 ' . . . &   &   & & 9 ; , = W b 7 a 7 | j H C u -.C C C C u j j k 7 = d * ; d 0 . . % 2 . % ( ' 7 l ; ; & d 7 l & * 7 b k k a+= 7 ; . & & 2 @ ) ! m ] _ _ ] _ n ) ) d ; 7 =.N | d '   . ) o ) ! )     ( ' p , 8 < J 4 z z G < <   ( p d 8 8 < 4 < ; ' 7 4 7 7 4 ' . . . &   &   & & 9 ; , = W b 7 a 7 | j H C u -.C C C C u j j k 7 = d * ; d 0 . . % 2 . % ( ' 7 l ; ; & d 7 l & * 7 b k k a+= 7 ; . & & 2 @ ) ! m ] _ _ ] _ n ",
"$ 9 ( ( . @ c ~ ] ] ] ! c ! n .   9 ' ; 6 !.,.b = ' 9 . @ . ! . .   9 ' ' , 8 7 8 J z 1 F < L E ' d p < < ` 4 < 6 4 7 6 B.7 | '.7 d & . ; ' d ; , , ; ; l ; - k 7 7 b D '.D.N ;.u u j T j | 7 d l d d 7 , ' . / . ) . ) %   ( ' 7 ' ; l d 7 , % ; ; 0 = , * - M $ 9 ( ( . @ c ~ ] ] ] ! c ! n .   9 ' ; 6 !.,.b = ' 9 . @ . ! . .   9 ' ' , 8 7 8 J z 1 F < L E ' d p < < ` 4 < 6 4 7 6 B.7 | '.7 d & . ; ' d ; , , ; ; l ; - k 7 7 b D '.D.N ;.u u j T j | 7 d l d d 7 , ' . / . ) . ) %   ( ' 7 ' ; l d 7 , % ; ; 0 = , * - M $ 9 ( ( . @ c ~ ] ] ] ! c ! n .   9 ' ; 6 !.,.b = ' 9 . @ . ! . .   9 ' ' , 8 7 8 J z 1 F < L E ' d p < < ` 4 < 6 4 7 6 B.7 | '.7 d & . ; ' d ; , , ; ; l ; - k 7 7 b D '.D.N ;.u u j T j | 7 d l d d 7 , ' . / . ) . ) %   ( ' 7 ' ; l d 7 , % ; ; 0 = , * - M $ 9 ( ( . @ c ~ ] ] ] ! c ! n . ",
". ( 9 . c ) @ ^ @ _ ] ] ! ] ! ) c d 9 6 }.n+*.; d ; . @ ! @ @ . ) 9 . |.' , < 7 8 < J h J F 8 8 p 8 < < < 4 4 6 X 6 | | u '.| | [ 1 k ; ; l = * | 7 k k b 2+| j j.j $.H $.+.C [ b 7 7 1 1 b 7 7 1 , '   ( ( ) @ @ % ) & ) 2 ( ' d ; ; 7 < < , . ' ; ' * , ; ; & . ( 9 . c ) @ ^ @ _ ] ] ! ] ! ) c d 9 6 }.n+*.; d ; . @ ! @ @ . ) 9 . |.' , < 7 8 < J h J F 8 8 p 8 < < < 4 4 6 X 6 | | u '.| | [ 1 k ; ; l = * | 7 k k b 2+| j j.j $.H $.+.C [ b 7 7 1 1 b 7 7 1 , '   ( ( ) @ @ % ) & ) 2 ( ' d ; ; 7 < < , . ' ; ' * , ; ; & . ( 9 . c ) @ ^ @ _ ] ] ! ] ! ) c d 9 6 }.n+*.; d ; . @ ! @ @ . ) 9 . |.' , < 7 8 < J h J F 8 8 p 8 < < < 4 4 6 X 6 | | u '.| | [ 1 k ; ; l = * | 7 k k b 2+| j j.j $.H $.+.C [ b 7 7 1 1 b 7 7 1 , '   ( ( ) @ @ % ) & ) 2 ( ' d ; ; 7 < < , . ' ; ' * , ; ; & . ( 9 . c ) @ ^ @ _ ] ] ! ] ! ) ",
"c ) c ~ n ! ! _ _ ] ] _ ~ c @ ! . W ; u -.(+;+; ; & . c @ ! o . ( 9   ' ' , , , J J 1 J J z < 8 , < 4 < | 6 } $.u C $.'.$.$.'.$.'.C u b k 7 b 6 D b 6 '.-.H _.,.;.$.j 6 = , 7 , 1 7 < 6 1 8 ' , ' ( ( ' ( (   ) @ ! ) . . . ) & ' ; , < a 7 ' . & ' , 7 d ; . $ c ) c ~ n ! ! _ _ ] ] _ ~ c @ ! . W ; u -.(+;+; ; & . c @ ! o . ( 9   ' ' , , , J J 1 J J z < 8 , < 4 < | 6 } $.u C $.'.$.$.'.$.'.C u b k 7 b 6 D b 6 '.-.H _.,.;.$.j 6 = , 7 , 1 7 < 6 1 8 ' , ' ( ( ' ( (   ) @ ! ) . . . ) & ' ; , < a 7 ' . & ' , 7 d ; . $ c ) c ~ n ! ! _ _ ] ] _ ~ c @ ! . W ; u -.(+;+; ; & . c @ ! o . ( 9   ' ' , , , J J 1 J J z < 8 , < 4 < | 6 } $.u C $.'.$.$.'.$.'.C u b k 7 b 6 D b 6 '.-.H _.,.;.$.j 6 = , 7 , 1 7 < 6 1 8 ' , ' ( ( ' ( (   ) @ ! ) . . . ) & ' ; , < a 7 ' . & ' , 7 d ; . $ c ) c ~ n ! ! _ _ ] ] _ ~ c @ ! ",
"c c ) n ] 0.^ @ _ ^ ] ~ c ] n . ' d 7 } =.:+M a & 9 @ @ @ @ ) 2     ( ' ' 8 d 0 , J 1 < J J < 7 , 7 7 7 6 } H U #.,.C }.3.L.3._.H *.;.H j j C Q N U =.*.U -.u -.u 7 l , ; l , ; ' & & 8 8 , 0 E ' ( : ( ) ! ! ! @ ! @ ! @ . @ . ( & , 7 , ' ; % . & ' ' & % . . c c ) n ] 0.^ @ _ ^ ] ~ c ] n . ' d 7 } =.:+M a & 9 @ @ @ @ ) 2     ( ' ' 8 d 0 , J 1 < J J < 7 , 7 7 7 6 } H U #.,.C }.3.L.3._.H *.;.H j j C Q N U =.*.U -.u -.u 7 l , ; l , ; ' & & 8 8 , 0 E ' ( : ( ) ! ! ! @ ! @ ! @ . @ . ( & , 7 , ' ; % . & ' ' & % . . c c ) n ] 0.^ @ _ ^ ] ~ c ] n . ' d 7 } =.:+M a & 9 @ @ @ @ ) 2     ( ' ' 8 d 0 , J 1 < J J < 7 , 7 7 7 6 } H U #.,.C }.3.L.3._.H *.;.H j j C Q N U =.*.U -.u -.u 7 l , ; l , ; ' & & 8 8 , 0 E ' ( : ( ) ! ! ! @ ! @ ! @ . @ . ( & , 7 , ' ; % . & ' ' & % . . c c ) n ] 0.^ @ _ ^ ] ~ c ] n . ",
"c ] c _ c _ ] _ { ] ^ ^ ~ { . ( d . 4 D o+i } * , . ) ) @ ! 2 f ) ( ( : , E , , 6 1 b b 1 6 a 7 7 a a 6 C #.'+'+8.o.8.].<.<.5.t.].U =.,.#.U -.u b 6 i 6 b b b 1 , , 0 ' ' & ( ( ( 0 E ' E E E : : x   y g.2 ) c ! n @ ! . ) ) ( & ' , ' 0 d 0 & 9 & ' ' ( . . . c ] c _ c _ ] _ { ] ^ ^ ~ { . ( d . 4 D o+i } * , . ) ) @ ! 2 f ) ( ( : , E , , 6 1 b b 1 6 a 7 7 a a 6 C #.'+'+8.o.8.].<.<.5.t.].U =.,.#.U -.u b 6 i 6 b b b 1 , , 0 ' ' & ( ( ( 0 E ' E E E : : x   y g.2 ) c ! n @ ! . ) ) ( & ' , ' 0 d 0 & 9 & ' ' ( . . . c ] c _ c _ ] _ { ] ^ ^ ~ { . ( d . 4 D o+i } * , . ) ) @ ! 2 f ) ( ( : , E , , 6 1 b b 1 6 a 7 7 a a 6 C #.'+'+8.o.8.].<.<.5.t.].U =.,.#.U -.u b 6 i 6 b b b 1 , , 0 ' ' & ( ( ( 0 E ' E E E : : x   y g.2 ) c ! n @ ! . ) ) ( & ' , ' 0 d 0 & 9 & ' ' ( . . . c ] c _ c _ ] _ { ] ^ ^ ~ { . ( ",
"c n ] ] ^ ^ ^ ] _ ^ ^ _ @ c @ )   ; < u :+:+* , % . @ ) @ 2 ( 2 ( x ( : ' , , , a b 1 i b D D i b 1 j '.]+,.,.<._.{.{.{.{.{.}.8+'.i 6 } C i b , 7 a 7 a 7 , 7 , , ' 0 ' 0 ( ( ( ( ( x 2 x : P x : : x : x x K ! ) ! c ) ) .   ' ' , 0 ' & ; ( 9 & ( ' &   . . . c n ] ] ^ ^ ^ ] _ ^ ^ _ @ c @ )   ; < u :+:+* , % . @ ) @ 2 ( 2 ( x ( : ' , , , a b 1 i b D D i b 1 j '.]+,.,.<._.{.{.{.{.{.}.8+'.i 6 } C i b , 7 a 7 a 7 , 7 , , ' 0 ' 0 ( ( ( ( ( x 2 x : P x : : x : x x K ! ) ! c ) ) .   ' ' , 0 ' & ; ( 9 & ( ' &   . . . c n ] ] ^ ^ ^ ] _ ^ ^ _ @ c @ )   ; < u :+:+* , % . @ ) @ 2 ( 2 ( x ( : ' , , , a b 1 i b D D i b 1 j '.]+,.,.<._.{.{.{.{.{.}.8+'.i 6 } C i b , 7 a 7 a 7 , 7 , , ' 0 ' 0 ( ( ( ( ( x 2 x : P x : : x : x x K ! ) ! c ) ) .   ' ' , 0 ' & ; ( 9 & ( ' &   . . . c n ] ] ^ ^ ^ ] _ ^ ^ _ @ c @ ) ",
"! @ ] ^ ] ^ ] ^ ~ ^ ] ~ { c @ . ' ' ; } p+o+w * & . & ( ( ( 0 ( ( ( ( ' 7 1 i i j i [ '.-.Q $.j '.C C p+-.p+v ;+j b 2+;+[.8+[.2+a a b 1 6 1 7 = * , l 0 ' 0 ' 0 ' : ' ' ( ( ( ( ) ( ( y 2 x x Y.: x x x x K 2 ) ) ! ! ! ) ) . ( 0 0 ' ( & ( & & ( & . ( . 2 . @ ! @ ] ^ ] ^ ] ^ ~ ^ ] ~ { c @ . ' ' ; } p+o+w * & . & ( ( ( 0 ( ( ( ( ' 7 1 i i j i [ '.-.Q $.j '.C C p+-.p+v ;+j b 2+;+[.8+[.2+a a b 1 6 1 7 = * , l 0 ' 0 ' 0 ' : ' ' ( ( ( ( ) ( ( y 2 x x Y.: x x x x K 2 ) ) ! ! ! ) ) . ( 0 0 ' ( & ( & & ( & . ( . 2 . @ ! @ ] ^ ] ^ ] ^ ~ ^ ] ~ { c @ . ' ' ; } p+o+w * & . & ( ( ( 0 ( ( ( ( ' 7 1 i i j i [ '.-.Q $.j '.C C p+-.p+v ;+j b 2+;+[.8+[.2+a a b 1 6 1 7 = * , l 0 ' 0 ' 0 ' : ' ' ( ( ( ( ) ( ( y 2 x x Y.: x x x x K 2 ) ) ! ! ! ) ) . ( 0 0 ' ( & ( & & ( & . ( . 2 . @ ! @ ] ^ ] ^ ] ^ ~ ^ ] ~ { c @ . ",
". ! _ ] ] ^ _ ] { ] ^ ~ c @ @ ) d ' * } >.q+= * * & ' : ' , , }+J , * 0 , a 1 6 6 ;+j H ,.,.*.2.v C C } i D b k 2+a 2+a a+a+b b , , 7 I , J a , ; ; ; ( ' ( ' 0 p , 8 0 ' ' ' ( 2 ( x ( ) 2 x x x x x x ( y ) ++2 ! ) @ ) . ) ( ' ' e 2 & ; 0 ' ' & & % ( & ) @ . ! _ ] ] ^ _ ] { ] ^ ~ c @ @ ) d ' * } >.q+= * * & ' : ' , , }+J , * 0 , a 1 6 6 ;+j H ,.,.*.2.v C C } i D b k 2+a 2+a a+a+b b , , 7 I , J a , ; ; ; ( ' ( ' 0 p , 8 0 ' ' ' ( 2 ( x ( ) 2 x x x x x x ( y ) ++2 ! ) @ ) . ) ( ' ' e 2 & ; 0 ' ' & & % ( & ) @ . ! _ ] ] ^ _ ] { ] ^ ~ c @ @ ) d ' * } >.q+= * * & ' : ' , , }+J , * 0 , a 1 6 6 ;+j H ,.,.*.2.v C C } i D b k 2+a 2+a a+a+b b , , 7 I , J a , ; ; ; ( ' ( ' 0 p , 8 0 ' ' ' ( 2 ( x ( ) 2 x x x x x x ( y ) ++2 ! ) @ ) . ) ( ' ' e 2 & ; 0 ' ' & & % ( & ) @ . ! _ ] ] ^ _ ] { ] ^ ~ c @ @ ) ",
"! @ @ @ ] ~ ^ ] { ~ ] ] ~ c ! ( ( 7 6 =.4+]+a b 0 & ; ' * < b , = * , a D f+C ]+N ,.,.=.'.| , W 1 6 1 a 7 7 7 a , 7 I = * * 7 0+, a , * = | 1 7 * ; ( & ' ' 0 : 0 d ' 8 ' E : E ' x : ( ( 2 ( x : : : x x x y 2 x ) ) 2 ) . 2 ( ( ( e ; 0 ( * 0 ; ( ; e ' ( % f ! @ @ @ ] ~ ^ ] { ~ ] ] ~ c ! ( ( 7 6 =.4+]+a b 0 & ; ' * < b , = * , a D f+C ]+N ,.,.=.'.| , W 1 6 1 a 7 7 7 a , 7 I = * * 7 0+, a , * = | 1 7 * ; ( & ' ' 0 : 0 d ' 8 ' E : E ' x : ( ( 2 ( x : : : x x x y 2 x ) ) 2 ) . 2 ( ( ( e ; 0 ( * 0 ; ( ; e ' ( % f ! @ @ @ ] ~ ^ ] { ~ ] ] ~ c ! ( ( 7 6 =.4+]+a b 0 & ; ' * < b , = * , a D f+C ]+N ,.,.=.'.| , W 1 6 1 a 7 7 7 a , 7 I = * * 7 0+, a , * = | 1 7 * ; ( & ' ' 0 : 0 d ' 8 ' E : E ' x : ( ( 2 ( x : : : x x x y 2 x ) ) 2 ) . 2 ( ( ( e ; 0 ( * 0 ; ( ; e ' ( % f ! @ @ @ ] ~ ^ ] { ~ ] ] ~ c ! ( ",
"@ @ @ ! ~ ] ~ ^ ! { ] ~ @ ! ) ' d } [ r+=.C a+a+= = = , | j C [.D [.{.-._.)+,.4+=.]+u 6 7 d , | d , d , d , , d , , , d , , 7 < 7 J 7 , , 6 6 6 d ; ; & ( ( ' ' ' ' , ' d 8 , 8 p 0 ' 0 : x ( ' ( ' E x ' y ( g.x y 2 ) % ) 9 ( ( 2 ( 0 0 * ( ; 0 * 0 , 0 e & f @ @ @ ! ~ ] ~ ^ ! { ] ~ @ ! ) ' d } [ r+=.C a+a+= = = , | j C [.D [.{.-._.)+,.4+=.]+u 6 7 d , | d , d , d , , d , , , d , , 7 < 7 J 7 , , 6 6 6 d ; ; & ( ( ' ' ' ' , ' d 8 , 8 p 0 ' 0 : x ( ' ( ' E x ' y ( g.x y 2 ) % ) 9 ( ( 2 ( 0 0 * ( ; 0 * 0 , 0 e & f @ @ @ ! ~ ] ~ ^ ! { ] ~ @ ! ) ' d } [ r+=.C a+a+= = = , | j C [.D [.{.-._.)+,.4+=.]+u 6 7 d , | d , d , d , , d , , , d , , 7 < 7 J 7 , , 6 6 6 d ; ; & ( ( ' ' ' ' , ' d 8 , 8 p 0 ' 0 : x ( ' ( ' E x ' y ( g.x y 2 ) % ) 9 ( ( 2 ( 0 0 * ( ; 0 * 0 , 0 e & f @ @ @ ! ~ ] ~ ^ ! { ] ~ @ ! ) ' ",
". @ @ ~ ~ ~ ~ c ! @ @ ! ) ) ( ' < [ '.N ^+)+1+= k k | D j 2.K.]+d.<.R.<.d.6.]+_.-.j b = d , d ' d d , 7 d d ( ( '   ( ' ' : 0 ' 7 a 7 7 7 7 6 j 7 , ' 9 ( ( ( ( & ( ; ' ' d , p , ' : , < d ' ' ( x ' x ( ( x 2 ( ( ) 2 . . % ) & 2 % e ' ' * 0 * , , 0 0 & % % . @ @ ~ ~ ~ ~ c ! @ @ ! ) ) ( ' < [ '.N ^+)+1+= k k | D j 2.K.]+d.<.R.<.d.6.]+_.-.j b = d , d ' d d , 7 d d ( ( '   ( ' ' : 0 ' 7 a 7 7 7 7 6 j 7 , ' 9 ( ( ( ( & ( ; ' ' d , p , ' : , < d ' ' ( x ' x ( ( x 2 ( ( ) 2 . . % ) & 2 % e ' ' * 0 * , , 0 0 & % % . @ @ ~ ~ ~ ~ c ! @ @ ! ) ) ( ' < [ '.N ^+)+1+= k k | D j 2.K.]+d.<.R.<.d.6.]+_.-.j b = d , d ' d d , 7 d d ( ( '   ( ' ' : 0 ' 7 a 7 7 7 7 6 j 7 , ' 9 ( ( ( ( & ( ; ' ' d , p , ' : , < d ' ' ( x ' x ( ( x 2 ( ( ) 2 . . % ) & 2 % e ' ' * 0 * , , 0 0 & % % . @ @ ~ ~ ~ ~ c ! @ @ ! ) ) ( ' ",
"2 . @ @ @ ! @ ! @ ] @ ) 9 ( ' ' ; k N _.1+d.{.[.2+!+D j }.)+R.d.f.m+d.s+{.[.D ;+| b | < 8 d p d 0 ' d p < , d ' ' , 8 ' ( ( : < J 6 j j i D u H 1 7 d ' 9 ( 9   . . 9 ( ( ' ' d , ' ' , < , d 0 ' : E E : x ' x ( ) ) . ) @ c % ) f % ( 0 ' 0 , , , , 0 & t+2 % 2 . @ @ @ ! @ ! @ ] @ ) 9 ( ' ' ; k N _.1+d.{.[.2+!+D j }.)+R.d.f.m+d.s+{.[.D ;+| b | < 8 d p d 0 ' d p < , d ' ' , 8 ' ( ( : < J 6 j j i D u H 1 7 d ' 9 ( 9   . . 9 ( ( ' ' d , ' ' , < , d 0 ' : E E : x ' x ( ) ) . ) @ c % ) f % ( 0 ' 0 , , , , 0 & t+2 % 2 . @ @ @ ! @ ! @ ] @ ) 9 ( ' ' ; k N _.1+d.{.[.2+!+D j }.)+R.d.f.m+d.s+{.[.D ;+| b | < 8 d p d 0 ' d p < , d ' ' , 8 ' ( ( : < J 6 j j i D u H 1 7 d ' 9 ( 9   . . 9 ( ( ' ' d , ' ' , < , d 0 ' : E E : x ' x ( ) ) . ) @ c % ) f % ( 0 ' 0 , , , , 0 & t+2 % 2 . @ @ @ ! @ ! @ ] @ ) 9 ( ' ' ",
"9 ) . . ) 9 ) . . ( ( ) ( ( ( ; l a+2.s+'.u+{.u+[.7.1+~+m.o.]+~+C _.-.{.i D 1 6 J < 4 < , p ' p < 1 4 1 < < 7 < 4 1 4 J 7 , 4 1 D i j 1 a b 1 b u 1 ; , @ ' ( @ ' x e ( ( ( 0 0 ' , , < 1 7 0 7 8 ( 8 < : ' 8 : 8 ( ) ! ) ) ) ( . % 2 }+0 * * ; 0 = 0 , 0 0 & 2 9 ) . . ) 9 ) . . ( ( ) ( ( ( ; l a+2.s+'.u+{.u+[.7.1+~+m.o.]+~+C _.-.{.i D 1 6 J < 4 < , p ' p < 1 4 1 < < 7 < 4 1 4 J 7 , 4 1 D i j 1 a b 1 b u 1 ; , @ ' ( @ ' x e ( ( ( 0 0 ' , , < 1 7 0 7 8 ( 8 < : ' 8 : 8 ( ) ! ) ) ) ( . % 2 }+0 * * ; 0 = 0 , 0 0 & 2 9 ) . . ) 9 ) . . ( ( ) ( ( ( ; l a+2.s+'.u+{.u+[.7.1+~+m.o.]+~+C _.-.{.i D 1 6 J < 4 < , p ' p < 1 4 1 < < 7 < 4 1 4 J 7 , 4 1 D i j 1 a b 1 b u 1 ; , @ ' ( @ ' x e ( ( ( 0 0 ' , , < 1 7 0 7 8 ( 8 < : ' 8 : 8 ( ) ! ) ) ) ( . % 2 }+0 * * ; 0 = 0 , 0 0 & 2 9 ) . . ) 9 ) . . ( ( ) ( ( ( ; ",
". . @ . . @ @ $ ( ' ' 9 & & & * D ;+{.~+[.~+d.}.v+_.d.R.L.,.[.8+j 8+'.[ 1 b 1 J < < < 8 p d : d 7 = , , 7 , = ' = , , l , ' = , 7 b D b 7 a a a b +., & d ' ' 8 ( ( ( ( 0 8 8 8 < 8 < 7 1 | 7 J 1 < 8 J 1 z 1 p ' ( .   . ) . ) o % % & 0 0 0 * * , , 0 & @ @ f . . @ . . @ @ $ ( ' ' 9 & & & * D ;+{.~+[.~+d.}.v+_.d.R.L.,.[.8+j 8+'.[ 1 b 1 J < < < 8 p d : d 7 = , , 7 , = ' = , , l , ' = , 7 b D b 7 a a a b +., & d ' ' 8 ( ( ( ( 0 8 8 8 < 8 < 7 1 | 7 J 1 < 8 J 1 z 1 p ' ( .   . ) . ) o % % & 0 0 0 * * , , 0 & @ @ f . . @ . . @ @ $ ( ' ' 9 & & & * D ;+{.~+[.~+d.}.v+_.d.R.L.,.[.8+j 8+'.[ 1 b 1 J < < < 8 p d : d 7 = , , 7 , = ' = , , l , ' = , 7 b D b 7 a a a b +., & d ' ' 8 ( ( ( ( 0 8 8 8 < 8 < 7 1 | 7 J 1 < 8 J 1 z 1 p ' ( .   . ) . ) o % % & 0 0 0 * * , , 0 & @ @ f . . @ . . @ @ $ ( ' ' 9 & & & * ",
"c @ c @ @ . @ c $ ( 0 ' 0 9 & , = [.*._.]+n.t.s+6.{.[.0+2+a+2+j i D 6 b b 1 1 < < 8 8 d ' ' ' ' ( ; d ; 0 ; ' ; ' 0 d , ' ; ' ; = , 7 b 7 = 7 7 < +.6 , , 9 ( ' , 0 0 , , , , * 7 b 1 i u 6 b 6 6 j 6 1 6 6 < 0 ' &   ( 2 . ) . o 2 f 2 & ' 0 0 ' , , ' f / ~ @ c @ c @ @ . @ c $ ( 0 ' 0 9 & , = [.*._.]+n.t.s+6.{.[.0+2+a+2+j i D 6 b b 1 1 < < 8 8 d ' ' ' ' ( ; d ; 0 ; ' ; ' 0 d , ' ; ' ; = , 7 b 7 = 7 7 < +.6 , , 9 ( ' , 0 0 , , , , * 7 b 1 i u 6 b 6 6 j 6 1 6 6 < 0 ' &   ( 2 . ) . o 2 f 2 & ' 0 0 ' , , ' f / ~ @ c @ c @ @ . @ c $ ( 0 ' 0 9 & , = [.*._.]+n.t.s+6.{.[.0+2+a+2+j i D 6 b b 1 1 < < 8 8 d ' ' ' ' ( ; d ; 0 ; ' ; ' 0 d , ' ; ' ; = , 7 b 7 = 7 7 < +.6 , , 9 ( ' , 0 0 , , , , * 7 b 1 i u 6 b 6 6 j 6 1 6 6 < 0 ' &   ( 2 . ) . o 2 f 2 & ' 0 0 ' , , ' f / ~ @ c @ c @ @ . @ c $ ( 0 ' 0 9 & , ",
"c @ @ @ . ) . % . & ( ' , 0 ' b a j !.w+o._.7.8+j 2+a+k a+= a k D [ ;+6 6 6 1 1 p , ' (       . & & ; ( ; ; ' & ; ; ' ; 0 ; ' ; ; & = , 7 ; = , * & u 5 , , 6 ; J 7 7 b < a 7 b , 6 j '.C '.i j.2+C {.j [.i b 6 7 0 0 e ( 2 @ 2 ! f ! % 2 }+' , , , 8 e . f @ o c @ @ @ . ) . % . & ( ' , 0 ' b a j !.w+o._.7.8+j 2+a+k a+= a k D [ ;+6 6 6 1 1 p , ' (       . & & ; ( ; ; ' & ; ; ' ; 0 ; ' ; ; & = , 7 ; = , * & u 5 , , 6 ; J 7 7 b < a 7 b , 6 j '.C '.i j.2+C {.j [.i b 6 7 0 0 e ( 2 @ 2 ! f ! % 2 }+' , , , 8 e . f @ o c @ @ @ . ) . % . & ( ' , 0 ' b a j !.w+o._.7.8+j 2+a+k a+= a k D [ ;+6 6 6 1 1 p , ' (       . & & ; ( ; ; ' & ; ; ' ; 0 ; ' ; ; & = , 7 ; = , * & u 5 , , 6 ; J 7 7 b < a 7 b , 6 j '.C '.i j.2+C {.j [.i b 6 7 0 0 e ( 2 @ 2 ! f ! % 2 }+' , , , 8 e . f @ o c @ @ @ . ) . % . & ( ' , 0 ' b ",
"@ @ . . 2 % ( & 8 0 & & , J 1 } -.o+].j M j C a+1+k b [.D b b = D j '.u 6 6 1 < , : ' ( ( . 2 .   % & ( & ( & ( & 2 & . % % & & ; & ; = , ; & d 7 3 Y } 7 1 a , ; = k b | b j '.-.=.*.*.N *.Q d._.n.n._.~+'.0+;+1 a , 0 e % % 2 @ ! f ) % ( ' 0 7 J , ( ( 2 ) f @ @ . . 2 % ( & 8 0 & & , J 1 } -.o+].j M j C a+1+k b [.D b b = D j '.u 6 6 1 < , : ' ( ( . 2 .   % & ( & ( & ( & 2 & . % % & & ; & ; = , ; & d 7 3 Y } 7 1 a , ; = k b | b j '.-.=.*.*.N *.Q d._.n.n._.~+'.0+;+1 a , 0 e % % 2 @ ! f ) % ( ' 0 7 J , ( ( 2 ) f @ @ . . 2 % ( & 8 0 & & , J 1 } -.o+].j M j C a+1+k b [.D b b = D j '.u 6 6 1 < , : ' ( ( . 2 .   % & ( & ( & ( & 2 & . % % & & ; & ; = , ; & d 7 3 Y } 7 1 a , ; = k b | b j '.-.=.*.*.N *.Q d._.n.n._.~+'.0+;+1 a , 0 e % % 2 @ ! f ) % ( ' 0 7 J , ( ( 2 ) f @ @ . . 2 % ( & 8 0 & & , J 1 } ",
"% . % . % . & ( & , 7 a } u u u j i b i D 2+k b b b D b = a j 8+6 '.v u 6 1 < , 8 8 ' (   ( 9 ) % ) % . % 2 & 2 & % @ @ . ) % ( & & & ; ' ; ; ; 1 J =.j } j 7 j [.j.'.}.-.{.2.*.<.,.<.*.*.*.*.<.x+n.x+<.)+_.}.;+j i J I 0 }+2 e ! 2 2 ) & ( ; d 1 1 < ' & ( % @ % . % . % . & ( & , 7 a } u u u j i b i D 2+k b b b D b = a j 8+6 '.v u 6 1 < , 8 8 ' (   ( 9 ) % ) % . % 2 & 2 & % @ @ . ) % ( & & & ; ' ; ; ; 1 J =.j } j 7 j [.j.'.}.-.{.2.*.<.,.<.*.*.*.*.<.x+n.x+<.)+_.}.;+j i J I 0 }+2 e ! 2 2 ) & ( ; d 1 1 < ' & ( % @ % . % . % . & ( & , 7 a } u u u j i b i D 2+k b b b D b = a j 8+6 '.v u 6 1 < , 8 8 ' (   ( 9 ) % ) % . % 2 & 2 & % @ @ . ) % ( & & & ; ' ; ; ; 1 J =.j } j 7 j [.j.'.}.-.{.2.*.<.,.<.*.*.*.*.<.x+n.x+<.)+_.}.;+j i J I 0 }+2 e ! 2 2 ) & ( ; d 1 1 < ' & ( % @ % . % . % . & ( & , 7 a } u u u ",
"& ( & ( * ' , b , i } j C :+8+i 6 7 = k 7 a k 7 b [.u {.u '.v -.[ j [ 6 6 1 , p 8 ' ( ) . ) ) . @ . . ! . . . ) . @ . . % (   % 9   & 9 ( ; ' & & l 1 C u j C *.N <.<.,.R.*.=.*.j {.j D b D ;+j ^+7.{.6._.s+=.C j i b 1 , e & 0 2 ) ( & ( & ' , a 6 1 , ' ' ( ( & ( & ( * ' , b , i } j C :+8+i 6 7 = k 7 a k 7 b [.u {.u '.v -.[ j [ 6 6 1 , p 8 ' ( ) . ) ) . @ . . ! . . . ) . @ . . % (   % 9   & 9 ( ; ' & & l 1 C u j C *.N <.<.,.R.*.=.*.j {.j D b D ;+j ^+7.{.6._.s+=.C j i b 1 , e & 0 2 ) ( & ( & ' , a 6 1 , ' ' ( ( & ( & ( * ' , b , i } j C :+8+i 6 7 = k 7 a k 7 b [.u {.u '.v -.[ j [ 6 6 1 , p 8 ' ( ) . ) ) . @ . . ! . . . ) . @ . . % (   % 9   & 9 ( ; ' & & l 1 C u j C *.N <.<.,.R.*.=.*.j {.j D b D ;+j ^+7.{.6._.s+=.C j i b 1 , e & 0 2 ) ( & ( & ' , a 6 1 , ' ' ( ( & ( & ( * ' , b , i } j C :+8+i ",
"; 0 = , , b i '.:+N *.j j j D | - 7 7 7 b k 7 D j '.$.C -.-.'.u [ 6 6 b 1 1 < ' ' ( . . ! @ @ ~ . o . @ . @ ) @ @ @ ~ . ) . 2 ) . 9 ( . 9 ' ' ; 9 ; , N b * ]+8+2.{.}.{.-.'.1+a+k D D 7 a+a 7 b ;+D {.]+i 2+D a D i 1  .7 , * ' & ( ' ' ' ; l , 7 6 [ 7 , , , 0 ; 0 = , , b i '.:+N *.j j j D | - 7 7 7 b k 7 D j '.$.C -.-.'.u [ 6 6 b 1 1 < ' ' ( . . ! @ @ ~ . o . @ . @ ) @ @ @ ~ . ) . 2 ) . 9 ( . 9 ' ' ; 9 ; , N b * ]+8+2.{.}.{.-.'.1+a+k D D 7 a+a 7 b ;+D {.]+i 2+D a D i 1  .7 , * ' & ( ' ' ' ; l , 7 6 [ 7 , , , 0 ; 0 = , , b i '.:+N *.j j j D | - 7 7 7 b k 7 D j '.$.C -.-.'.u [ 6 6 b 1 1 < ' ' ( . . ! @ @ ~ . o . @ . @ ) @ @ @ ~ . ) . 2 ) . 9 ( . 9 ' ' ; 9 ; , N b * ]+8+2.{.}.{.-.'.1+a+k D D 7 a+a 7 b ;+D {.]+i 2+D a D i 1  .7 , * ' & ( ' ' ' ; l , 7 6 [ 7 , , , 0 ; 0 = , , b i '.:+N *.j j j D | ",
"a+a b b j =.'+,+].)+{.'.j [.'.8+[ i [.6 j j j '.-.*.N *.=.=.}.i D 6 | , , 7 , ' ' 2 . ! @ ) ! @ ) @ @ { @ ! @ ~ ! @ ~ @ ) 2 ( . ( ) . . . . . $ ' * ; '.u a+D ;+j.[.'.j.b b b | , = * = , , 7 , | 7 7 7 7 7 , k a 7 7 b 1 1 7 ; ' ' ' , 7 7 k !+| D j D a 7 b | a+a b b j =.'+,+].)+{.'.j [.'.8+[ i [.6 j j j '.-.*.N *.=.=.}.i D 6 | , , 7 , ' ' 2 . ! @ ) ! @ ) @ @ { @ ! @ ~ ! @ ~ @ ) 2 ( . ( ) . . . . . $ ' * ; '.u a+D ;+j.[.'.j.b b b | , = * = , , 7 , | 7 7 7 7 7 , k a 7 7 b 1 1 7 ; ' ' ' , 7 7 k !+| D j D a 7 b | a+a b b j =.'+,+].)+{.'.j [.'.8+[ i [.6 j j j '.-.*.N *.=.=.}.i D 6 | , , 7 , ' ' 2 . ! @ ) ! @ ) @ @ { @ ! @ ~ ! @ ~ @ ) 2 ( . ( ) . . . . . $ ' * ; '.u a+D ;+j.[.'.j.b b b | , = * = , , 7 , | 7 7 7 7 7 , k a 7 7 b 1 1 7 ; ' ' ' , 7 7 k !+| D j D a 7 b | a+a b b j =.'+,+].)+{.'.j [.'.8+",
"}.C C -.=.d+5.].]+'.D D ;+D D [.b D b b D 6 i 6 j $.C =.2.=.2.-.u '.1 7 , < 8 ' ( 2 ! @ ! @ @ ] ! ~ ] ~ ] ~ ~ ] ~ ] @ @ 2 ) ! ] @ @ @ c @ c @ g 9 ' ; 6 C j ;+2+b D D b b k 7 = = 0 ; & & ' 0 0 ' ' ' ( ; & ; ( ; ; , 7 | | 7 , 7 7 , l l = y+e+| [.'.'.j.j j v }.C C -.=.d+5.].]+'.D D ;+D D [.b D b b D 6 i 6 j $.C =.2.=.2.-.u '.1 7 , < 8 ' ( 2 ! @ ! @ @ ] ! ~ ] ~ ] ~ ~ ] ~ ] @ @ 2 ) ! ] @ @ @ c @ c @ g 9 ' ; 6 C j ;+2+b D D b b k 7 = = 0 ; & & ' 0 0 ' ' ' ( ; & ; ( ; ; , 7 | | 7 , 7 7 , l l = y+e+| [.'.'.j.j j v }.C C -.=.d+5.].]+'.D D ;+D D [.b D b b D 6 i 6 j $.C =.2.=.2.-.u '.1 7 , < 8 ' ( 2 ! @ ! @ @ ] ! ~ ] ~ ] ~ ~ ] ~ ] @ @ 2 ) ! ] @ @ @ c @ c @ g 9 ' ; 6 C j ;+2+b D D b b k 7 = = 0 ; & & ' 0 0 ' ' ' ( ; & ; ( ; ; , 7 | | 7 , 7 7 , l l = y+e+| [.'.'.j.j j v }.C C -.=.d+5.].]+'.D D ;+D D [.",
"=._.{.j [.2+k k b k k k !+k k 7 k 7 7 , 7 7 7 | b b [ '.$.-.2.=.D.H u 6 < 7 d ' ( ) @ ! @ ! ~ ^ ~ ] ^ + ~ ] ~ ] ] ~ ~ ! @ @ ~ ] ~ ] ~ ] ] ] + @ @ . ; a C ]+2+= k 7 | 7 = , , ; ' & & 2 & & ( ( ) 2 . ) . ) 9   9 & d l ; ; l l , 7 7 7 | j.j.j.D {.*.*._.]+-.-.=._.{.j [.2+k k b k k k !+k k 7 k 7 7 , 7 7 7 | b b [ '.$.-.2.=.D.H u 6 < 7 d ' ( ) @ ! @ ! ~ ^ ~ ] ^ + ~ ] ~ ] ] ~ ~ ! @ @ ~ ] ~ ] ~ ] ] ] + @ @ . ; a C ]+2+= k 7 | 7 = , , ; ' & & 2 & & ( ( ) 2 . ) . ) 9   9 & d l ; ; l l , 7 7 7 | j.j.j.D {.*.*._.]+-.-.=._.{.j [.2+k k b k k k !+k k 7 k 7 7 , 7 7 7 | b b [ '.$.-.2.=.D.H u 6 < 7 d ' ( ) @ ! @ ! ~ ^ ~ ] ^ + ~ ] ~ ] ] ~ ~ ! @ @ ~ ] ~ ] ~ ] ] ] + @ @ . ; a C ]+2+= k 7 | 7 = , , ; ' & & 2 & & ( ( ) 2 . ) . ) 9   9 & d l ; ; l l , 7 7 7 | j.j.j.D {.*.*._.]+-.-.=._.{.j [.2+k k b k k k !+k k 7 ",
"{.6 2+= k !+a k = = = = = ; * ; ; ; ; & ; ; * ; 7 7 7 [ '.[ '.'.H &.u } 5 4 8 ( ( 2 ) ~ @ ~ ] ~ ] + ~ ^ ] ~ ] ~ @ ! @ c { ] @ @ ~ ] @ ] + ^ ] c + . ' ; +.*.a = = , = , d , ; ' ; ( . . % ) % ) @ ) ! c ) ) 9 ( . ' ' ' & A 9 ' ; 7 6 j '.-.-.~+7.6.K.s+-.{.{.{.{.6 2+= k !+a k = = = = = ; * ; ; ; ; & ; ; * ; 7 7 7 [ '.[ '.'.H &.u } 5 4 8 ( ( 2 ) ~ @ ~ ] ~ ] + ~ ^ ] ~ ] ~ @ ! @ c { ] @ @ ~ ] @ ] + ^ ] c + . ' ; +.*.a = = , = , d , ; ' ; ( . . % ) % ) @ ) ! c ) ) 9 ( . ' ' ' & A 9 ' ; 7 6 j '.-.-.~+7.6.K.s+-.{.{.{.{.6 2+= k !+a k = = = = = ; * ; ; ; ; & ; ; * ; 7 7 7 [ '.[ '.'.H &.u } 5 4 8 ( ( 2 ) ~ @ ~ ] ~ ] + ~ ^ ] ~ ] ~ @ ! @ c { ] @ @ ~ ] @ ] + ^ ] c + . ' ; +.*.a = = , = , d , ; ' ; ( . . % ) % ) @ ) ! c ) ) 9 ( . ' ' ' & A 9 ' ; 7 6 j '.-.-.~+7.6.K.s+-.{.{.{.{.6 2+= k !+a k = = = = = ; * ; ",
"*.C D = * l ; > = d 0 ' ; & & & & . & . %   & ( ' ; , 1 6 6 1 6 6 6 1 6 6 z < 8 ( ) ~ ~ ] ~ ~ ~ ] m ] ] ^ ~ c @ ! @ ! ~ c ~ _ @ ] m ] ^ ^ ^ 0.] ] @ ' ; i =.b a+; ; ; d ' ' ; ' ( % . @ . @ @ @ ! c ! c @ ! . ) . ) & 9 . & & ' ; 7 6 6 j }.{.'.<.N s+C 8+8+C ]+*.C D = * l ; > = d 0 ' ; & & & & . & . %   & ( ' ; , 1 6 6 1 6 6 6 1 6 6 z < 8 ( ) ~ ~ ] ~ ~ ~ ] m ] ] ^ ~ c @ ! @ ! ~ c ~ _ @ ] m ] ^ ^ ^ 0.] ] @ ' ; i =.b a+; ; ; d ' ' ; ' ( % . @ . @ @ @ ! c ! c @ ! . ) . ) & 9 . & & ' ; 7 6 6 j }.{.'.<.N s+C 8+8+C ]+*.C D = * l ; > = d 0 ' ; & & & & . & . %   & ( ' ; , 1 6 6 1 6 6 6 1 6 6 z < 8 ( ) ~ ~ ] ~ ~ ~ ] m ] ] ^ ~ c @ ! @ ! ~ c ~ _ @ ] m ] ^ ^ ^ 0.] ] @ ' ; i =.b a+; ; ; d ' ' ; ' ( % . @ . @ @ @ ! c ! c @ ! . ) . ) & 9 . & & ' ; 7 6 6 j }.{.'.<.N s+C 8+8+C ]+*.C D = * l ; > = d 0 ' ; & & & ",
"b , * > ; * * 0 & ; ( & % ( & ( . % @ . @ f @ 2 % 2 0 < 1 1 6 6 [ 6 | < < < 8 8 2 ) @ ~ ^ m ~ ~ ~ ] ] ] ~ ] ~ ! ] @ ! ) ! ! ~ ] ~ ~ ~ ] ^ ^ ] ] ] .+( ( 7 '.i = ; 9 9 ; ; ' & ( 9 . @ @ @ @ @ c @ @ c @ . . . . ( 2 ) % . 2 . ( & ' * , k b [.'.<.)+d.]+]+-.]+8+b , * > ; * * 0 & ; ( & % ( & ( . % @ . @ f @ 2 % 2 0 < 1 1 6 6 [ 6 | < < < 8 8 2 ) @ ~ ^ m ~ ~ ~ ] ] ] ~ ] ~ ! ] @ ! ) ! ! ~ ] ~ ~ ~ ] ^ ^ ] ] ] .+( ( 7 '.i = ; 9 9 ; ; ' & ( 9 . @ @ @ @ @ c @ @ c @ . . . . ( 2 ) % . 2 . ( & ' * , k b [.'.<.)+d.]+]+-.]+8+b , * > ; * * 0 & ; ( & % ( & ( . % @ . @ f @ 2 % 2 0 < 1 1 6 6 [ 6 | < < < 8 8 2 ) @ ~ ^ m ~ ~ ~ ] ] ] ~ ] ~ ! ] @ ! ) ! ! ~ ] ~ ~ ~ ] ^ ^ ] ] ] .+( ( 7 '.i = ; 9 9 ; ; ' & ( 9 . @ @ @ @ @ c @ @ c @ . . . . ( 2 ) % . 2 . ( & ' * , k b [.'.<.)+d.]+]+-.]+8+b , * > ; * * 0 & ; ( & % ( & ( ",
"b a , ; ; & . $ % 2 . ! ) ) ) @ ! @ @ @ ! @ ! @ ! )   ( ' 4 5 5 u 6 4 7 7 d ' : ( 2 ! ! ~ ~ { ! ] @ @ @ ~ c ! ! ! ! . ) 2 ) @ ] o ! ~ m _ ] _ n @ ] . ' ; a j ; ; 9 . & ' 9 & ' 9 . . c @ c @ @ @ . .   . ) . % ) & 2 @ ! @ @ f & % & ; * 7 b {.j 7.f+8+{.v 0+- b a , ; ; & . $ % 2 . ! ) ) ) @ ! @ @ @ ! @ ! @ ! )   ( ' 4 5 5 u 6 4 7 7 d ' : ( 2 ! ! ~ ~ { ! ] @ @ @ ~ c ! ! ! ! . ) 2 ) @ ] o ! ~ m _ ] _ n @ ] . ' ; a j ; ; 9 . & ' 9 & ' 9 . . c @ c @ @ @ . .   . ) . % ) & 2 @ ! @ @ f & % & ; * 7 b {.j 7.f+8+{.v 0+- b a , ; ; & . $ % 2 . ! ) ) ) @ ! @ @ @ ! @ ! @ ! )   ( ' 4 5 5 u 6 4 7 7 d ' : ( 2 ! ! ~ ~ { ! ] @ @ @ ~ c ! ! ! ! . ) 2 ) @ ] o ! ~ m _ ] _ n @ ] . ' ; a j ; ; 9 . & ' 9 & ' 9 . . c @ c @ @ @ . .   . ) . % ) & 2 @ ! @ @ f & % & ; * 7 b {.j 7.f+8+{.v 0+- b a , ; ; & . $ % 2 . ! ) ) ) @ ",
"* * ; 0 & & e ' @ ! @ ! @ o ! ~ ! @ ! ~ ~ _ ! ! ) 2 @ @ % 8 1 5 1 7 d , 8 ( ( 2 ( x ( 2 ) ! @ ~ @ ) o ) ! @ ) ( ( 2 ! ) 2 ) 2 ) ! ~ ~ ^ ^ { ] ^ ! ] c ( & ' } > ' & 9 9 ;   ; ' ( ( @ . @ . . @ . . . % 9 % . . ~ @ ! @ ~ z+! 2 ( @ . 0 = * a f+v [.b D f+v ;+= * * ; 0 & & e ' @ ! @ ! @ o ! ~ ! @ ! ~ ~ _ ! ! ) 2 @ @ % 8 1 5 1 7 d , 8 ( ( 2 ( x ( 2 ) ! @ ~ @ ) o ) ! @ ) ( ( 2 ! ) 2 ) 2 ) ! ~ ~ ^ ^ { ] ^ ! ] c ( & ' } > ' & 9 9 ;   ; ' ( ( @ . @ . . @ . . . % 9 % . . ~ @ ! @ ~ z+! 2 ( @ . 0 = * a f+v [.b D f+v ;+= * * ; 0 & & e ' @ ! @ ! @ o ! ~ ! @ ! ~ ~ _ ! ! ) 2 @ @ % 8 1 5 1 7 d , 8 ( ( 2 ( x ( 2 ) ! @ ~ @ ) o ) ! @ ) ( ( 2 ! ) 2 ) 2 ) ! ~ ~ ^ ^ { ] ^ ! ] c ( & ' } > ' & 9 9 ;   ; ' ( ( @ . @ . . @ . . . % 9 % . . ~ @ ! @ ~ z+! 2 ( @ . 0 = * a f+v [.b D f+v ;+= * * ; 0 & & e ' @ ! @ ! @ o ! ~ ",
"7 0 , , ( 0 8 x 2 2 ) @ ! @ ) @ ! @ c ! ] + ^ c ] @ @ ] . < 1 J < < < p d : ( @ ) ) 2 2 2 ) ( ) ( % ( % 2 ) ( ( ) ( y ) ! n ! ! @ @ ! ! { ~ ^ ^ ^ ^ @ %   1 5 , ' . . 2   % . ( ' % . . % @ % % . % . . 2 . % ~ @ @ @ @ @ @ @ @ % % % & ' 7 b } [ b a = I 1  .a 7 0 , , ( 0 8 x 2 2 ) @ ! @ ) @ ! @ c ! ] + ^ c ] @ @ ] . < 1 J < < < p d : ( @ ) ) 2 2 2 ) ( ) ( % ( % 2 ) ( ( ) ( y ) ! n ! ! @ @ ! ! { ~ ^ ^ ^ ^ @ %   1 5 , ' . . 2   % . ( ' % . . % @ % % . % . . 2 . % ~ @ @ @ @ @ @ @ @ % % % & ' 7 b } [ b a = I 1  .a 7 0 , , ( 0 8 x 2 2 ) @ ! @ ) @ ! @ c ! ] + ^ c ] @ @ ] . < 1 J < < < p d : ( @ ) ) 2 2 2 ) ( ) ( % ( % 2 ) ( ( ) ( y ) ! n ! ! @ @ ! ! { ~ ^ ^ ^ ^ @ %   1 5 , ' . . 2   % . ( ' % . . % @ % % . % . . 2 . % ~ @ @ @ @ @ @ @ @ % % % & ' 7 b } [ b a = I 1  .a 7 0 , , ( 0 8 x 2 2 ) @ ! @ ) @ ",
"I ' & & . ( ( 2 ) ) @ ! @ @ c . . ! @ @ ] ^.] _ c ! c $ 2 , J J < < 8 0 : ( ! ! @ ! @ ! . ) . . ( ( e ' 0 ' 0 : ( ( ) ! ! n @ ! ) % ) @ { ~ _ m ] ~ @ ) & < 6 , ' ( @ ( ( ' ( % 0 ( % % % % % % f ) % @ @ . @ $ @ @ @ @ @ ! . . ) . . ( , 7 1 [ 1 b 7 , 7 b 1 7 I ' & & . ( ( 2 ) ) @ ! @ @ c . . ! @ @ ] ^.] _ c ! c $ 2 , J J < < 8 0 : ( ! ! @ ! @ ! . ) . . ( ( e ' 0 ' 0 : ( ( ) ! ! n @ ! ) % ) @ { ~ _ m ] ~ @ ) & < 6 , ' ( @ ( ( ' ( % 0 ( % % % % % % f ) % @ @ . @ $ @ @ @ @ @ ! . . ) . . ( , 7 1 [ 1 b 7 , 7 b 1 7 I ' & & . ( ( 2 ) ) @ ! @ @ c . . ! @ @ ] ^.] _ c ! c $ 2 , J J < < 8 0 : ( ! ! @ ! @ ! . ) . . ( ( e ' 0 ' 0 : ( ( ) ! ! n @ ! ) % ) @ { ~ _ m ] ~ @ ) & < 6 , ' ( @ ( ( ' ( % 0 ( % % % % % % f ) % @ @ . @ $ @ @ @ @ @ ! . . ) . . ( , 7 1 [ 1 b 7 , 7 b 1 7 I ' & & . ( ( 2 ) ) @ ! @ @ c . ",
"7 0 % . @ % ) @ ) @ ! ] ] ~ c ! ! @ ] ] ] # ^ ] @ ] @ @ ( ' < , 4 E ' : ' ) @ ! ] ~ c { @ ! . @ ( ( ' 8 8 8 8 8 x ( 2 ) 2 @ ) ! 2 ) @ ! @ { ] { @ ] ! %   0 4 1 ' ( ( ( ' ( ( ( , ( & 2 % % % ( & ( % . % 2 . @ @ @ @ @ . . 2 2 % . % ( , < 1 } 7 7 , = 7 a 7 , 7 0 % . @ % ) @ ) @ ! ] ] ~ c ! ! @ ] ] ] # ^ ] @ ] @ @ ( ' < , 4 E ' : ' ) @ ! ] ~ c { @ ! . @ ( ( ' 8 8 8 8 8 x ( 2 ) 2 @ ) ! 2 ) @ ! @ { ] { @ ] ! %   0 4 1 ' ( ( ( ' ( ( ( , ( & 2 % % % ( & ( % . % 2 . @ @ @ @ @ . . 2 2 % . % ( , < 1 } 7 7 , = 7 a 7 , 7 0 % . @ % ) @ ) @ ! ] ] ~ c ! ! @ ] ] ] # ^ ] @ ] @ @ ( ' < , 4 E ' : ' ) @ ! ] ~ c { @ ! . @ ( ( ' 8 8 8 8 8 x ( 2 ) 2 @ ) ! 2 ) @ ! @ { ] { @ ] ! %   0 4 1 ' ( ( ( ' ( ( ( , ( & 2 % % % ( & ( % . % 2 . @ @ @ @ @ . . 2 2 % . % ( , < 1 } 7 7 , = 7 a 7 , 7 0 % . @ % ) @ ) @ ! ] ] ~ c ! ",
"1 = & & @ . ( @ ! @ ~ ~ ] ] ] ] @ @ ~ @ ] ^ + ] ] # + . ' , , J h ' ' ' x @ ] ! @ ] ~ c @ @ . . . & ( ' 0 8 8 8 8 : ( ( 2 ( 2 2 . . @ ! @ ! o ! ) @ @ ( & ' 4 5 9 ' ' ' & % ( ' 0 0 ( & e % ( t+( e ( 2 . & 2 % @ @ @ . ! % ) . ) % . ' , < | 1 I 7 a , , , 7 a 1 = & & @ . ( @ ! @ ~ ~ ] ] ] ] @ @ ~ @ ] ^ + ] ] # + . ' , , J h ' ' ' x @ ] ! @ ] ~ c @ @ . . . & ( ' 0 8 8 8 8 : ( ( 2 ( 2 2 . . @ ! @ ! o ! ) @ @ ( & ' 4 5 9 ' ' ' & % ( ' 0 0 ( & e % ( t+( e ( 2 . & 2 % @ @ @ . ! % ) . ) % . ' , < | 1 I 7 a , , , 7 a 1 = & & @ . ( @ ! @ ~ ~ ] ] ] ] @ @ ~ @ ] ^ + ] ] # + . ' , , J h ' ' ' x @ ] ! @ ] ~ c @ @ . . . & ( ' 0 8 8 8 8 : ( ( 2 ( 2 2 . . @ ! @ ! o ! ) @ @ ( & ' 4 5 9 ' ' ' & % ( ' 0 0 ( & e % ( t+( e ( 2 . & 2 % @ @ @ . ! % ) . ) % . ' , < | 1 I 7 a , , , 7 a 1 = & & @ . ( @ ! @ ~ ~ ] ] ] ] ",
"1 7 0 & % ( ( @ @ ~ ] ] ^ ^ ] ] ^ ~ n @ ! ] ^ # ] + ~ ( 8 , J 1 < ' ( ' ( @ c ! ] ] ] ^ ] @ ] @ @ . 2 9 ( ' 8 < 8 E ' ( : 0 ( ( ( ) % ! ) 2   ( 2 @ @   ' ' b u 0 ' 0 ( . & ( ' e ( ( % 2 ( % 2 ( ( ( % . % . . 2 . % @ . @ . 2 % . % ( , , 7 1 7 7 , = 0 , 7 J 1 7 0 & % ( ( @ @ ~ ] ] ^ ^ ] ] ^ ~ n @ ! ] ^ # ] + ~ ( 8 , J 1 < ' ( ' ( @ c ! ] ] ] ^ ] @ ] @ @ . 2 9 ( ' 8 < 8 E ' ( : 0 ( ( ( ) % ! ) 2   ( 2 @ @   ' ' b u 0 ' 0 ( . & ( ' e ( ( % 2 ( % 2 ( ( ( % . % . . 2 . % @ . @ . 2 % . % ( , , 7 1 7 7 , = 0 , 7 J 1 7 0 & % ( ( @ @ ~ ] ] ^ ^ ] ] ^ ~ n @ ! ] ^ # ] + ~ ( 8 , J 1 < ' ( ' ( @ c ! ] ] ] ^ ] @ ] @ @ . 2 9 ( ' 8 < 8 E ' ( : 0 ( ( ( ) % ! ) 2   ( 2 @ @   ' ' b u 0 ' 0 ( . & ( ' e ( ( % 2 ( % 2 ( ( ( % . % . . 2 . % @ . @ . 2 % . % ( , , 7 1 7 7 , = 0 , 7 J 1 7 0 & % ( ( @ @ ~ ] ] ^ ^ ] ] ",
"b a , ' & ( 0 ! @ @ ] ^ ~ ^ ^ ~ ^ ] ~ ] ! @ ] # @ ] . d < 1 < 1 8 '   (   ! ~ @ ] ~ ~ ] ~ ] @ ! . . . ) . ( ' 8 , E , 8 0 : 0 ' ' ' ( ( ( 2 x 2 ) 2 . & d , 7 X 1 < ' & ' , 0 ( ( e & 2 % 2 ( 2 & e ( 2 % ) % ) % 2 ) f ) @ @ @ . 2 & ( ' ' , 7 a a , , ; = , a b a , ' & ( 0 ! @ @ ] ^ ~ ^ ^ ~ ^ ] ~ ] ! @ ] # @ ] . d < 1 < 1 8 '   (   ! ~ @ ] ~ ~ ] ~ ] @ ! . . . ) . ( ' 8 , E , 8 0 : 0 ' ' ' ( ( ( 2 x 2 ) 2 . & d , 7 X 1 < ' & ' , 0 ( ( e & 2 % 2 ( 2 & e ( 2 % ) % ) % 2 ) f ) @ @ @ . 2 & ( ' ' , 7 a a , , ; = , a b a , ' & ( 0 ! @ @ ] ^ ~ ^ ^ ~ ^ ] ~ ] ! @ ] # @ ] . d < 1 < 1 8 '   (   ! ~ @ ] ~ ~ ] ~ ] @ ! . . . ) . ( ' 8 , E , 8 0 : 0 ' ' ' ( ( ( 2 x 2 ) 2 . & d , 7 X 1 < ' & ' , 0 ( ( e & 2 % 2 ( 2 & e ( 2 % ) % ) % 2 ) f ) @ @ @ . 2 & ( ' ' , 7 a a , , ; = , a b a , ' & ( 0 ! @ @ ] ^ ~ ^ ^ ~ ",
"7 7 a , & ( ' f @ @ ] ~ ^ ^ ] ^ ^ ~ ~ @ @ ! @ ] @ @ ( , < J 7 , ' ( (   ) . ~ ] ! { c ~ c ! @ @ . . . % ) ( ' d ( ' 0 0 , 0 ' e 0 ( ( & ( ( ( ( . ( 2 % , d 7 6 6 6 a ' , ' , & 2 & 2 % 2 ( 2 % ( e 0 ( % ( ( % 2 . % . @ @ @ @ . . % ( & & , < 1 , * = 0 * 0 7 7 7 a , & ( ' f @ @ ] ~ ^ ^ ] ^ ^ ~ ~ @ @ ! @ ] @ @ ( , < J 7 , ' ( (   ) . ~ ] ! { c ~ c ! @ @ . . . % ) ( ' d ( ' 0 0 , 0 ' e 0 ( ( & ( ( ( ( . ( 2 % , d 7 6 6 6 a ' , ' , & 2 & 2 % 2 ( 2 % ( e 0 ( % ( ( % 2 . % . @ @ @ @ . . % ( & & , < 1 , * = 0 * 0 7 7 7 a , & ( ' f @ @ ] ~ ^ ^ ] ^ ^ ~ ~ @ @ ! @ ] @ @ ( , < J 7 , ' ( (   ) . ~ ] ! { c ~ c ! @ @ . . . % ) ( ' d ( ' 0 0 , 0 ' e 0 ( ( & ( ( ( ( . ( 2 % , d 7 6 6 6 a ' , ' , & 2 & 2 % 2 ( 2 % ( e 0 ( % ( ( % 2 . % . @ @ @ @ . . % ( & & , < 1 , * = 0 * 0 7 7 7 a , & ( ' f @ @ ] ~ ^ ^ ] ^ ",
"= 7 1 7 }+; 0 . @ @ ~ ] ] ^ ^ { ^ ~ ] ] ~ ) ! @ @ . ( d , , ' & 9 (   2 . ! c ^ { ] ~ ] ^ ] ] c @ . ) ) 9 & ( ' % ( 0 , ' 0 & }+) & & % 9 2 & 2 f ' & . d , 0 7 J i X a ; & ' , % 2 2 % o ( e 2 % ( ( % 2 % . % . 2 @ ) f @ @ @ @ @ . & % & ' 1 7 , ; , = ' ; 0 = 7 1 7 }+; 0 . @ @ ~ ] ] ^ ^ { ^ ~ ] ] ~ ) ! @ @ . ( d , , ' & 9 (   2 . ! c ^ { ] ~ ] ^ ] ] c @ . ) ) 9 & ( ' % ( 0 , ' 0 & }+) & & % 9 2 & 2 f ' & . d , 0 7 J i X a ; & ' , % 2 2 % o ( e 2 % ( ( % 2 % . % . 2 @ ) f @ @ @ @ @ . & % & ' 1 7 , ; , = ' ; 0 = 7 1 7 }+; 0 . @ @ ~ ] ] ^ ^ { ^ ~ ] ] ~ ) ! @ @ . ( d , , ' & 9 (   2 . ! c ^ { ] ~ ] ^ ] ] c @ . ) ) 9 & ( ' % ( 0 , ' 0 & }+) & & % 9 2 & 2 f ' & . d , 0 7 J i X a ; & ' , % 2 2 % o ( e 2 % ( ( % 2 % . % . 2 @ ) f @ @ @ @ @ . & % & ' 1 7 , ; , = ' ; 0 = 7 1 7 }+; 0 . @ @ ~ ] ] ^ ^ { ",
", , I a , ( % ( . @ ^ ] m ~ ] ^ ^ ^ ~ m ] / @ % . ( ' ( 9 ( 9 . @ ) &   ) @ ~ ^ ^ ^ ^ ^ ~ @ @ ! . ( & &   ' , ' ' ' * ( }+( 0 e & . ( ( & 2 9 %   & ( ( 0 ' , 7 1 7 } & $ , w < % 9 2 . 2 ( 2 2 e e ( ( % ( 2 % 2 2 . @ @ @ @ % ) f . . % 9 0 7 a , , , 0 0 * , , , I a , ( % ( . @ ^ ] m ~ ] ^ ^ ^ ~ m ] / @ % . ( ' ( 9 ( 9 . @ ) &   ) @ ~ ^ ^ ^ ^ ^ ~ @ @ ! . ( & &   ' , ' ' ' * ( }+( 0 e & . ( ( & 2 9 %   & ( ( 0 ' , 7 1 7 } & $ , w < % 9 2 . 2 ( 2 2 e e ( ( % ( 2 % 2 2 . @ @ @ @ % ) f . . % 9 0 7 a , , , 0 0 * , , , I a , ( % ( . @ ^ ] m ~ ] ^ ^ ^ ~ m ] / @ % . ( ' ( 9 ( 9 . @ ) &   ) @ ~ ^ ^ ^ ^ ^ ~ @ @ ! . ( & &   ' , ' ' ' * ( }+( 0 e & . ( ( & 2 9 %   & ( ( 0 ' , 7 1 7 } & $ , w < % 9 2 . 2 ( 2 2 e e ( ( % ( 2 % 2 2 . @ @ @ @ % ) f . . % 9 0 7 a , , , 0 0 * , , , I a , ( % ( . @ ^ ] m ~ ] ^ ",
"I , , J J , ( & . @ @ @ ] @ ~ ] ~ ] ~ + ~ @ % ( % ( ' ( 9 . 2 . @ . ) @ ! ~ ] ] ^ ^ ^ ~ c ! @ ) . ( ' & ( d 8 0 0 ' 0 ' * 0 * ' & & ( & ( & ( % ( ( 0 ' 0 ' , 7 1 = u '.S & ' 0 ( 2 . f ) 2 2 ( ( e ( e ( 2 % ( % 2 @ f @ @ f @ @ @ @ % . & ' , b , , = , d 0 , I , , J J , ( & . @ @ @ ] @ ~ ] ~ ] ~ + ~ @ % ( % ( ' ( 9 . 2 . @ . ) @ ! ~ ] ] ^ ^ ^ ~ c ! @ ) . ( ' & ( d 8 0 0 ' 0 ' * 0 * ' & & ( & ( & ( % ( ( 0 ' 0 ' , 7 1 = u '.S & ' 0 ( 2 . f ) 2 2 ( ( e ( e ( 2 % ( % 2 @ f @ @ f @ @ @ @ % . & ' , b , , = , d 0 , I , , J J , ( & . @ @ @ ] @ ~ ] ~ ] ~ + ~ @ % ( % ( ' ( 9 . 2 . @ . ) @ ! ~ ] ] ^ ^ ^ ~ c ! @ ) . ( ' & ( d 8 0 0 ' 0 ' * 0 * ' & & ( & ( & ( % ( ( 0 ' 0 ' , 7 1 = u '.S & ' 0 ( 2 . f ) 2 2 ( ( e ( e ( 2 % ( % 2 @ f @ @ f @ @ @ @ % . & ' , b , , = , d 0 , I , , J J , ( & . @ @ @ ] @ ~ ] ",
"J I , J J , ; % . @ @ @ ! @ ] ~ @ @ ~ ~ $ % ( ' ( }+( . @ @ . @ ] @ @ @ c ] { ^ ^ ] ] { @ ! ) . ) ( ( ( ( 0 8 ' 0 ' 0 e ' 0 0 0 ' ( ( ' ( ( ( ( ' 0 ' 0 , ' 8 7 , 6 i v ; 0 w , ' & . @ @ % 2 2 ( }+( t+2 & 2 ( 2 % 2 % @ @ @ @ @ @ @ . % & ' , < , 0 , 0 0 , , J I , J J , ; % . @ @ @ ! @ ] ~ @ @ ~ ~ $ % ( ' ( }+( . @ @ . @ ] @ @ @ c ] { ^ ^ ] ] { @ ! ) . ) ( ( ( ( 0 8 ' 0 ' 0 e ' 0 0 0 ' ( ( ' ( ( ( ( ' 0 ' 0 , ' 8 7 , 6 i v ; 0 w , ' & . @ @ % 2 2 ( }+( t+2 & 2 ( 2 % 2 % @ @ @ @ @ @ @ . % & ' , < , 0 , 0 0 , , J I , J J , ; % . @ @ @ ! @ ] ~ @ @ ~ ~ $ % ( ' ( }+( . @ @ . @ ] @ @ @ c ] { ^ ^ ] ] { @ ! ) . ) ( ( ( ( 0 8 ' 0 ' 0 e ' 0 0 0 ' ( ( ' ( ( ( ( ' 0 ' 0 , ' 8 7 , 6 i v ; 0 w , ' & . @ @ % 2 2 ( }+( t+2 & 2 ( 2 % 2 % @ @ @ @ @ @ @ . % & ' , < , 0 , 0 0 , , J I , J J , ; % . @ @ @ ! @ ] ~ ",
", , 0 , , , & ( % % . @ @ ~ ~ ] @ @ @ @ . % e 0 ( ( . @ / ] ] c + c c @ ! ~ ~ ] m ] { ~ ! @ ! ~ . & & & ( 0 ' & e ( 0 ( 0 E 0 E 0 ' 0 0 0 0 ' 0 ' 0 ' 0 ' , 0 , , j , } } J ' , 0 ( . f @ ! . 2 % 2 e % ( t+( % 2 % 2 % ) % @ @ f @ . % ) % ; , , 0 * ' 0 0 ; 0 , , 0 , , , & ( % % . @ @ ~ ~ ] @ @ @ @ . % e 0 ( ( . @ / ] ] c + c c @ ! ~ ~ ] m ] { ~ ! @ ! ~ . & & & ( 0 ' & e ( 0 ( 0 E 0 E 0 ' 0 0 0 0 ' 0 ' 0 ' 0 ' , 0 , , j , } } J ' , 0 ( . f @ ! . 2 % 2 e % ( t+( % 2 % 2 % ) % @ @ f @ . % ) % ; , , 0 * ' 0 0 ; 0 , , 0 , , , & ( % % . @ @ ~ ~ ] @ @ @ @ . % e 0 ( ( . @ / ] ] c + c c @ ! ~ ~ ] m ] { ~ ! @ ! ~ . & & & ( 0 ' & e ( 0 ( 0 E 0 E 0 ' 0 0 0 0 ' 0 ' 0 ' 0 ' , 0 , , j , } } J ' , 0 ( . f @ ! . 2 % 2 e % ( t+( % 2 % 2 % ) % @ @ f @ . % ) % ; , , 0 * ' 0 0 ; 0 , , 0 , , , & ( % % . @ @ ~ ~ ] ",
"% e e ( }+e , , & ( . @ g ~ c ~ $ @ . % ( 0 0 0 0 & f @ ^ ] ~ ] ] / ) ) ! @ _ ] { ] { c { ] ~ ] f . % & ( 0 ( & ( & ( ( 0 ( ' ' 0 e ' 0 ' 0 0 0 0 0 E 0 E E E , 1 , a C v , } 0 ' & 2 . % . % . 2 % 2 % 2 ( % ( % 2 % 2 f @ @ @ % @ % 2 . % & ' , 0 ; 0 = ' & & % e e ( }+e , , & ( . @ g ~ c ~ $ @ . % ( 0 0 0 0 & f @ ^ ] ~ ] ] / ) ) ! @ _ ] { ] { c { ] ~ ] f . % & ( 0 ( & ( & ( ( 0 ( ' ' 0 e ' 0 ' 0 0 0 0 0 E 0 E E E , 1 , a C v , } 0 ' & 2 . % . % . 2 % 2 % 2 ( % ( % 2 % 2 f @ @ @ % @ % 2 . % & ' , 0 ; 0 = ' & & % e e ( }+e , , & ( . @ g ~ c ~ $ @ . % ( 0 0 0 0 & f @ ^ ] ~ ] ] / ) ) ! @ _ ] { ] { c { ] ~ ] f . % & ( 0 ( & ( & ( ( 0 ( ' ' 0 e ' 0 ' 0 0 0 0 0 E 0 E E E , 1 , a C v , } 0 ' & 2 . % . % . 2 % 2 % 2 ( % ( % 2 % 2 f @ @ @ % @ % 2 . % & ' , 0 ; 0 = ' & & % e e ( }+e , , & ( . @ g ~ c ~ ",
"% ( e % % % ( 0 ' ; ( & . @ . . % . % & ; 0 0 0 0 ( . @ ] ~ _ @ @ @ ) ) ) @ { ~ ] { ] ~ ] ] ^ # . % % & ' e ( % ) % ( 2 ( ( ( ( 2 % 2 2 % ( ( ( 0 ' ( e ' 0 0 E I J 6 Z +.0 1 J ' ; ( &   ( . . 2 t+% ( t+2 % 2 f 2 % 2 % 2 f @ ) 2 . . % . & , , , , < , 0 & & % ( e % % % ( 0 ' ; ( & . @ . . % . % & ; 0 0 0 0 ( . @ ] ~ _ @ @ @ ) ) ) @ { ~ ] { ] ~ ] ] ^ # . % % & ' e ( % ) % ( 2 ( ( ( ( 2 % 2 2 % ( ( ( 0 ' ( e ' 0 0 E I J 6 Z +.0 1 J ' ; ( &   ( . . 2 t+% ( t+2 % 2 f 2 % 2 % 2 f @ ) 2 . . % . & , , , , < , 0 & & % ( e % % % ( 0 ' ; ( & . @ . . % . % & ; 0 0 0 0 ( . @ ] ~ _ @ @ @ ) ) ) @ { ~ ] { ] ~ ] ] ^ # . % % & ' e ( % ) % ( 2 ( ( ( ( 2 % 2 2 % ( ( ( 0 ' ( e ' 0 0 E I J 6 Z +.0 1 J ' ; ( &   ( . . 2 t+% ( t+2 % 2 f 2 % 2 % 2 f @ ) 2 . . % . & , , , , < , 0 & & % ( e % % % ( 0 ' ; ( & . @ . . ",
"% e e % % t % 3 & ' 0 ' ( ( ( ( ( & & e 0 , , 0 0 2 @ ~ @ ] n ! @ . ) @ ! c ] _ ~ ^ ] ^ ^ ^ ] m . t % & e }+% f . @ @ 2 ) o ) 2 @ f . f % 2 & ( ( ( % ( ( Y.' ( }+6 J , k+1 0 1 0 ' ( & ( &   % % 2 % % 2 % % 2 % . f ) % @ 2 f . @ @ % . % ( d J J J 1 J , & % % e e % % t % 3 & ' 0 ' ( ( ( ( ( & & e 0 , , 0 0 2 @ ~ @ ] n ! @ . ) @ ! c ] _ ~ ^ ] ^ ^ ^ ] m . t % & e }+% f . @ @ 2 ) o ) 2 @ f . f % 2 & ( ( ( % ( ( Y.' ( }+6 J , k+1 0 1 0 ' ( & ( &   % % 2 % % 2 % % 2 % . f ) % @ 2 f . @ @ % . % ( d J J J 1 J , & % % e e % % t % 3 & ' 0 ' ( ( ( ( ( & & e 0 , , 0 0 2 @ ~ @ ] n ! @ . ) @ ! c ] _ ~ ^ ] ^ ^ ^ ] m . t % & e }+% f . @ @ 2 ) o ) 2 @ f . f % 2 & ( ( ( % ( ( Y.' ( }+6 J , k+1 0 1 0 ' ( & ( &   % % 2 % % 2 % % 2 % . f ) % @ 2 f . @ @ % . % ( d J J J 1 J , & % % e e % % t % 3 & ' 0 ' ( ( ( ( ",
"m ~ % f % & % $ & & ' , d ' ( ' , ' 0 ; * 0 0 0 * % @ ~ ~ ] { c ) ) @ @ ] m ] ~ s ^ ^ ^ ^ ^ ~ ] f $ t & e ( % @ @ @ @ @ @ ! @ @ @ @ f . % % ( e % % f f 2 % ( 2 0 e * J } u z , d 0 & ( ( ( & ( & 2 % 2 t+2 % % 2 % 2 f 2 % . 2 f @ @ @ @ . ' , a 1 1 1 1 , & % m ~ % f % & % $ & & ' , d ' ( ' , ' 0 ; * 0 0 0 * % @ ~ ~ ] { c ) ) @ @ ] m ] ~ s ^ ^ ^ ^ ^ ~ ] f $ t & e ( % @ @ @ @ @ @ ! @ @ @ @ f . % % ( e % % f f 2 % ( 2 0 e * J } u z , d 0 & ( ( ( & ( & 2 % 2 t+2 % % 2 % 2 f 2 % . 2 f @ @ @ @ . ' , a 1 1 1 1 , & % m ~ % f % & % $ & & ' , d ' ( ' , ' 0 ; * 0 0 0 * % @ ~ ~ ] { c ) ) @ @ ] m ] ~ s ^ ^ ^ ^ ^ ~ ] f $ t & e ( % @ @ @ @ @ @ ! @ @ @ @ f . % % ( e % % f f 2 % ( 2 0 e * J } u z , d 0 & ( ( ( & ( & 2 % 2 t+2 % % 2 % 2 f 2 % . 2 f @ @ @ @ . ' , a 1 1 1 1 , & % m ~ % f % & % $ & & ' , d ' ( ' ",
"  . . + @ # @ $ $ % & * * = = - = ; > & ; ; , ' ' . @ @ @ @ @ ) ! ) @ ~ ~ @ { ] ^ ^ ^ ^ ^ ^ ^ ^ ~ / @ & ( & . @ . @ @ @ _ ~ { { ] { ! ! ~ ! ! ) ) @ ) . ) (   . : ' ' ' < [ } | 1 , & & & ( ( ( 2 ( 2 % 2 % % % % % % % % % . % $ $ . 3 . . & ; 4 5 6 7 < 7 & .   . . + @ # @ $ $ % & * * = = - = ; > & ; ; , ' ' . @ @ @ @ @ ) ! ) @ ~ ~ @ { ] ^ ^ ^ ^ ^ ^ ^ ^ ~ / @ & ( & . @ . @ @ @ _ ~ { { ] { ! ! ~ ! ! ) ) @ ) . ) (   . : ' ' ' < [ } | 1 , & & & ( ( ( 2 ( 2 % 2 % % % % % % % % % . % $ $ . 3 . . & ; 4 5 6 7 < 7 & .   . . + @ # @ $ $ % & * * = = - = ; > & ; ; , ' ' . @ @ @ @ @ ) ! ) @ ~ ~ @ { ] ^ ^ ^ ^ ^ ^ ^ ^ ~ / @ & ( & . @ . @ @ @ _ ~ { { ] { ! ! ~ ! ! ) ) @ ) . ) (   . : ' ' ' < [ } | 1 , & & & ( ( ( 2 ( 2 % 2 % % % % % % % % % . % $ $ . 3 . . & ; 4 5 6 7 < 7 & .   . . + @ # @ $ $ % & * * = = - ",
"< 8 . ' ~ 9 / ( % ; 0 , a b 6 1 b 7 = ; ; 0 ; 0 & . . @ . c @ ! . 2 ) ! ] ! @ { ~ ^ ^ ^ ^ ^ _ ~ ~ @ @ ( ( ( % % . @ c ~ ! { ! { ] ] ~ _ ! ! @ ! . ) @ ) . (   ( & ( ' d 1 6 7 ; 7 ; & & % e 2 2 % f % f . f @ @ % . % . % 3 % $ g c $ . . ; ' , < } } 4 , ' ' d < 8 . ' ~ 9 / ( % ; 0 , a b 6 1 b 7 = ; ; 0 ; 0 & . . @ . c @ ! . 2 ) ! ] ! @ { ~ ^ ^ ^ ^ ^ _ ~ ~ @ @ ( ( ( % % . @ c ~ ! { ! { ] ] ~ _ ! ! @ ! . ) @ ) . (   ( & ( ' d 1 6 7 ; 7 ; & & % e 2 2 % f % f . f @ @ % . % . % 3 % $ g c $ . . ; ' , < } } 4 , ' ' d < 8 . ' ~ 9 / ( % ; 0 , a b 6 1 b 7 = ; ; 0 ; 0 & . . @ . c @ ! . 2 ) ! ] ! @ { ~ ^ ^ ^ ^ ^ _ ~ ~ @ @ ( ( ( % % . @ c ~ ! { ! { ] ] ~ _ ! ! @ ! . ) @ ) . (   ( & ( ' d 1 6 7 ; 7 ; & & % e 2 2 % f % f . f @ @ % . % . % 3 % $ g c $ . . ; ' , < } } 4 , ' ' d < 8 . ' ~ 9 / ( % ; 0 , a b 6 1 ",
"5 h 8 ( 9 . & ( ; ( * ; , 1 i j | a 7 k * l ' , & . . . . @ @ ) 2 ) @ @ ~ ~ c ~ ] ^ ~ ^ _ m _ ~ ~ ~ @ & ( . . . @ @ ! @ ! n ! ! { ] ] @ ) 2 ) ! ) ! . 2   ( 2 ) ( ' ( ; < 1 1 ; & & & % % . % 2 @ % ! % @ 2 % 2 % o . f @ @ $ f @ @ @ @ 9 ' p 8 < q r < ' ; ' 7 5 h 8 ( 9 . & ( ; ( * ; , 1 i j | a 7 k * l ' , & . . . . @ @ ) 2 ) @ @ ~ ~ c ~ ] ^ ~ ^ _ m _ ~ ~ ~ @ & ( . . . @ @ ! @ ! n ! ! { ] ] @ ) 2 ) ! ) ! . 2   ( 2 ) ( ' ( ; < 1 1 ; & & & % % . % 2 @ % ! % @ 2 % 2 % o . f @ @ $ f @ @ @ @ 9 ' p 8 < q r < ' ; ' 7 5 h 8 ( 9 . & ( ; ( * ; , 1 i j | a 7 k * l ' , & . . . . @ @ ) 2 ) @ @ ~ ~ c ~ ] ^ ~ ^ _ m _ ~ ~ ~ @ & ( . . . @ @ ! @ ! n ! ! { ] ] @ ) 2 ) ! ) ! . 2   ( 2 ) ( ' ( ; < 1 1 ; & & & % % . % 2 @ % ! % @ 2 % 2 % o . f @ @ $ f @ @ @ @ 9 ' p 8 < q r < ' ; ' 7 5 h 8 ( 9 . & ( ; ( * ; , 1 i j ",
", 6 r & ; $ d & d * ' * 0 , 7 b 7 b 6 6 7 * ; 9 & % & & . @ . % ) 2 . ~ ] ] ~ ] ~ s ] ^ ^ ^ ~ ] ] $ @ . ( 2 . . @ @ @ { @ ! ! ! @ @ @ ! ) 2   2 ( ) 2   2   (   ( ( (   , 4 1 7 & & & % @ @ @ f o . f @ % 2 % 2 % % @ % . t @ @ ) @ @ @ 2 ( 0 ' 5 5 < , ' ' ( ' , 6 r & ; $ d & d * ' * 0 , 7 b 7 b 6 6 7 * ; 9 & % & & . @ . % ) 2 . ~ ] ] ~ ] ~ s ] ^ ^ ^ ~ ] ] $ @ . ( 2 . . @ @ @ { @ ! ! ! @ @ @ ! ) 2   2 ( ) 2   2   (   ( ( (   , 4 1 7 & & & % @ @ @ f o . f @ % 2 % 2 % % @ % . t @ @ ) @ @ @ 2 ( 0 ' 5 5 < , ' ' ( ' , 6 r & ; $ d & d * ' * 0 , 7 b 7 b 6 6 7 * ; 9 & % & & . @ . % ) 2 . ~ ] ] ~ ] ~ s ] ^ ^ ^ ~ ] ] $ @ . ( 2 . . @ @ @ { @ ! ! ! @ @ @ ! ) 2   2 ( ) 2   2   (   ( ( (   , 4 1 7 & & & % @ @ @ f o . f @ % 2 % 2 % % @ % . t @ @ ) @ @ @ 2 ( 0 ' 5 5 < , ' ' ( ' , 6 r & ; $ d & d * ' * 0 , 7 b ",
"9 6 } u & , & , , d 0 ; ' & ' * a i v v 6 , & w & & . . @ @ . ( & 2 . @ ~ @ @ ] @ ~ ] ~ ] ] ~ ~ ~ @ ) ( ( % ) @ @ @ @ @ ! ! ! ! ! ) 2 ) 2 ( x : ( x ( 2 ( y ) 2 @ ) ' 0 < 4 , & & ( 9 @ ~ ~ f o @ @ ~ ~ @ ~ @ . 2 ) % @ @ @ @ @ % ) ) ) x x : ' z z ' ( ' ' % . 9 6 } u & , & , , d 0 ; ' & ' * a i v v 6 , & w & & . . @ @ . ( & 2 . @ ~ @ @ ] @ ~ ] ~ ] ] ~ ~ ~ @ ) ( ( % ) @ @ @ @ @ ! ! ! ! ! ) 2 ) 2 ( x : ( x ( 2 ( y ) 2 @ ) ' 0 < 4 , & & ( 9 @ ~ ~ f o @ @ ~ ~ @ ~ @ . 2 ) % @ @ @ @ @ % ) ) ) x x : ' z z ' ( ' ' % . 9 6 } u & , & , , d 0 ; ' & ' * a i v v 6 , & w & & . . @ @ . ( & 2 . @ ~ @ @ ] @ ~ ] ~ ] ] ~ ~ ~ @ ) ( ( % ) @ @ @ @ @ ! ! ! ! ! ) 2 ) 2 ( x : ( x ( 2 ( y ) 2 @ ) ' 0 < 4 , & & ( 9 @ ~ ~ f o @ @ ~ ~ @ ~ @ . 2 ) % @ @ @ @ @ % ) ) ) x x : ' z z ' ( ' ' % . 9 6 } u & , & , , d 0 ; ' & ' * ",
"A = 6 B [ , l 1 , ; & ( & % % 9 = 1 C C u D , , ' & % % . $ & ( ' ( ( . @ @ . . ! @ ! ] @ @ ! @ ! . 2 0 ( ( % ) @ @ @ ! ) 2 ! ) 2 ( ( ( ) ( E 8 E ( x ( x ( 2 ) ( ' ' ' < < 8 & ' ( ( f ~ ~ @ o @ ! @ ~ @ ! f ) % 2 . % @ . % @ ) ! 2 y ( E E 8 F G 8 ( ( (   ( A = 6 B [ , l 1 , ; & ( & % % 9 = 1 C C u D , , ' & % % . $ & ( ' ( ( . @ @ . . ! @ ! ] @ @ ! @ ! . 2 0 ( ( % ) @ @ @ ! ) 2 ! ) 2 ( ( ( ) ( E 8 E ( x ( x ( 2 ) ( ' ' ' < < 8 & ' ( ( f ~ ~ @ o @ ! @ ~ @ ! f ) % 2 . % @ . % @ ) ! 2 y ( E E 8 F G 8 ( ( (   ( A = 6 B [ , l 1 , ; & ( & % % 9 = 1 C C u D , , ' & % % . $ & ( ' ( ( . @ @ . . ! @ ! ] @ @ ! @ ! . 2 0 ( ( % ) @ @ @ ! ) 2 ! ) 2 ( ( ( ) ( E 8 E ( x ( x ( 2 ) ( ' ' ' < < 8 & ' ( ( f ~ ~ @ o @ ! @ ~ @ ! f ) % 2 . % @ . % @ ) ! 2 y ( E E 8 F G 8 ( ( (   ( A = 6 B [ , l 1 , ; & ( & % % 9 ",
"; > 6 D H 1 [ < & 9 3 . . . . 2 & = i } i i 1 1 I * ; * ' * 0 , ' 0 & . . 2 ( . % ) . @ ! @ ! @ ) % ( E ' 2 ) . ) . 2 ) 2 ) 2 2 ( ' ' ' 0 : ' E ' x ( ( x ( x 2 E E 0 ' 0 J < 0 ( & % . ! ~ { @ ! @ @ ! @ ! 2 2 2 ) @ ! @ f @ ! f K x x 8 8 L 8 8 < E ' ' ' & ' ; > 6 D H 1 [ < & 9 3 . . . . 2 & = i } i i 1 1 I * ; * ' * 0 , ' 0 & . . 2 ( . % ) . @ ! @ ! @ ) % ( E ' 2 ) . ) . 2 ) 2 ) 2 2 ( ' ' ' 0 : ' E ' x ( ( x ( x 2 E E 0 ' 0 J < 0 ( & % . ! ~ { @ ! @ @ ! @ ! 2 2 2 ) @ ! @ f @ ! f K x x 8 8 L 8 8 < E ' ' ' & ' ; > 6 D H 1 [ < & 9 3 . . . . 2 & = i } i i 1 1 I * ; * ' * 0 , ' 0 & . . 2 ( . % ) . @ ! @ ! @ ) % ( E ' 2 ) . ) . 2 ) 2 ) 2 2 ( ' ' ' 0 : ' E ' x ( ( x ( x 2 E E 0 ' 0 J < 0 ( & % . ! ~ { @ ! @ @ ! @ ! 2 2 2 ) @ ! @ f @ ! f K x x 8 8 L 8 8 < E ' ' ' & ' ; > 6 D H 1 [ < & 9 3 . . . . 2 ",
"M | k b [ N H , O . $ . @ @ . ( & , a a a , I a 1 a , , a 7 7 J ; ' ( % . % 9 ( . . . @ c . . ! . 2 ( ' ( . . % ) 2 ( ( ( x (   ' ( ' d < 8 8 ' ' ( ( x ( ( x ( . ( 0 8 < J 8 ( ( . 2 . o @ o @ ~ ~ ~ ~ ~ . 2 2 . 2 @ o @ @ . 2 ) ( E 8 P 8 8 < 8 p ; ( 8 d & ' M | k b [ N H , O . $ . @ @ . ( & , a a a , I a 1 a , , a 7 7 J ; ' ( % . % 9 ( . . . @ c . . ! . 2 ( ' ( . . % ) 2 ( ( ( x (   ' ( ' d < 8 8 ' ' ( ( x ( ( x ( . ( 0 8 < J 8 ( ( . 2 . o @ o @ ~ ~ ~ ~ ~ . 2 2 . 2 @ o @ @ . 2 ) ( E 8 P 8 8 < 8 p ; ( 8 d & ' M | k b [ N H , O . $ . @ @ . ( & , a a a , I a 1 a , , a 7 7 J ; ' ( % . % 9 ( . . . @ c . . ! . 2 ( ' ( . . % ) 2 ( ( ( x (   ' ( ' d < 8 8 ' ' ( ( x ( ( x ( . ( 0 8 < J 8 ( ( . 2 . o @ o @ ~ ~ ~ ~ ~ . 2 2 . 2 @ o @ @ . 2 ) ( E 8 P 8 8 < 8 p ; ( 8 d & ' M | k b [ N H , O . $ . @ @ . ( ",
"[ 6 6 [ u C Q R 7 9 ; . . S c   & & ; , , , a 1 = 0 * , , I a a < , ; ' & ' ( ' ' ( % . 2   2 . ( ( ' x ( 2 @ ] ( @ ( : 8 J E < < ' 7 8 < < ( d ( < 8   ( 8 ' ( 2 ' 8 8 < z < 0 ( ( 2 % 2 2 ! ~ ! % ~ ~ @ 2 2 2 2 @ ! f ! o 2 2 ( x : p 8 < G 8 d 8 7 d 7 < 4 7 [ 6 6 [ u C Q R 7 9 ; . . S c   & & ; , , , a 1 = 0 * , , I a a < , ; ' & ' ( ' ' ( % . 2   2 . ( ( ' x ( 2 @ ] ( @ ( : 8 J E < < ' 7 8 < < ( d ( < 8   ( 8 ' ( 2 ' 8 8 < z < 0 ( ( 2 % 2 2 ! ~ ! % ~ ~ @ 2 2 2 2 @ ! f ! o 2 2 ( x : p 8 < G 8 d 8 7 d 7 < A+B+C+D+E+F+G+H+I+J+K+L+M+N+O+P+Q+R+S+T+U+V+W+X+Y+Z+`+ @* , , I a a < , ; ' & ' ( ' ' ( % . 2   2 . ( ( ' x ( 2 @ ] ( @ ( : 8 J E < < ' 7 8 < < ( d ( < 8   ( 8 ' ( 2 ' 8 8 < z < 0 ( ( 2 % 2 2 ! ~ ! % ~ ~ @ 2 2 2 2 @ ! f ! o 2 2 ( x : p 8 < G 8 d 8 7 d 7 < 4 7 [ 6 6 [ u C Q R 7 9 ; . . S c   ",
"b 6 6 i 7 7 T U u 7 V @ $   ] + % & e ; * , 7 1 a a , = = = , 7 a < 7 , 8 , 0 0 '   @ @ . ( ( ' ( ( 2 . 2 . ) % 9 @ . . ' 8 < } u } B } 6 < ' 7 . ' ' ' ' d ( ( , 8 7 , J 1 < , & ( & ( ) 2 2 2 % 2 @ @ @ 2 ( ) 2 f ! . 2 . 2 x ' , p 0 p 8 < 8 d , W < 1 X 5 6 b 6 6 i 7 7 T U u 7 V @ $   ] + % & e ; * , 7 1 a a , = = = , 7 a < 7 , 8 , 0 0 '   @ @ . ( ( ' ( ( 2 . 2 . ) % 9 @ . . ' 8 < } u } B } 6 < ' 7 . ' ' ' ' d ( ( , 8 7 , J 1 < , & ( & ( ) 2 2 2 % 2 @ @ @ 2 ( ) 2 f ! . 2 . 2 x ' , p 0 p 8 < 8 d .@+@@@#@$@%@&@&@&@&@&@&@&@&@&@&@&@&@&@&@&@&@&@&@&@&@&@&@&@&@&@&@&@*@=@-@;@>@7 a < 7 , 8 , 0 0 '   @ @ . ( ( ' ( ( 2 . 2 . ) % 9 @ . . ' 8 < } u } B } 6 < ' 7 . ' ' ' ' d ( ( , 8 7 , J 1 < , & ( & ( ) 2 2 2 % 2 @ @ @ 2 ( ) 2 f ! . 2 . 2 x ' , p 0 p 8 < 8 d , W < 1 X 5 6 b 6 6 i 7 7 T U u 7 V @ $   ] + ",
", 7 < W & A 7 B u 4 3 @ + . ~ ~ . & 9 & ( * , , 1 6 1 a a , = , * 0 , 7 < 1 < < , 0 (   ( ( ' ( .   ( ' ' ( . @ . @ & & 0 , , < a u U Y u ,@&@&@&@&@&@&@&@&@&@&@&@&@&@&@&@&@&@&@&@&@&@&@&@&@&@&@&@&@&@&@&@&@&@&@&@'@! 2 ) 2 ( : 8 p , p , ` , d d 8 W < 5 X 6 7 , 7 < W & A 7 B u 4 3 @ + . ~ ~ . & 9 & ( * )@&@&@&@&@&@&@&@&@&@&@&@&@&@&@&@&@&@&@&@&@&@&@&@&@&@&@&@&@&@!@( . @ . @ & & 0 , , < a u U Y u Z = , 1 < , 7 J , ' , d , , J 1 < 0 & ( ( 9 ( & ( ' : ( ' ( ) 2 ( ( . ( . ! 2 ) 2 ( : 8 p , p , ~@{@]@^@/@&@&@&@&@&@&@&@&@&@&@&@&@&@&@&@&@&@&@&@&@&@&@&@&@&@&@&@&@&@&@&@&@&@&@&@&@&@*@(@_@:@7 < 1 < < , 0 (   ( ( ' ( .   ( ' ' ( . @ . @ & & 0 , , < a u U Y u Z = , 1 < , 7 J , ' , d , , J 1 < 0 & ( ( 9 ( & ( ' : ( ' ( ) 2 ( ( . ( . ! 2 ) 2 ( : 8 p , p , ` , d d 8 W < 5 X 6 7 , 7 < W & A 7 B u 4 3 @ + . ~ ~ ",
"' 9 . 3 . > d b [ 4 , g @ + . . @ . % % ' & 0 0 1  .6 6 b a a , ; ; ' 7 J 4 J J 8 8 < 8 8 ' & ) 9 ( ' ' ( (   % ) . 0 d , 7 , a ..U R +.} <@&@&@&@&@&@&@&@&@&@&@&@&@&@&@&@&@&@&@&@&@&@&@&@&@&@&@&@&@&@&@&@&@&@&@&@[@}@2 ( ( : 8 8 d 8 ' d < < p 7 < 8 p , W ' . ' 9 . 3 . > d b [ 4 , g @ + . . @ . % % ' & |@&@&@&@&@&@&@&@&@&@&@&@&@&@&@&@&@&@&@&@&@&@&@&@&@&@&@&@&@&@1@(   % ) . 0 d , 7 , a ..U R +.} u H U C u 1 1 6 < 7 1 a 7 a 1 b 4 7 < = ' ' ' ' ( ( '   ( ' ( ' ( ( ) ( 2 ) 2 ( ( : 8 8 d 2@3@4@5@&@&@&@&@&@&@&@&@&@&@&@&@&@&@&@&@&@&@&@&@&@&@&@&@&@&@&@&@&@&@&@&@&@&@&@&@&@&@&@&@&@&@&@&@&@6@7@8@J J 8 8 < 8 8 ' & ) 9 ( ' ' ( (   % ) . 0 d , 7 , a ..U R +.} u H U C u 1 1 6 < 7 1 a 7 a 1 b 4 7 < = ' ' ' ' ( ( '   ( ' ( ' ( ( ) ( 2 ) 2 ( ( : 8 8 d 8 ' d < < p 7 < 8 p , W ' . ' 9 . 3 . > d b [ 4 , g @ + . . ",
") @ + + . . ; ; 6 6 1 9 ( % ( @ @ . . ) & ( ' ; ; 7 b 1 6 D b , 7 , , , 0 , ' ' ' 0 , 8 < < 8 0 d ' ( ' ' & ( d ' & , ' , 6 j H [ v Q u 6 9@&@&@&@&@&@&@&@&@&@&@&@&@&@&@&@&@&@&@&@&@&@&@&@&@&@&@&@&@&@&@&@&@&@&@&@&@0@( ( ( : , p 8 , p 8 < < 8 8 p , ( . . @ g ) @ + + . . ; ; 6 6 1 9 ( % ( @ @ . . ) & ( a@&@&@&@&@&@&@&@&@&@&@&@&@&@&@&@&@&@&@&@&@&@&@&@&@&@&@&@&@&@!@& ( d ' & , ' , 6 j H [ v Q u 6 [ 1 6 @.#.U C $.u D 7 | D j } 6 b , , d 0 ; ' ' 9 ( & & ( ' ' ' p ' ( ( . ( ( ( ( : b@c@d@e@&@&@&@&@&@&@&@&@&@&@&@&@&@&@&@&@&@&@&@&@&@&@&@&@&@&@&@&@&@&@&@&@&@&@&@&@&@&@&@&@&@&@&@&@&@&@&@&@&@&@&@f@g@h@0 , 8 < < 8 0 d ' ( ' ' & ( d ' & , ' , 6 j H [ v Q u 6 [ 1 6 @.#.U C $.u D 7 | D j } 6 b , , d 0 ; ' ' 9 ( & & ( ' ' ' p ' ( ( . ( ( ( ( : , p 8 , p 8 < < 8 8 p , ( . . @ g ) @ + + . . ; ; 6 6 1 9 ( % ( @ ",
"] ] @ c g g g 9 7 X u } & & . ( . @ . . ( ; ( & & 0 < b j } 6 b a %., , ' ' e ( & ( ( ' ' 8 8 < < < 4 z 4 ' ( ( , , 4 b 6 C &.*.=.H +.[ b i@&@&@&@&@&@&@&@&@&@&@&@&@&@&@&@&@&@&@&@&@&@&@&@&@&@&@&@&@&@&@&@&@&@&@&@&@j@k@( ( ( : , p < < < G < 8 ' : ' ) @ c @ @ ] ] @ c g g g 9 7 X u } & & . ( . @ . . ( ; l@&@&@&@&@&@&@&@&@&@&@&@&@&@&@&@&@&@&@&@&@&@&@&@&@&@&@&@&@&@m@' ( ( , , 4 b 6 C &.*.=.H +.[ b j u Q =.*.Q -.;.>.N *.,.N -.D = | 6 i 7 ' ' ' ' & & ' 9 ' ' d , 8 , ' (   %   ( n@o@p@&@&@&@&@&@&@&@&@&@&@&@&@&@&@&@&@&@&@&@&@&@&@&@&@&@&@&@&@&@&@&@&@&@&@&@&@&@&@&@&@&@&@&@&@&@&@&@&@&@&@&@&@&@&@&@&@q@r@s@' ' 8 8 < < < 4 z 4 ' ( ( , , 4 b 6 C &.*.=.H +.[ b j u Q =.*.Q -.;.>.N *.,.N -.D = | 6 i 7 ' ' ' ' & & ' 9 ' ' d , 8 , ' (   %   ( ( ( : , p < < < G < 8 ' : ' ) @ c @ @ ] ] @ c g g g 9 7 X u } & & . ( ",
"] _ n ] + + 3 . A 5 +.+.' ( f ' % ) ) 2 ' ( ' & ' d , b 6 u u 6 a , , 0 0 , ' ( 0 ( ( % ( ( ' : , < 6 r X < d 8 < < Z 6 u -.C C [ 6 '.} ).<@&@&@&@&@&@&@&@&@&@&@&@&@&@&@&@&@&@&@&@&@&@&@&@&@&@&@&@&@&@&@&@&@&@&@&@&@&@t@( ( : 8 8 < < 8 < G 8 : ( ( ) ! ] { ! ! ] _ n ] + + 3 . A 5 +.+.' ( f ' % ) ) 2 ' ( a@&@&@&@&@&@&@&@&@&@&@&@&@&@&@&@&@&@&@&@&@&@&@&@&@&@&@&@&@&@u@< d 8 < < Z 6 u -.C C [ 6 '.} ).u [ u !.~.-.$.{.'.D D -.N ].>.,.R C | } b d , 7 ' ' d ' 0 d 8 < 4 < 8 ' ' ( v@w@x@&@&@&@&@&@&@&@&@&@&@&@&@&@&@&@&@&@&@&@&@&@&@&@&@&@&@&@&@&@&@&@&@&@&@&@&@&@&@&@&@&@&@&@&@&@&@&@&@&@&@&@&@&@&@&@&@&@&@&@&@&@y@z@( ' : , < 6 r X < d 8 < < Z 6 u -.C C [ 6 '.} ).u [ u !.~.-.$.{.'.D D -.N ].>.,.R C | } b d , 7 ' ' d ' 0 d 8 < 4 < 8 ' ' ( ' ( ( : 8 8 < < 8 < G 8 : ( ( ) ! ] { ! ! ] _ n ] + + 3 . A 5 +.+.' ( f ' ",
"^ ] ^.^ + . c 3 & , X [ Z ; ; % . ) .   ( ' ' ( ; 0 , , b u '.b 1 J 7 , ' & % . % ( & ( ) 2 ( ( ' 9 ' < < G } /.6 1 6 b 6 (.-.H $.[ } [ D 9@&@&@&@&@&@&@&@&@&@&@&@&@&@&@&@&@&@&@&@&@&@&@&@&@&@&@&@&@&@&@&@&@&@&@&@&@&@&@A@E d 8 < < G G 8 8 : 2   ( ! { ] { ] ^ ^ ] ^.^ + . c 3 & , X [ Z ; ; % . ) .   ( ' a@&@&@&@&@&@&@&@&@&@&@&@&@&@&@&@&@&@&@&@&@&@&@&@&@&@&@&@&@&@B@G } /.6 1 6 b 6 (.-.H $.[ } [ D [ '._.:.<.'.[.).D D [ [ }.'.j -.,.#.Y Q u | | 7 7 d 7 , 7 | < < 1 < < < C@D@E@&@&@&@&@&@&@&@&@&@&@&@&@&@&@&@&@&@&@&@&@&@&@&@&@&@&@&@&@&@&@&@&@&@&@&@&@&@&@&@&@&@&@&@&@&@&@&@&@&@&@&@&@&@&@&@&@&@&@&@&@&@&@&@&@&@F@G@( ' 9 ' < < G } /.6 1 6 b 6 (.-.H $.[ } [ D [ '._.:.<.'.[.).D D [ [ }.'.j -.,.#.Y Q u | | 7 7 d 7 , 7 | < < 1 < < < 8 , E : E d 8 < < G G 8 8 : 2   ( ! { ] { ] ^ ^ ] ^.^ + . c 3 & , X [ Z ; ; % ",
"] ^ # ] ] ] @ . + |.1 1 4 7 d & . & ( . 2 ( : ' 8 d , < 6 j [ j X 1 7 , d , ' ' (   2 2 ( ) 2 ) ( ' ' ' 8 d 8 < 5 /.u u $.1.[ ,.$.[ [ $.C H@&@&@&@&@&@&@&@&@&@&@&@&@&@&@&@&@&@&@&@&@&@&@&@&@&@&@&@&@&@&@&@&@&@&@&@&@&@&@I@: 8 G < z 9.G p : ( ) ) ) ) @ ] ] ] ] ] ^ # ] ] ] @ . + |.1 1 4 7 d & . & ( . 2 ( J@&@&@&@&@&@&@&@&@&@&@&@&@&@&@&@&@&@&@&@&@&@&@&@&@&@&@&@&@&@K@d 8 < 5 /.u u $.1.[ ,.$.[ [ $.C '.2.3.4.5.6.7.D | [ 1 [ X X X T $.H *.;.8.:.N $.u 6 D 1 6 } } 6 6 5 L@M@x@&@&@&@&@&@&@&@&@&@&@&@&@&@&@&@&@&@&@&@&@&@&@&@&@&@&@&@&@&@&@&@&@&@&@&@&@&@&@&@&@&@&@&@&@&@&@&@&@&@&@&@&@&@&@&@&@&@&@&@&@&@&@&@&@&@&@&@&@&@N@O@' ' ' 8 d 8 < 5 /.u u $.1.[ ,.$.[ [ $.C '.2.3.4.5.6.7.D | [ 1 [ X X X T $.H *.;.8.:.N $.u 6 D 1 6 } } 6 6 5 1 < 8 ' p , : 8 G < z 9.G p : ( ) ) ) ) @ ] ] ] ] ] ^ # ] ] ] @ . + |.1 1 4 7 d & ",
"^ 0.^ a.] / c @ c & d 7 7 d b.3 9 ( ( ( . x 0 x ' : , < 1 6 j 6 [ 6 4 , , d ' ( ( % ( ) ) 2 ) 2 ) ) ( ' ( ( ' ' & 1 < X u >.*.c.~.=.C }.-.P@&@&@&@&@&@&@&@&@&@&@&@&@&@&@&@&@&@&@&@&@&@&@&@&@&@&@&@&@&@&@&@&@&@&@&@&@&@&@&@Q@  : < G G 8 : : x g.( ) ! ] ] ] + + ^ 0.^ a.] / c @ c & d 7 7 d b.3 9 ( ( ( . x |@&@&@&@&@&@&@&@&@&@&@&@&@&@&@&@&@&@&@&@&@&@&@&@&@&@&@&@&@&@1@( ' ' & 1 < X u >.*.c.~.=.C }.-._._.d.e.4.f.}.b j | 1 5 5 5 [ 6 X $.(.6 H ~.!.:.@.*.u | } Q +.6 i R@S@&@&@&@&@&@&@&@&@&@&@&@&@&@&@&@&@&@&@&@&@&@&@&@&@&@&@&@&@&@&@&@&@&@&@&@&@&@&@&@&@&@&@&@&@&@&@&@&@&@&@&@&@&@&@&@&@&@&@&@&@&@&@&@&@&@&@&@&@&@&@&@&@T@U@V@' ( ( ' ' & 1 < X u >.*.c.~.=.C }.-._._.d.e.4.f.}.b j | 1 5 5 5 [ 6 X $.(.6 H ~.!.:.@.*.u | } Q +.6 i 5 4 < < < G < :   : < G G 8 : : x g.( ) ! ] ] ] + + ^ 0.^ a.] / c @ c & d 7 7 d b.3 ",
"# # ^.# ^ ] ] @ . 9 ( ; 7 7 l 9 ; ( &   2 ( ( x E E < 4 6 5 6 6 X 1 4 < 7 , ' & |.( ) % ) ! 2 ) ) & ( ' (   (   . , d 1 | H H @.c.].].:.].W@&@&@&@&@&@&@&@&@&@&@&@&@&@&@&@&@&@&@&@&@&@&@&@&@&@&@&@&@&@&@&@&@&@&@&@&@&@&@&@X@< z < ` p ' x : ( x g.( ! @ c c ] ^ # # ^.# ^ ] ] @ . 9 ( ; 7 7 l 9 ; ( &   2 ( l@&@&@&@&@&@&@&@&@&@&@&@&@&@&@&@&@&@&@&@&@&@&@&@&@&@&@&@&@&@1@  (   . , d 1 | H H @.c.].].:.].*.d.5.h.i.d.6.j.} b r X X X X X X r u /.B X 6 +.1.#.k.>.#.U '.Y@Z@`@&@&@&@&@&@&@&@&@&@&@&@&@&@&@&@&@&@&@&@&@&@&@&@&@&@&@&@&@&@&@&@&@&@&@&@&@&@&@&@&@&@&@&@&@&@&@&@&@&@&@&@&@&@&@&@&@&@&@&@&@&@&@&@&@&@&@&@&@&@&@&@&@&@&@&@ #.#(   (   . , d 1 | H H @.c.].].:.].*.d.5.h.i.d.6.j.} b r X X X X X X r u /.B X 6 +.1.#.k.>.#.U '.X H B ; , ` 7 < < < < z < ` p ' x : ( x g.( ! @ c c ] ^ # # ^.# ^ ] ] @ . 9 ( ; 7 7 l 9 ",
"^.^ # ] ^ + ] ] . . 9 9 d 7 7 7 ' ; ( %   ( 2 ) ( ' 8 F 1 6 1 1 1 1 1 4 < < ' ' ( ( % ) ! @ ! 2 .   : ' : (   ( ' d ' < ; 6 6 $.:.:.c.l.m.+#&@&@&@&@&@&@&@&@&@&@&@&@&@&@&@&@&@&@&@&@&@&@&@&@&@&@&@&@&@&@&@&@&@&@&@&@&@&@&@&@@#< < p : (   x   ) g.) ) ) ) ! c # ^.^ # ] ^ + ] ] . . 9 9 d 7 7 7 ' ; ( %   ( ##&@&@&@&@&@&@&@&@&@&@&@&@&@&@&@&@&@&@&@&@&@&@&@&@&@&@&@&@&@$#(   ( ' d ' < ; 6 6 $.:.:.c.l.m.].n.o.4.p.n.}.C '.j X q q.q q.q X 9.5 G X q r.B s.u +.;.;.@.%#&#&@&@&@&@&@&@&@&@&@&@&@&@&@&@&@&@&@&@&@&@&@&@&@&@&@&@&@&@&@&@&@&@&@&@&@&@&@&@&@&@&@&@&@&@&@&@&@&@&@&@&@&@&@&@&@&@&@&@&@&@&@&@&@&@&@&@&@&@&@&@&@&@&@&@&@&@&@&@*#=#-#  ( ' d ' < ; 6 6 $.:.:.c.l.m.].n.o.4.p.n.}.C '.j X q q.q q.q X 9.5 G X q r.B s.u +.;.;.@.c.>.u 6 } 4 1 4 < 4 < < < < p : (   x   ) g.) ) ) ) ! c # ^.^ # ] ^ + ] ] . . 9 9 d 7 7 7 ",
"] ] ^ ] ^ ~ ] ~ ] ~ c 3 9 ; d 7 d &   9 2 ) ( 2 ) x x 8 8 8 7 , < < < J < < 8 ' ' ( ) @ @ @ . @ . ) (   (   ( . ( ( ( 7 d 5 u u Q ,.!.3.t.;#&@&@&@&@&@&@&@&@&@&@&@&@&@&@&@&@&@&@&@&@&@&@&@&@&@&@&@&@&@&@&@&@&@&@&@&@&@&@&@&@>#,#8 ' (   :   ) ! ! ) ) K (   @ ^.] ] ^ ] ^ ~ ] ~ ] ~ c 3 9 ; d 7 d &   9 2 ) l@&@&@&@&@&@&@&@&@&@&@&@&@&@&@&@&@&@&@&@&@&@&@&@&@&@&@&@&@&@1@  ( . ( ( ( 7 d 5 u u Q ,.!.3.t.u.v.w.x.y.n.'.-.$.6 7 5 5 5 9.z.A.h G A.9.9.h h < h /.B.;.'#)#&@&@&@&@&@&@&@&@&@&@&@&@&@&@&@&@&@&@&@&@&@&@&@&@&@&@&@&@&@&@&@&@&@&@&@&@&@&@&@&@&@&@&@&@&@&@&@&@&@&@&@&@&@&@&@&@&@&@&@&@&@&@&@&@&@&@&@&@&@&@&@&@&@&@&@&@&@&@&@&@&@!#~#. ( ( ( 7 d 5 u u Q ,.!.3.t.u.v.w.x.y.n.'.-.$.6 7 5 5 5 9.z.A.h G A.9.9.h h < h /.B.;.#.Q U C.:.[ 4 b 6 6 6 6 < d 8 ' (   :   ) ! ! ) ) K (   @ ^.] ] ^ ] ^ ~ ] ~ ] ~ c 3 9 ; d 7 ",
"s ] _ ] _ ] ~ ] ] ~ g @ $ . l < 7 d & 9 ( . 2 ) 2 ( ' E d E p 8 d 8 8 8 < 8 p 8 ( ( & 2 . 2 . ) 2 9 ( ' ( ( ) ( ( ' ( 4 z 5 r X +.D.Q }.2.{#&@&@&@&@&@&@&@&@&@&@&@&@&@&@&@&@&@&@&@&@&@&@&@&@&@&@&@&@&@&@&@&@&@&@&@&@&@&@&@&@&@]#: '   : : x x ) ! ) ) x : ( ) c s ] _ ] _ ] ~ ] ] ~ g @ $ . l < 7 d & 9 ( . ##&@&@&@&@&@&@&@&@&@&@&@&@&@&@&@&@&@&@&@&@&@&@&@&@&@&@&@&@&@1@( ) ( ( ' ( 4 z 5 r X +.D.Q }.2.E.F.w.v.G.8.,.'.C 4 6 B.h h h h H.L P I.G I.G A.A.h X ^#/#&@&@&@&@&@&@&@&@&@&@&@&@&@&@&@&@&@&@&@&@&@&@&@&@&@&@&@&@&@&@&@&@&@&@&@&@&@&@&@&@&@&@&@&@&@&@&@&@&@&@&@&@&@&@&@&@&@&@&@&@&@&@&@&@&@&@&@&@&@&@&@&@&@&@&@&@&@&@&@&@&@&@&@&@(#_#( ' ( 4 z 5 r X +.D.Q }.2.E.F.w.v.G.8.,.'.C 4 6 B.h h h h H.L P I.G I.G A.A.h X T u B $.6 [ J.@.H B T j X } 6 4 : '   : : x x ) ! ) ) x : ( ) c s ] _ ] _ ] ~ ] ] ~ g @ $ . l < ",
"] _ ] { ^ { ^ ] ~ ] @ . . . 0 1 6 < ( ( & 2 ) 2 ( x : E : E : E ' ( ' x ' E ' 8 ' : ' ' ( ( ( ( ' ' : ' ' ' ( ( : 8 E < z 4 } 5 $.-.C -.2.:#&@&@&@&@&@&@&@&@&@&@&@&@&@&@&@&@&@&@&@&@&@&@&@&@&@&@&@&@&@&@&@&@&@&@&@&@&@&@&@&@&@<#[#' ' : : (   K ) K ( g.K ) ) ! ] _ ] { ^ { ^ ] ~ ] @ . . . 0 1 6 < ( ( & 2 }#&@&@&@&@&@&@&@&@&@&@&@&@&@&@&@&@&@&@&@&@&@&@&@&@&@&@&@&@&@!@' ( ( : 8 E < z 4 } 5 $.-.C -.2.K.n.L.u.M.].].B X b T 1 4 G h G G N.N.I.L O.g.N.P.h |#1#&@&@&@&@&@&@&@&@&@&@&@&@&@&@&@&@&@&@&@&@&@&@&@&@&@&@&@&@&@&@&@&@&@&@&@&@&@&@&@&@&@&@&@&@&@&@&@&@&@&@&@&@&@&@&@&@&@&@&@&@&@&@&@&@&@&@&@&@&@&@&@&@&@&@&@&@&@&@&@&@&@&@&@&@&@&@2#3#8 E < z 4 } 5 $.-.C -.2.K.n.L.u.M.].].B X b T 1 4 G h G G N.N.I.L O.g.N.P.h Q.r B.[ X 6 [ 5 6 >.R U H u 6 1 , d ' ' : : (   K ) K ( g.K ) ) ! ] _ ] { ^ { ^ ] ~ ] @ . . . 0 1 ",
"] m _ ] ] ~ s ^ ] # ] @ . 9 , 4 } 1 0 ; ( % ) 2 ) 2 x ( x ( x : x ( x ( ( ( ' : 8 8 8 8 8 ' 8 ' ' 8 8 p ' (   x ( 8 : 8 z < q } 6 $.(.2.R.4#&@&@&@&@&@&@&@&@&@&@&@&@&@&@&@&@&@&@&@&@&@&@&@&@&@&@&@&@&@&@&@&@&@&@&@&@&@&@&@&@&@&@5#p ' : : ( K ) ) ) ! ! @ n ~ c ] m _ ] ] ~ s ^ ] # ] @ . 9 , 4 } 1 0 ; ( % }#&@&@&@&@&@&@&@&@&@&@&@&@&@&@&@&@&@&@&@&@&@&@&@&@&@&@&@&@&@!@(   x ( 8 : 8 z < q } 6 $.(.2.R.L.4.K.v.!.$.Y >.B [ < 4 4 < < G S.N.O.K N.N.g.T.S.6#7#&@&@&@&@&@&@&@&@&@&@&@&@&@&@&@&@&@&@&@&@&@&@&@&@&@&@&@&@&@&@&@&@&@&@&@&@&@&@&@&@&@&@&@&@&@&@&@&@&@&@&@&@&@&@&@&@&@&@&@&@&@&@&@&@&@&@&@&@&@&@&@&@&@&@&@&@&@&@&@&@&@&@&@&@&@&@&@&@8#9#: 8 z < q } 6 $.(.2.R.L.4.K.v.!.$.Y >.B [ < 4 4 < < G S.N.O.K N.N.g.T.S.P.z.X 5 B.5 < 4 5 6 < u U.R Y +.6 < < p ' : : ( K ) ) ) ! ! @ n ~ c ] m _ ] ] ~ s ^ ] # ] @ . 9 , 4 ",
"^ ^ ^ ^ s ^ ! { ! ! @ . ( ( < < u 6 7 ' ( & . @ ) ( x x x x 2 y 2 y ( y ( x ( x ' ' ' 8 < < < < < 8 d E : ' x ( x E < F B.z 1 4 X C u ~.V.4#&@&@&@&@&@&@&@&@&@&@&@&@&@&@&@&@&@&@&@&@&@&@&@&@&@&@&@&@&@&@&@&@&@&@&@&@&@&@&@&@&@&@0#a#: ' ) ) ) x ! ] _ ] _ ] ] ] ^ ^ ^ ^ s ^ ! { ! ! @ . ( ( < < u 6 7 ' ( & b#&@&@&@&@&@&@&@&@&@&@&@&@&@&@&@&@&@&@&@&@&@&@&@&@&@&@&@&@&@$#' x ( x E < F B.z 1 4 X C u ~.V.L.w.W.H C $.B +.&.B &.6 B.4 < p : : : g.g.g.T.T.c#d#&@&@&@&@&@&@&@&@&@&@&@&@&@&@&@&@&@&@&@&@&@&@&@&@&@&@&@&@&@&@&@&@&@&@&@&@&@&@&@&@&@&@&@&@&@&@&@&@&@&@&@&@&@&@&@&@&@&@&@&@&@&@&@&@&@&@&@&@&@&@&@&@&@&@&@&@&@&@&@&@&@&@&@&@&@&@&@&@&@&@&@M@F B.z 1 4 X C u ~.V.L.w.W.H C $.B +.&.B &.6 B.4 < p : : : g.g.g.T.T.p P.z.` 5 5 < < h 5 < 5 r B 5 Z B X.r 5 4 : ' ) ) ) x ! ] _ ] _ ] ] ] ^ ^ ^ ^ s ^ ! { ! ! @ . ( ( < < ",
"] _ ^ s ^ { ] { @ ! @ ! . ( p , 1 < , & & % ( 2 ) 2 x Y.x x K 2 g.2 K ) x ) ( (   ( ' ' ' p < 8 < 8 8 8 d 8 : ' : 8 8 < z 5 X r u B K.2.E.4#&@&@&@&@&@&@&@&@&@&@&@&@&@&@&@&@&@&@&@&@&@&@&@&@&@&@&@&@&@&@&@&@&@&@&@&@&@&@&@&@&@&@&@e#< : : : x n _ ] ^ ] _ { ] _ ] _ ^ s ^ { ] { @ ! @ ! . ( p , 1 < , & & % l@&@&@&@&@&@&@&@&@&@&@&@&@&@&@&@&@&@&@&@&@&@&@&@&@&@&@&@&@&@f#8 : ' : 8 8 < z 5 X r u B K.2.E.L.Z.M.=.r } X q.u B &.>.H z.d d p : : G g.c ) g#h#&@&@&@&@&@&@&@&@&@&@&@&@&@&@&@&@&@&@&@&@&@&@&@&@&@&@&@&@&@&@&@&@&@&@&@&@&@&@&@&@&@&@&@&@&@&@&@&@&@&@&@&@&@&@&@&@&@&@&@&@&@&@&@&@&@&@&@&@&@&@&@&@&@&@&@&@&@&@&@&@&@&@&@&@&@&@&@&@&@&@&@&@&@M@z 5 X r u B K.2.E.L.Z.M.=.r } X q.u B &.>.H z.d d p : : G g.c )   p p ` G < G G < < G < < z J , 8 Z `.q 9.5 < : : : x n _ ] ^ ] _ { ] _ ] _ ^ s ^ { ] { @ ! @ ! . ( p , ",
"_ ] _ ] { ] { ! _ ~ c @ @ ( ' 8 7 , , ' & ) & 2 . 2   x ( y ( K 2 K 2 ) ) ! ) ! 2 )   ( ( ' p 8 < < p 8 p E d E : 8 < < < 1 q +...=.#.(.w.{#&@&@&@&@&@&@&@&@&@&@&@&@&@&@&@&@&@&@&@&@&@&@&@&@&@&@&@&@&@&@&@&@&@&@&@&@&@&@&@&@&@&@&@5@i#G (   ) ! ! _ ] s ~ ] ^ _ _ ] _ ] { ] { ! _ ~ c @ @ ( ' 8 7 , , ' & ) j#&@&@&@&@&@&@&@&@&@&@&@&@&@&@&@&@&@&@&@&@&@&@&@&@&@&@&@&@&@k#E d E : 8 < < < 1 q +...=.#.(.w.E. +3.H r z h z z.X $...Q H r 4 d ' |.d   .+l#m#&@&@&@&@&@&@&@&@&@&@&@&@&@&@&@&@&@&@&@&@&@&@&@&@&@&@&@&@&@&@&@&@&@&@&@&@&@&@&@&@&@&@&@&@&@&@&@&@&@&@&@&@&@&@&@&@&@&@&@&@&@&@&@&@&@&@&@&@&@&@&@&@&@&@&@&@&@&@&@&@&@&@&@&@&@&@&@&@&@&@&@&@&@&@&@n#1 q +...=.#.(.w.E. +3.H r z h z z.X $...Q H r 4 d ' |.d   .+) |.p 4 h h 8 8 G G 8 < G J G 8 : < z z 1 z r r.G (   ) ! ! _ ] s ~ ] ^ _ _ ] _ ] { ] { ! _ ~ c @ @ ( ' 8 ",
"{ ] { ] ] { ~ _ ~ _ @ ! . 2 ( ' , , , , ' ( & . 2   ( x ( y ) y 2 K 2 ++2 ! ! ! . ) . .   ( ' ' < 8 < 8 8 8 : d E < < J < 6 r H U J.U ;.3.o#&@&@&@&@&@&@&@&@&@&@&@&@&@&@&@&@&@&@&@&@&@&@&@&@&@&@&@&@&@&@&@&@&@&@&@&@&@&@&@&@&@&@&@&@p#q.8 x g.x ) ! _ { _ _ c { { ] { ] ] { ~ _ ~ _ @ ! . 2 ( ' , , , , ' ( j#&@&@&@&@&@&@&@&@&@&@&@&@&@&@&@&@&@&@&@&@&@&@&@&@&@&@&@&@&@K@8 : d E < < J < 6 r H U J.U ;.3.@+u.U B q.z G h < ` 4 | X H ..&.5 | , p , q#r#&@&@&@&@&@&@&@&@&@&@&@&@&@&@&@&@&@&@&@&@&@&@&@&@&@&@&@&@&@&@&@&@&@&@&@&@&@&@&@&@&@&@&@&@&@&@&@&@&@&@&@&@&@&@&@&@&@&@&@&@&@&@&@&@&@&@&@&@&@&@&@&@&@&@&@&@&@&@&@&@&@&@&@&@&@&@&@&@&@&@&@&@&@&@&@&@s#t#r H U J.U ;.3.@+u.U B q.z G h < ` 4 | X H ..&.5 | , p , ' d ' |.p < < L 8 < < L < G 8 p E < F h z 5 s.r.X.q.8 x g.x ) ! _ { _ _ c { { ] { ] ] { ~ _ ~ _ @ ! . 2 ( ' ",
"n ! ] _ ~ _ ~ ! ] ! . ) ( ( ' ( & & * 0 7 , ' ( & ( ( (     ( g.( y ) 2 ! ! @ @ @ @ ! ) ( ( ' : : 8 p 8 p ' 8 p , < 4 1 6 X $...X.H $.;.d.u#&@&@&@&@&@&@&@&@&@&@&@&@&@&@&@&@&@&@&@&@&@&@&@&@&@&@&@&@&@&@&@&@&@&@&@&@&@&@&@&@&@&@&@&@%@v#q.9.8 x ) ! { n ! ! ++) n ! ] _ ~ _ ~ ! ] ! . ) ( ( ' ( & & * 0 7 , a@&@&@&@&@&@&@&@&@&@&@&@&@&@&@&@&@&@&@&@&@&@&@&@&@&@&@&@&@&@k#' 8 p , < 4 1 6 X $...X.H $.;.d.~.#+Q } $+%+G L p ` d 4 < < 6 B H T [ 7 w#x#&@&@&@&@&@&@&@&@&@&@&@&@&@&@&@&@&@&@&@&@&@&@&@&@&@&@&@&@&@&@&@&@&@&@&@&@&@&@&@&@&@&@&@&@&@&@&@&@&@&@&@&@&@&@&@&@&@&@&@&@&@&@&@&@&@&@&@&@&@&@&@&@&@&@&@&@&@&@&@&@&@&@&@&@&@&@&@&@&@&@&@&@&@&@&@&@&@&@y#z#..X.H $.;.d.~.#+Q } $+%+G L p ` d 4 < < 6 B H T [ 7 7 d ' ' 8 8 < 8 8 < : 8 < < 8 , ' ' 8 < h q r.&+r 5 9.q.9.8 x ) ! { n ! ! ++) n ! ] _ ~ _ ~ ! ] ! . ) ( ( ' ( ",
"@ ! n @ _ ~ n { @ ! ) ( ' ( ; ( , 0 0 , 4 J , ' ' ( ' ' x ) x   y ) y ) ! ! ! ! c @ ! .   ( ' ( ' p 8 < 8 8 p 8 8 < 6 X } u Q Y /.+.H -.V.A#&@&@&@&@&@&@&@&@&@&@&@&@&@&@&@&@&@&@&@&@&@&@&@&@&@&@&@&@&@&@&@&@&@&@&@&@&@&@&@&@&@&@&@&@&@B#9.z S.L O.x ! K ! ! { ! @ ! n @ _ ~ n { @ ! ) ( ' ( ; ( , 0 0 , 4 J )@&@&@&@&@&@&@&@&@&@&@&@&@&@&@&@&@&@&@&@&@&@&@&@&@&@&@&@&@&@K@8 p 8 8 < 6 X } u Q Y /.+.H -.V.,.w.$.q $+I.L S.p p 4 h 8 d < 6 u $.$.u C#&@&@&@&@&@&@&@&@&@&@&@&@&@&@&@&@&@&@&@&@&@&@&@&@&@&@&@&@&@&@&@&@&@&@&@&@&@&@&@&@&@&@&@&@&@&@&@&@&@&@&@&@&@&@&@&@&@&@&@&@&@&@&@&@&@&@&@&@&@&@&@&@&@&@&@&@&@&@&@&@&@&@&@&@&@&@&@&@&@&@&@&@&@&@&@&@&@&@&@&@D#E#/.+.H -.V.,.w.$.q $+I.L S.p p 4 h 8 d < 6 u $.$.u 6 , , 8 z F L ' 8 < d , 8 < 8 d 8 h z 5 5 5 q r 4 p G 9.z S.L O.x ! K ! ! { ! @ ! n @ _ ~ n { @ ! ) ( ' ( ; ( ",
"! c ! ! ! ! ! ! ) ) 2   ( ( ' ( a 7 , , I < 7 J ' p ' :   (   x 2 K ) ! ) ! @ @ { @ @ ) ) ( ( : ' 8 < < < 8 < 4 1 1 5 X u $.Q Q Y r H $.(.F#&@&@&@&@&@&@&@&@&@&@&@&@&@&@&@&@&@&@&@&@&@&@&@&@&@&@&@&@&@&@&@&@&@&@&@&@&@&@&@&@&@&@&@&@&@G#H#  x N.E K K ! ++_ _ ] ! c ! ! ! ! ! ! ) ) 2   ( ( ' ( a 7 , , I < I#&@&@&@&@&@&@&@&@&@&@&@&@&@&@&@&@&@&@&@&@&@&@&@&@&@&@&@&@&@B@8 < 4 1 1 5 X u $.Q Q Y r H $.(.V.:.U r 9.%+P N.: ` ` 8 < < < 7 | 6 u J#&@&@&@&@&@&@&@&@&@&@&@&@&@&@&@&@&@&@&@&@&@&@&@&@&@&@&@&@&@&@&@&@&@&@&@&@&@&@&@&@&@&@&@&@&@&@&@&@&@&@&@&@&@&@&@&@&@&@&@&@&@&@&@&@&@&@&@&@&@&@&@&@&@&@&@&@&@&@&@&@&@&@&@&@&@&@&@&@&@&@&@&@&@&@&@&@&@&@&@&@&@&@K#L#r H $.(.V.:.U r 9.%+P N.: ` ` 8 < < < 7 | 6 u ;.=.+.6 J %.E 2 , 8 7 %., , < 4 < z 5 5 5 4 8 ' d : ' : :   x N.E K K ! ++_ _ ] ! c ! ! ! ! ! ! ) ) 2   ( ( ' ( ",
") ! ) ! @ ! ! ) 2 2 ) 2   ( ' ' ' 0 ' & 0 , J 5 , 8 8 ' ' g.( x ) 2 ) o ! ! ] ! @ n @ @ @   ( : ' 8 < h G G z z 5 5 } X u $.B H /.5 T -.).M#&@&@&@&@&@&@&@&@&@&@&@&@&@&@&@&@&@&@&@&@&@&@&@&@&@&@&@&@&@&@&@&@&@&@&@&@&@&@&@&@&@&@&@&@&@&@N#K ) ! ! { ! ++) ! ! ++) ! ) ! @ ! ! ) 2 2 ) 2   ( ' ' ' 0 ' & 0 , O#&@&@&@&@&@&@&@&@&@&@&@&@&@&@&@&@&@&@&@&@&@&@&@&@&@&@&@&@&@P#G z z 5 5 } X u $.B H /.5 T -.).(.#.*+X.q $+H.S.T.p p G 8 8 : , 7 | Q#R#&@&@&@&@&@&@&@&@&@&@&@&@&@&@&@&@&@&@&@&@&@&@&@&@&@&@&@&@&@&@&@&@&@&@&@&@&@&@&@&@&@&@&@S#T#U#V#W#X#Y#Z#`# $h@.$+$@$#$$$%$&@&@&@&@&@&@&@&@&@&@&@&@&@&@&@&@&@&@&@&@&@&@&@&@&@&@&@&@&@&@&@&@&@&@&@&@&@&@&@&@&@&@&@&$5 T -.).(.#.*+X.q $+H.S.T.p p G 8 8 : , 7 | b 6 C =.+.Z J %.J J 7 7 1 1 d , 5 z < ' ) .   9 )   ( ) ) ! K ) ! ! { ! ++) ! ! ++) ! ) ! @ ! ! ) 2 2 ) 2   ( ' ' ",
") ) . n . ) ( ) ! ) ) ) ( ( ) 2 (   ( ' : 0 0 , a , ; , ( ( p ) x ( ( ) 2 2 ) ) ) ) .   ' ' ' ' 8 < < 8 < 1 5 q 5 5 X X 5 5 X q 9.5 5 z.} <@&@&@&@&@&@&@&@&@&@&@&@&@&@&@&@&@&@&@&@&@&@&@&@&@&@&@&@&@&@&@&@&@&@&@&@&@&@&@&@&@&@&@&@&@&@&@&@*$++n _ =+_ _ { -+! ++) ) . n . ) ( ) ! ) ) ) ( ( ) 2 (   ( ' : 0 |@&@&@&@&@&@&@&@&@&@&@&@&@&@&@&@&@&@&@&@&@&@&@&@&@&@&@&@&@&@B@1 5 q 5 5 X X 5 5 X q 9.5 5 z.} u u ..k.q 5 h G p h : p S.p 8 < < p =$&@&@&@&@&@&@&@&@&@&@&@&@&@&@&@&@&@&@&@&@&@&@&@&@&@&@&@&@&@&@&@&@&@&@&@&@&@&@&@&@&@-$;$>$. ) ( ) ! ) ) ) ( ( ) 2 (   ( ' ,$'$)$!$&@&@&@&@&@&@&@&@&@&@&@&@&@&@&@&@&@&@&@&@&@&@&@&@&@&@&@&@&@&@&@&@&@&@&@&@&@&@&@&@~${$5 z.} u u ..k.q 5 h G p h : p S.p 8 < < p 6 4 6 6 i u -.+.j ).[ 1 | 1 5 z p ' ( : 2 ) ! ) : ) ++! ! ++! ++n _ =+_ _ { -+! ++) ) . n . ) ( ) ! ) ) ) ( ( ) 2 ",
". ) ) @ ) ) g.) @ ) ! ) ) K ) ! ) ! ) 2 ) % ( ' Z 6 < , ' ( : ) ( x (   x ) ( 2 ( ) % ) ( ( ' ( d 0 8 , 8 < < z G 5 9.5 5 z.z.X h h h 4 5 ]$&@&@&@&@&@&@&@&@&@&@&@&@&@&@&@&@&@&@&@&@&@&@&@&@&@&@&@&@&@&@&@&@&@&@&@&@&@&@&@&@&@&@&@&@&@&@&@^$! ++++n ++! _ ! =+n . ) ) @ ) ) g.) @ ) ! ) ) K ) ! ) ! ) 2 ) % l@&@&@&@&@&@&@&@&@&@&@&@&@&@&@&@&@&@&@&@&@&@&@&@&@&@&@&@&@&@K@< < z G 5 9.5 5 z.z.X h h h 4 5 5 X +.J.@.5 1 d z p G S.p p : p p /$&@&@&@&@&@&@&@&@&@&@&@&@&@&@&@&@&@&@&@&@&@&@&@&@&@&@&@&@&@&@&@&@&@&@&@&@&@&@&@($_$:$) ) @ ) ) g.) @ ) ! ) ) K ) ! ) ! ) 2 ) % ( q#<$[$&@&@&@&@&@&@&@&@&@&@&@&@&@&@&@&@&@&@&@&@&@&@&@&@&@&@&@&@&@&@&@&@&@&@&@&@&@&@&@}$|$4 5 5 X +.J.@.5 1 d z p G S.p p : p p d < 7 | 1 | k 7 ;+$.C $.$.u X 1 d % ) ) ) ) ! ! ! { n ++n ++n -+! ++++n ++! _ ! =+n . ) ) @ ) ) g.) @ ) ! ) ) K ) ! ",
"! ) ) ) ) ( ) ) ) n ! n { n _ c ! ) ! ! ) 2 ( 0 4 6 7 7 d ( 8 x x   2 x ( x ( ) ( ) ) ) &   &   ' 0 , 8 8 p 8 8 < G h h 4 h 4 h p G ` h 6 ]$&@&@&@&@&@&@&@&@&@&@&@&@&@&@&@&@&@&@&@&@&@&@&@&@&@&@&@&@&@&@&@&@&@&@&@&@&@&@&@&@&@&@&@&@&@&@&@&@1$n ) ! n n n ! ! ! ! ) ) ) ) ( ) ) ) n ! n { n _ c ! ) ! ! ) 2 l@&@&@&@&@&@&@&@&@&@&@&@&@&@&@&@&@&@&@&@&@&@&@&@&@&@&@&@&@&@K@p 8 8 < G h h 4 h 4 h p G ` h 6 5 ).H -.>+>.4 < 4 < < p 8 p p < 2$3$&@&@&@&@&@&@&@&@&@&@&@&@&@&@&@&@&@&@&@&@&@&@&@&@&@&@&@&@&@&@&@&@&@&@&@&@&@&@4$5$! ! ) ) ) ) ( ) ) ) n ! n { n _ c ! ) ! ! ) 2 ( 0 4 6$7$8$&@&@&@&@&@&@&@&@&@&@&@&@&@&@&@&@&@&@&@&@&@&@&@&@&@&@&@&@&@&@&@&@&@&@&@&@&@&@9$h 6 5 ).H -.>+>.4 < 4 < < p 8 p p < 8 , < < ; ; b [ i D j -.H u B., d ( ) @ @ { ~ ! n c ^ ! n ! n ! ! K n ) ! n n n ! ! ! ! ) ) ) ) ( ) ) ) n ! n { n _ c ",
"    ) 2   ) ! n ! @ n ] ~ _ ~ _ n _ c ! ! ) ( 7 0 6 6 1 4 , 8 : ' ( x ( x   x ) x 2 2 . ) . ) & ( ' ' , ' E d : 8 < < h < < ` ` p G < < B.D+&@&@&@&@&@&@&@&@&@&@&@&@&@&@&@&@&@&@&@&@&@&@&@&@&@&@&@&@&@&@&@&@&@&@&@&@&@&@&@&@&@&@&@&@&@&@&@&@0$) ) ) n ! ! K ) g.    ) 2   ) ! n ! @ n ] ~ _ ~ _ n _ c ! ! ) l@&@&@&@&@&@&@&@&@&@&@&@&@&@&@&@&@&@&@&@&@&@&@&@&@&@&@&@&@&@!@E d : 8 < < h < < ` ` p G < < B.6 [ H D.Q ,+H | z 1 < ' 8 < < 4 a$&@&@&@&@&@&@&@&@&@&@&@&@&@&@&@&@&@&@&@&@&@&@&@&@&@&@&@&@&@&@&@&@&@&@&@&@&@b$c$K ) g.    ) 2   ) ! n ! @ n ] ~ _ ~ _ n _ c ! ! ) ( 7 0 6 6 d$e$&@&@&@&@&@&@&@&@&@&@&@&@&@&@&@&@&@&@&@&@&@&@&@&@&@&@&@&@&@&@&@&@&@&@&@&@&@f$g$B.6 [ H D.Q ,+H | z 1 < ' 8 < < 4 < 7 < | 4 1 1 7 b C >.[ 4 7 ; . . . . ) ! ~ _ c ~ ! n ) ! n n n ) n ) ) ) n ! ! K ) g.    ) 2   ) ! n ! @ n ] ~ _ ~ _ ",
"x x g.x g.y ! ! n { ] _ ] { _ { n _ ] _ @ @ ) ' b +.u j } < 7 ' : : ( x x 2 ) ) y ) ) ! @ 2 ( ( ( % ( ) ( ( : : ' 8 L < G p < p < < < 8 7 7$&@&@&@&@&@&@&@&@&@&@&@&@&@&@&@&@&@&@&@&@&@&@&@&@&@&@&@&@&@&@&@&@&@&@&@&@&@&@&@&@&@&@&@&@&@&@&@&@&@h$) x )   )   x : x x g.x g.y ! ! n { ] _ ] { _ { n _ ] _ @ @ }#&@&@&@&@&@&@&@&@&@&@&@&@&@&@&@&@&@&@&@&@&@&@&@&@&@&@&@&@&@1@( : : ' 8 L < G p < p < < < 8 7 7 6 }.*.U ].C.u [ 7 4 , 4 J 7 i$&@&@&@&@&@&@&@&@&@&@&@&@&@&@&@&@&@&@&@&@&@&@&@&@&@&@&@&@&@&@&@&@&@&@&@&@&@j$k$)   x : x x g.x g.y ! ! n { ] _ ] { _ { n _ ] _ @ @ ) ' b +.u j } l$m$&@&@&@&@&@&@&@&@&@&@&@&@&@&@&@&@&@&@&@&@&@&@&@&@&@&@&@&@&@&@&@&@&@&@&@&@n$7 7 6 }.*.U ].C.u [ 7 4 , 4 J 7 1 1 4 Z b 1 6 +.U U } ; ; ; & & ( 9 ! @ @ ! ) @ ] n @ ) n @ ) ) ) ) ( g.) x )   )   x : x x g.x g.y ! ! n { ] _ ] { _ { ",
"x ) ) ) y ) ) ! n { _ ~ _ n { n ! n _ _ s ] @ 9 6 H }.[ 6 b 7 8 E : x   ( K y 2 ) ) ) ! . )   ( 9 2 . ) 2 x ' E : : p L < < p p p 8 W 7 4 o$&@&@&@&@&@&@&@&@&@&@&@&@&@&@&@&@&@&@&@&@&@&@&@&@&@&@&@&@&@&@&@&@&@&@&@&@&@&@&@&@&@&@&@&@&@&@&@&@&@p$q$: : : : :   ( x ) ) ) y ) ) ! n { _ ~ _ n { n ! n _ _ s ] r$&@&@&@&@&@&@&@&@&@&@&@&@&@&@&@&@&@&@&@&@&@&@&@&@&@&@&@&@&@s$x ' E : : p L < < p p p 8 W 7 4 D [ -.=.E.2.'+:.1 6 1 7 1 | 1 t$&@&@&@&@&@&@&@&@&@&@&@&@&@&@&@&@&@&@&@&@&@&@&@&@&@&@&@&@&@&@&@&@&@&@&@&@u$: : : :   ( x ) ) ) y ) ) ! n { _ ~ _ n { n ! n _ _ s ] @ 9 6 H }.[ 6 b v$w$&@&@&@&@&@&@&@&@&@&@&@&@&@&@&@&@&@&@&@&@&@&@&@&@&@&@&@&@&@&@&@&@&@&@&@&@x$D [ -.=.E.2.'+:.1 6 1 7 1 | 1 [ +.H Y +.H C 5 a 4 1 < d ( . ) 9 ) @ @ ] !   x ) ! ) ) ) ) ) ( ' : : 8 p : : : : :   ( x ) ) ) y ) ) ! n { _ ~ _ n { n ",
"K ! ! K ) ++! ! ! n { _ { _ ~ _ n _ _ _ ] _ @ . 7 $.6 | D b 7 , 8 x ( 2 K 2 K 2 ++2 ! 2 ! ) ( ( 2 ) . 2 2 ( : x ( : 8 p 8 ` < < ' < 1 1 [ i@&@&@&@&@&@&@&@&@&@&@&@&@&@&@&@&@&@&@&@&@&@&@&@&@&@&@&@&@&@&@&@&@&@&@&@&@&@&@&@&@&@&@&@&@&@&@&@&@&@&@y$' : ' ( (   ) K ! ! K ) ++! ! ! n { _ { _ ~ _ n _ _ _ ] _ r$&@&@&@&@&@&@&@&@&@&@&@&@&@&@&@&@&@&@&@&@&@&@&@&@&@&@&@&@&@s$( : x ( : 8 p 8 ` < < ' < 1 1 [ j }.)+R.,._.K.o.$.}.D 1 D 6 z$&@&@&@&@&@&@&@&@&@&@&@&@&@&@&@&@&@&@&@&@&@&@&@&@&@&@&@&@&@&@&@&@&@&@&@&@A$' : ' ( (   ) K ! ! K ) ++! ! ! n { _ { _ ~ _ n _ _ _ ] _ @ . 7 $.6 | D b 7 B$C$&@&@&@&@&@&@&@&@&@&@&@&@&@&@&@&@&@&@&@&@&@&@&@&@&@&@&@&@&@&@&@&@&@&@&@D$j }.)+R.,._.K.o.$.}.D 1 D 6 j Y N U Q H } 6 < 4 < , . , ( 9 . . !   x .   ( : (   ( ( : ' : : : : E p E ' : ' ( (   ) K ! ! K ) ++! ! ! n { _ { _ ~ _ ",
"x K ! ! ! { _ n ! { ! { n { _ ] s 0.s _ s ] ! . ' } D !+i 7 = ' ' x   2 ) 2 g.y 2 K y ) ! ) ) x . . @ ! ) 2 ( 2 x x : p < 8 ` 8 < z X } u i@&@&@&@&@&@&@&@&@&@&@&@&@&@&@&@&@&@&@&@&@&@&@&@&@&@&@&@&@&@&@&@&@&@&@&@&@&@&@&@&@&@&@&@&@&@&@&@&@&@&@E$Z#( x ) 2 ) ! x K ! ! ! { _ n ! { ! { n { _ ] s 0.s _ s ] F$&@&@&@&@&@&@&@&@&@&@&@&@&@&@&@&@&@&@&@&@&@&@&@&@&@&@&@&@&@G$2 ( 2 x x : p < 8 ` 8 < z X } u j '.2.t.{.d.*.*.t.$.D '.j j H$&@&@&@&@&@&@&@&@&@&@&@&@&@&@&@&@&@&@&@&@&@&@&@&@&@&@&@&@&@&@&@&@&@&@&@I$  2 ( x ) 2 ) ! x K ! ! ! { _ n ! { ! { n { _ ] s 0.s _ s ] ! . ' } D !+i 7 = ' J$K$&@&@&@&@&@&@&@&@&@&@&@&@&@&@&@&@&@&@&@&@&@&@&@&@&@&@&@&@&@&@&@&@&@&@&@L$'.2.t.{.d.*.*.t.$.D '.j j C >.>.C 1 < , d < , ' ' d )   x E : ( ( : : x (   : p : : L 8 E : ( x ( 2   2 ( x ) 2 ) ! x K ! ! ! { _ n ! { ! { n { _ ] ",
"! ++{ -+{ n { ! ++! n { _ { _ n _ _ _ _ _ _ !   ; 4 6 D 7 7 = e ( ' x ) y x 2 ! ! ! ! ! @ ! 2 ) ) @ ! . ( g.( ) ( : 8 G 8 < < z ' z 6 1 j.i@&@&@&@&@&@&@&@&@&@&@&@&@&@&@&@&@&@&@&@&@&@&@&@&@&@&@&@&@&@&@&@&@&@&@&@&@&@&@&@&@&@&@&@&@&@&@&@&@&@&@&@M$) ! 2 ! ! 2 ! ++{ -+{ n { ! ++! n { _ { _ n _ _ _ _ _ _ F$&@&@&@&@&@&@&@&@&@&@&@&@&@&@&@&@&@&@&@&@&@&@&@&@&@&@&@&@&@1@g.( ) ( : 8 G 8 < < z ' z 6 1 j.j _.L.~+{._.~+*.8.C D b u N$&@&@&@&@&@&@&@&@&@&@&@&@&@&@&@&@&@&@&@&@&@&@&@&@&@&@&@&@&@&@&@&@&@&@&@O$y ) ! ) ! 2 ! ! 2 ! ++{ -+{ n { ! ++! n { _ { _ n _ _ _ _ _ _ !   ; 4 6 D 7 7 = e ( P$Q$&@&@&@&@&@&@&@&@&@&@&@&@&@&@&@&@&@&@&@&@&@&@&@&@&@&@&@&@&@&@&@&@&@&@R$_.L.~+{._.~+*.8.C D b u N >.C 7 l 0 ; ' ' ' ( ( ) 2 ) 2 ) ) ! ) ) (   ) ) )       ) x ) ! ) ! ) K y ) ! ) ! 2 ! ! 2 ! ++{ -+{ n { ! ++! n { _ { _ n ",
"! ++! ! _ { ! _ { n ! ! ! ! _ ^ _ _ {+_ _ ] ] ) 9 , 4 7 = = , & & ) ) . ) y ) K ! ! ! ! ) @ ) 2 2 @ ) ) ) 2 x ( : E G < G < < 4 h 1 7 7 j S$&@&@&@&@&@&@&@&@&@&@&@&@&@&@&@&@&@&@&@&@&@&@&@&@&@&@&@&@&@&@&@&@&@&@&@&@&@&@&@&@&@&@&@&@&@&@&@&@&@&@&@T$U$! ! ++! ! ! ++! ! _ { ! _ { n ! ! ! ! _ ^ _ _ {+_ _ ] V$&@&@&@&@&@&@&@&@&@&@&@&@&@&@&@&@&@&@&@&@&@&@&@&@&@&@&@&@&@G$2 x ( : E G < G < < 4 h 1 7 7 j -._.<._.[.~+R.)+n.-.C >.-.W$&@&@&@&@&@&@&@&@&@&@&@&@&@&@&@&@&@&@&@&@&@&@&@&@&@&@&@&@&@&@&@&@&@&@X$Y$! ! ++! ! ! ++! ! ! ++! ! _ { ! _ { n ! ! ! ! _ ^ _ _ {+_ _ ] ] ) 9 , 4 7 = = , & & ) Z$`$&@&@&@&@&@&@&@&@&@&@&@&@&@&@&@&@&@&@&@&@&@&@&@&@&@&@&@&@&@&@&@&@&@&@ %<._.[.~+R.)+n.-.C >.-.} 6 a ; ; & ' ' ' ( ( 9 ( . ! ! ! ! ) 2 ) ) ) ) ) ! ) ) ) ) ! ! y ! o ! ! ! ! ++! ! ! ++! ! ! ++! ! _ { ! _ { n ! ! ! ! _ ^ ",
"++n { _ { n ! ! _ ! K K ) ! { ] _ _ _ _ s _ ] ! . d d l ; 0 & & ) @ @ ! ) ! ! 2 ! ! ! @ ! ! ( ( ) ) @ ! 2   x ( 8 p 8 < < < < , 7 4 1 1 '..%&@&@&@&@&@&@&@&@&@&@&@&@&@&@&@&@&@&@&@&@&@&@&@&@&@&@&@&@&@&@&@&@&@&@&@&@&@&@&@&@&@&@&@&@&@&@&@&@&@&@&@&@+%! ! ! ! ++++n { _ { n ! ! _ ! K K ) ! { ] _ _ _ _ s _ V$&@&@&@&@&@&@&@&@&@&@&@&@&@&@&@&@&@&@&@&@&@&@&@&@&@&@&@&@&@s$  x ( 8 p 8 < < < < , 7 4 1 1 '.$._.R.[.~+_._.,.8.]+*.U @%&@&@&@&@&@&@&@&@&@&@&@&@&@&@&@&@&@&@&@&@&@&@&@&@&@&@&@&@&@&@&@&@&@&@#%$%_ { { ! { ! ! ! ! ++++n { _ { n ! ! _ ! K K ) ! { ] _ _ _ _ s _ ] ! . d d l ; 0 & & ) @ @ %%&@&@&@&@&@&@&@&@&@&@&@&@&@&@&@&@&@&@&@&@&@&@&@&@&@&@&@&@&@&@&@&@&@&@&%R.[.~+_._.,.8.]+*.U i d * ' ' & @ 9 (   2   ) ! . ! ~ ! ! ) ! ) ! ) @ c n ! n n _ ! ++! ++! ! _ { { ! { ! ! ! ! ++++n { _ { n ! ! _ ! K K ) ! { ] ",
"{ -+{ _ _ { n ! ++! ! { ! ! n ! ~ _ ] _ _ _ ] ) @ 9 9 & 9 & & @ ( ) @ ) @ @ ] ! ~ { ] { @ ) ) ( ) 2 ) . ) 2 x : : 8 G < < < ` , p 1 6 [ j S$&@&@&@&@&@&@&@&@&@&@&@&@&@&@&@&@&@&@&@&@&@&@&@&@&@&@&@&@&@&@&@&@&@&@&@&@&@&@&@&@&@&@&@&@&@&@&@&@&@&@&@&@*%=%++{ -+! { -+{ _ _ { n ! ++! ! { ! ! n ! ~ _ ] _ _ _ V$&@&@&@&@&@&@&@&@&@&@&@&@&@&@&@&@&@&@&@&@&@&@&@&@&@&@&@&@&@G$2 x : : 8 G < < < ` , p 1 6 [ j -.*.,.^+[.-.d.C '+@.Y 7 -%&@&@&@&@&@&@&@&@&@&@&@&@&@&@&@&@&@&@&@&@&@&@&@&@&@&@&@&@&@&@&@&@&@&@;%{ _ _ _ _ ! _ ++{ -+! { -+{ _ _ { n ! ++! ! { ! ! n ! ~ _ ] _ _ _ ] ) @ 9 9 & 9 & & @ ( ) @ >%,%&@&@&@&@&@&@&@&@&@&@&@&@&@&@&@&@&@&@&@&@&@&@&@&@&@&@&@&@&@&@&@&@&@'%)%^+[.-.d.C '+@.Y 7 ' ' , ' ( ( . . . ) ) ) ! @ n ] { ! ! ) ! @ c @ _ c ] ] ] ] ] n ++! ! -+{ _ _ _ _ ! _ ++{ -+! { -+{ _ _ { n ! ++! ! { ! ! n ! ",
"! { _ ! _ { ! ! ! n ! _ ] c ! n ] ] s ^ _ ^ ^.] c c . . . % . @ & @ c @ @ ] ~ c ! @ ] @ @ ! ) (   . ) . ) ( ' : 8 8 4 z < 7 < < 6 5 6 j u W@&@&@&@&@&@&@&@&@&@&@&@&@&@&@&@&@&@&@&@&@&@&@&@&@&@&@&@&@&@&@&@&@&@&@&@&@&@&@&@&@&@&@&@&@&@&@&@&@&@&@&@&@&@!%! n ! n ! { _ ! _ { ! ! ! n ! _ ] c ! n ] ] s ^ _ ^ ~%&@&@&@&@&@&@&@&@&@&@&@&@&@&@&@&@&@&@&@&@&@&@&@&@&@&@&@&@&@G$( ' : 8 8 4 z < 7 < < 6 5 6 j u *.d.-.'.7.D =.o.'+6 7 {%]%&@&@&@&@&@&@&@&@&@&@&@&@&@&@&@&@&@&@&@&@&@&@&@&@&@&@&@&@&@&@&@&@&@^%_ n { n ! n ! -+! n ! n ! { _ ! _ { ! ! ! n ! _ ] c ! n ] ] s ^ _ ^ ^.] c c . . . % . @ & @ c @ /%&@&@&@&@&@&@&@&@&@&@&@&@&@&@&@&@&@&@&@&@&@&@&@&@&@&@&@&@&@&@&@&@&@&@(%'.7.D =.o.'+6 7 0 ( ( ' @ c . ! ) @ ) ! @ n c { ] _ ! ! ) n ! ] c ] ] _ ] _ ] _ ! n n n _ n { n ! n ! -+! n ! n ! { _ ! _ { ! ! ! n ! _ ] c ! n ",
"n ! ! _ ! ! n ! _ ! ! ! ) ! ! ] { ] ] { _ _ _ n n c c c . . ! @ c @ @ @ . ) ) @ ) ! @ _ ~ ) 2 ) ( ( . 2 ) ( : E p < 5 z 4 7 < 1 4 1 X j $.W@&@&@&@&@&@&@&@&@&@&@&@&@&@&@&@&@&@&@&@&@&@&@&@&@&@&@&@&@&@&@&@&@&@&@&@&@&@&@&@&@&@&@&@&@&@&@&@&@&@&@&@&@&@_%:%K n ! n ! ! _ ! ! n ! _ ! ! ! ) ! ! ] { ] ] { _ _ <%&@&@&@&@&@&@&@&@&@&@&@&@&@&@&@&@&@&@&@&@&@&@&@&@&@&@&@&@&@G$( : E p < 5 z 4 7 < 1 4 1 X j $.*.,.)+*.<.t.C.C 6 , ' [%&@&@&@&@&@&@&@&@&@&@&@&@&@&@&@&@&@&@&@&@&@&@&@&@&@&@&@&@&@&@&@&@&@}%|%n { n n ! n ! K ) K n ! n ! ! _ ! ! n ! _ ! ! ! ) ! ! ] { ] ] { _ _ _ n n c c c . . ! @ c @ @ @ . 1%&@&@&@&@&@&@&@&@&@&@&@&@&@&@&@&@&@&@&@&@&@&@&@&@&@&@&@&@&@&@&@&@&@2%*.<.t.C.C 6 , ' : ( ) ) c @ ! @ c ! @ ) c ! @ _ ! ! n ! ! ! @ ] ] c _ ] ] ^ _ _ n { n { n { n n ! n ! K ) K n ! n ! ! _ ! ! n ! _ ! ! ! ) ! ! ] ",
"! ! ! ++! ! ! n @ n ) ) ) ! c @ ! ~ { n K ! n ) n c . c @ ! ! ) @ 9 ( . ) : ( ) 2 ) ! @ ) ) ) ( .   ( . ) ( ' p 8 < z 4 1 < | 4 d 1 u u $.A#&@&@&@&@&@&@&@&@&@&@&@&@&@&@&@&@&@&@&@&@&@&@&@&@&@&@&@&@&@&@&@&@&@&@&@&@&@&@&@&@&@&@&@&@&@&@&@&@&@&@&@&@&@&@3%! ) n ! ! ! ++! ! ! n @ n ) ) ) ! c @ ! ~ { n K ! 4%&@&@&@&@&@&@&@&@&@&@&@&@&@&@&@&@&@&@&@&@&@&@&@&@&@&@&@&@&@G$( ' p 8 < z 4 1 < | 4 d 1 u u $.,.8.].m./+'.k , i , & 5%&@&@&@&@&@&@&@&@&@&@&@&@&@&@&@&@&@&@&@&@&@&@&@&@&@&@&@&@&@&@&@&@&@6%n ! ) ) ! ) K ) ) ) ! ) n ! ! ! ++! ! ! n @ n ) ) ) ! c @ ! ~ { n K ! n ) n c . c @ ! ! ) @ 9 ( . ) 7%8%&@&@&@&@&@&@&@&@&@&@&@&@&@&@&@&@&@&@&@&@&@&@&@&@&@&@&@&@&@&@&@&@&@9%/+'.k , i , & ) ! n ) ! ! ) ] ! n ! ! ! n ! ] ! ! ! ! n c ] ] ] ] ] _ ^._ _ _ ] n ! n ! ) ) ! ) K ) ) ) ! ) n ! ! ! ++! ! ! n @ n ) ) ) ! c @ ",
"! ++) K ! ! n ! _ ~ _ ] _ _ n ~ n ~ ] ! ! ! n ! c ! c ! ! ~ ! ! ( ' p ( ' 8 8 2 : ( ) @ ) . 2   ) ( 9 (   ( ' 8 8 < < h < 4 < , [ 4 6 u =.0%&@&@&@&@&@&@&@&@&@&@&@&@&@&@&@&@&@&@&@&@&@&@&@&@&@&@&@&@&@&@&@&@&@&@&@&@&@&@&@&@&@&@&@&@&@&@&@&@&@&@&@&@&@&@a%b%! n ! ++) K ! ! n ! _ ~ _ ] _ _ n ~ n ~ ] ! ! ! 4%&@&@&@&@&@&@&@&@&@&@&@&@&@&@&@&@&@&@&@&@&@&@&@&@&@&@&@&@&@c%( ' 8 8 < < h < 4 < , [ 4 6 u =.8.(+5.'.6 = 1 d & . d%e%&@&@&@&@&@&@&@&@&@&@&@&@&@&@&@&@&@&@&@&@&@&@&@&@&@&@&@&@&@&@&@&@f%g%) g.  K ) ) ) K ) K ) ! n ! ++) K ! ! n ! _ ~ _ ] _ _ n ~ n ~ ] ! ! ! n ! c ! c ! ! ~ ! ! ( ' p ( ' 8 h%&@&@&@&@&@&@&@&@&@&@&@&@&@&@&@&@&@&@&@&@&@&@&@&@&@&@&@&@&@&@&@&@&@i%6 = 1 d & . ) ) ! K n ^ 0.! ! ! ) c ) @ ! c ! n ! n ! n ~ _ ] 0.] ] _ ^ ] _ ! _ c ! ) g.  K ) ) ) K ) K ) ! n ! ++) K ! ! n ! _ ~ _ ] _ _ n ~ ",
") ! ! n ! n { ] ! _ ! { ] ^ { ! { @ ! ! { n ! ) ) ) ) ! c n ! ! @ ] % : ' ' E ( % 2 ( ( 2 . ) % & . ( ( &   ' p 8 < z q.p p 5 < 5 D i $.>.j%&@&@&@&@&@&@&@&@&@&@&@&@&@&@&@&@&@&@&@&@&@&@&@&@&@&@&@&@&@&@&@&@&@&@&@&@&@&@&@&@&@&@&@&@&@&@&@&@&@&@&@&@&@&@&@k%    ) ! ! n ! n { ] ! _ ! { ] ^ { ! { @ ! ! { n F$&@&@&@&@&@&@&@&@&@&@&@&@&@&@&@&@&@&@&@&@&@&@&@&@&@&@&@&@&@l%  ' p 8 < z q.p p 5 < 5 D i $.>.:.+.Q 5 4 d ' (   ) m%&@&@&@&@&@&@&@&@&@&@&@&@&@&@&@&@&@&@&@&@&@&@&@&@&@&@&@&@&@&@&@&@&@n%g.( K ) ) ) ) ) ) ) ) )     ) ! ! n ! n { ] ! _ ! { ] ^ { ! { @ ! ! { n ! ) ) ) ) ! c n ! ! @ ] % : ' ' o%&@&@&@&@&@&@&@&@&@&@&@&@&@&@&@&@&@&@&@&@&@&@&@&@&@&@&@&@&@&@&@&@&@p%4 d ' (   ) c ! ! ! { _ ] ] _ @ @ ! ) . . @ ! ! _ ! ! _ _ ] ^ ^ ^ s ] ^ _ ^ _ ) ) g.( K ) ) ) ) ) ) ) ) )     ) ! ! n ! n { ] ! _ ! { ] ^ { ! ",
") ) ) ! ! ! ! ! ] _ ] { _ s s ] ! @ ! @ @ ! ) ) ( ) ! ! { c ! ) @ # @ ( & ( 0 % ( % % 2 % . o   ( ( ' ' : ' 8 < h ` 8 q.9.h 5 p 6 j '.N _+q%&@&@&@&@&@&@&@&@&@&@&@&@&@&@&@&@&@&@&@&@&@&@&@&@&@&@&@&@&@r%s%&@&@&@&@&@&@&@&@&@&@&@&@&@&@&@&@&@&@&@&@&@&@&@&@&@t%) ) ) ) ! ! ! ! ! ] _ ] { _ s s ] ! @ ! @ @ ! }#&@&@&@&@&@&@&@&@&@&@&@&@&@&@&@&@&@&@&@&@&@&@&@&@&@&@&@&@&@$#' 8 < h ` 8 q.9.h 5 p 6 j '.N _+U H B 1 < ' ( g.) n F$&@&@&@&@&@&@&@&@&@&@&@&@&@&@&@&@&@&@&@&@&@&@&@&@&@&@&@&@&@&@&@&@&@u%g.x : x x x x )   )   ) ) ) ) ) ) ! ! ! ! ! ] _ ] { _ s s ] ! @ ! @ @ ! ) ) ( ) ! ! { c ! ) @ # @ ( & ( 0 v%&@&@&@&@&@&@&@&@&@&@&@&@&@&@&@&@&@&@&@&@&@&@&@&@&@&@&@&@&@&@&@&@w%x%' ( g.) n ! n ! n { _ ] { ] ) ) 9 ( ' ) . . ) ! ! ] ! ] { ] ] _ ] _ ] _ ] ! ) 2 g.x : x x x x )   )   ) ) ) ) ) ) ! ! ! ! ! ] _ ] { _ s s ] ",
"2 ) ! ! ! @ _ ~ { { ] { ~ { ] s ! ! ! ! ! ) 2 x x ( ) @ ] ] ! ) ) + ] % ( ( 0 % % . % . ) @ ) ( ( ( ' ' , : 8 < 5 9.5 X X G 5 5 '.'.:+Z.#.y%&@&@&@&@&@&@&@&@&@&@&@&@&@&@&@&@&@&@&@&@&@&@&@&@&@&@&@&@&@z%A%&@&@&@&@&@&@&@&@&@&@&@&@&@&@&@&@&@&@&@&@&@&@&@&@&@B%) 2 ) ! ! ! @ _ ~ { { ] { ~ { ] s ! ! ! ! ! ) ##&@&@&@&@&@&@&@&@&@&@&@&@&@&@&@&@&@&@&@&@&@&@&@&@&@&@&@&@&@C%: 8 < 5 9.5 X X G 5 5 '.'.:+Z.#.H u 7 < '   (   ) n D%&@&@&@&@&@&@&@&@&@&@&@&@&@&@&@&@&@&@&@&@&@&@&@&@&@&@&@&@&@&@&@&@E%) x : x : ' : : x ( x   ) . ) 2 ) ! ! ! @ _ ~ { { ] { ~ { ] s ! ! ! ! ! ) 2 x x ( ) @ ] ] ! ) ) + ] % ( ( 0 F%&@&@&@&@&@&@&@&@&@&@&@&@&@&@&@&@&@&@&@&@&@&@&@&@&@&@&@&@&@&@&@&@&@G%  (   ) n ! _ { _ ] ] ] _ @ ) 2 ( ' ' ( . ) ) ) ! ) n ] ] ^ ] ] { ] ] { c ! ) ) x : x : ' : : x ( x   ) . ) 2 ) ! ! ! @ _ ~ { { ] { ~ { ] s ",
"( ) ) @ c ! { ] ! ] { ] _ ! ! ~ { @ ! ! ! ) ( : x ( ) ! n @ ) ) ( @ @ % ( & ( ( % % @ . f @ )   ( 9 ' E ' ' 8 < < r B r X 4 X u i D m.C.H H%&@&@&@&@&@&@&@&@&@&@&@&@&@&@&@&@&@&@&@&@&@&@&@&@&@&@&@&@&@I%~ J%&@&@&@&@&@&@&@&@&@&@&@&@&@&@&@&@&@&@&@&@&@&@&@&@&@K%( ) ) @ c ! { ] ! ] { ] _ ! ! ~ { @ ! ! ! ) l@&@&@&@&@&@&@&@&@&@&@&@&@&@&@&@&@&@&@&@&@&@&@&@&@&@&@&@&@&@!@' 8 < < r B r X 4 X u i D m.C.H +.$.` , '   ) ) ! L%&@&@&@&@&@&@&@&@&@&@&@&@&@&@&@&@&@&@&@&@&@&@&@&@&@&@&@&@&@&@&@&@&@M%)   x   K ( g.( ) g.( : ( ( : ( ) ) @ c ! { ] ! ] { ] _ ! ! ~ { @ ! ! ! ) ( : x ( ) ! n @ ) ) ( @ @ % ( & ( N%O%&@&@&@&@&@&@&@&@&@&@&@&@&@&@&@&@&@&@&@&@&@&@&@&@&@&@&@&@&@&@&@&@P%  ) ) ! n ! _ _ ] s ^ { c ! ! ) ) ' : ( . . @ ! n ! ~ _ ^ ] ] _ c ~ n ] ! n ! )   x   K ( g.( ) g.( : ( ( : ( ) ) @ c ! { ] ! ] { ] _ ! ! ~ ",
"( ) ) ! ! @ @ ! @ ! ] ^ ~ ! ! { { { @ { ! ! x : ( 2 ) 2 . ) @ . . % & 2 & & % & % . f ) . ) ) 2 (   ( ' 8 ' , 8 , [ } H H '.[ j *.'+m.-.C <@&@&@&@&@&@&@&@&@&@&@&@&@&@&@&@&@&@&@&@&@&@&@&@&@&@&@&@&@&@Q%n R%&@&@&@&@&@&@&@&@&@&@&@&@&@&@&@&@&@&@&@&@&@&@&@&@&@S%( ) ) ! ! @ @ ! @ ! ] ^ ~ ! ! { { { @ { ! ! T%&@&@&@&@&@&@&@&@&@&@&@&@&@&@&@&@&@&@&@&@&@&@&@&@&@&@&@&@&@K@' , 8 , [ } H H '.[ j *.'+m.-.C u , < ' ' ) ) ) _ U%&@&@&@&@&@&@&@&@&@&@&@&@&@&@&@&@&@&@&@&@&@&@&@&@&@&@&@&@&@&@&@&@&@V%) K ) x ) g.2 g.( ( : : : : : ( ) ) ! ! @ @ ! @ ! ] ^ ~ ! ! { { { @ { ! ! x : ( 2 ) 2 . ) @ . . % & 2 & & % & W%&@&@&@&@&@&@&@&@&@&@&@&@&@&@&@&@&@&@&@&@&@&@&@&@&@&@&@&@&@&@&@&@X%) ) ) _ ] _ ] ^ ^ ] _ ] { c ~ ~ ) ( ' ( ) ) ! n @ ] n ] ] ] _ ] { c ] ! c ! ) ) K ) x ) g.2 g.( ( : : : : : ( ) ) ! ! @ @ ! @ ! ] ^ ~ ! ! { ",
": ( 2 ( ) ( ) ) ! ) @ ] ] ! @ _ ~ ] { ] ~ ! ( x   2 ) . ) ) ) @ . . ( % & $ $ % & % . . ( . . . ) ) ( ( ' ( ' d 4 7 6 *.Q j -.3.w. +*.Q 6 D+&@&@&@&@&@&@&@&@&@&@&@&@&@&@&@&@&@&@&@&@&@&@&@&@&@&@&@&@&@Y%] ] Z%&@&@&@&@&@&@&@&@&@&@&@&@&@&@&@&@&@&@&@&@&@&@&@&@&@`%( 2 ( ) ( ) ) ! ) @ ] ] ! @ _ ~ ] { ] ~ ! l@&@&@&@&@&@&@&@&@&@&@&@&@&@&@&@&@&@&@&@&@&@&@&@&@&@&@&@&@&@!@( ' d 4 7 6 *.Q j -.3.w. +*.Q 6 6 ; ' ' ( ( K n _  &&@&@&@&@&@&@&@&@&@&@&@&@&@&@&@&@&@&@&@&@&@&@&@&@&@&@&@&@&@&@&@&@.&! ) 2 K   y   ( : g.x : : ( T.' : ( 2 ( ) ( ) ) ! ) @ ] ] ! @ _ ~ ] { ] ~ ! ( x   2 ) . ) ) ) @ . . ( % & $ $ % +&&@&@&@&@&@&@&@&@&@&@&@&@&@&@&@&@&@&@&@&@&@&@&@&@&@&@&@&@&@&@&@&@8#@&K n _ ] _ s _ ^ _ ] _ @ n ] ] @ ( : '   2 c ! c { ] ] _ ] ~ ] ! n ~ n ! ! ! ) 2 K   y   ( : g.x : : ( T.' : ( 2 ( ) ( ) ) ! ) @ ] ] ! @ _ ",
"( (   2 ( ( x ( ( E x ) @ ! @ @ ! { ~ { ] ! x E ( ) ) ) . . . . . e & & 0 % V @ & 2 . ( . ) @ c @ @ @ 2   & ; , | b C *.2._.E.m.8.3.*.'.j #&&@&@&@&@&@&@&@&@&@&@&@&@&@&@&@&@&@&@&@&@&@&@&@&@&@&@&@&@&@Q%~ ] $&%&&@&@&@&@&@&@&@&@&@&@&@&@&@&@&@&@&@&@&@&@&@&@&@&@&&*&  2 ( ( x ( ( E x ) @ ! @ @ ! { ~ { ] ! T%&@&@&@&@&@&@&@&@&@&@&@&@&@&@&@&@&@&@&@&@&@&@&@&@&@&@&@&@&@c%& ; , | b C *.2._.E.m.8.3.*.'.j l r , ' ( ) ) ) { =&&@&@&@&@&@&@&@&@&@&@&@&@&@&@&@&@&@&@&@&@&@&@&@&@&@&@&@&@&@&@&@&@-&n ! ) ) K ( x x : ( : : :   (   ( (   2 ( ( x ( ( E x ) @ ! @ @ ! { ~ { ] ! x E ( ) ) ) . . . . . e & & 0 % V @ ;&>&&@&@&@&@&@&@&@&@&@&@&@&@&@&@&@&@&@&@&@&@&@&@&@&@&@&@&@&@&@&@&@&@,&) ) { _ ~ ] ] { ] ! ! ] _ ~ ] @ x d E ' ( @ ! { ] ~ ] m ] ^ _ ~ ] { ] ! ! n ! ) ) K ( x x : ( : : :   (   ( (   2 ( ( x ( ( E x ) @ ! @ @ ",
"( ( 2   2 ( E : E L 8 : 2 2 ) ~ ! ! ! ! ! 2 x p ( ) @ @ . )   ( ( ' * ( , & / $ & & . 9 ( . c c c @ . ( ' ' , 7 = ;+2.N h.o.<+L.n.].3.$.k D+&@&@&@&@&@&@&@&@&@&@&@&@&@&@&@&@&@&@&@&@&@&@&@&@&@&@&@&@&@'&m _ ^ V$&@&@&@&@&@&@&@&@&@&@&@&@&@&@&@&@&@&@&@&@&@&@&@&@&@)&2   2 ( E : E L 8 : 2 2 ) ~ ! ! ! ! ! 2 T%&@&@&@&@&@&@&@&@&@&@&@&@&@&@&@&@&@&@&@&@&@&@&@&@&@&@&@&@&@!@' , 7 = ;+2.N h.o.<+L.n.].3.$.k 6 & h ( (   K ! !&~&&@&@&@&@&@&@&@&@&@&@&@&@&@&@&@&@&@&@&@&@&@&@&@&@&@&@&@&@&@&@&@&@{&] n ! ) ) x   : x     : : ( )   ( ( 2   2 ( E : E L 8 : 2 2 ) ~ ! ! ! ! ! 2 x p ( ) @ @ . )   ( ( ' * ( , & / $ & ]&&@&@&@&@&@&@&@&@&@&@&@&@&@&@&@&@&@&@&@&@&@&@&@&@&@&@&@&@&@&@&@&@^&K ! c _ { ] s ] _ @ n ! ] c ~ c ( : ' ( 2 ) ! ! _ m _ ^ ] ^ ^ ^ ^ ^ ^ ^ ] ] n ! ) ) x   : x     : : ( )   ( ( 2   2 ( E : E L 8 : 2 2 ) ~ ",
". . . . ! . 2 ( ( ' ( ' ( ( ( ) ] { @ { ) x ' ) 2   . ) . ) 9 ( d , 0 , , 0 3 [+& }+9 . 9 . . . @ g @ & ' ; ; 7 b [ '.|+L.M.e.d.-.2._.$.u 7$&@&@&@&@&@&@&@&@&@&@&@&@&@&@&@&@&@&@&@&@&@&@&@&@&@&@&@&@&@Y%] ~ ^ /&(&&@&@&@&@&@&@&@&@&@&@&@&@&@&@&@&@&@&@&@&@&@&@&@&@_&:&. ! . 2 ( ( ' ( ' ( ( ( ) ] { @ { ) x a@&@&@&@&@&@&@&@&@&@&@&@&@&@&@&@&@&@&@&@&@&@&@&@&@&@&@&@&@&@!@; ; 7 b [ '.|+L.M.e.d.-.2._.$.u 7 4 ( ' x 2 ) ! <&&@&@&@&@&@&@&@&@&@&@&@&@&@&@&@&@&@&@&@&@&@&@&@&@&@&@&@&@&@&@&@&@&@[&! ] ! n ) ) ) ) ( ) ) (   )   ( . . . . ! . 2 ( ( ' ( ' ( ( ( ) ] { @ { ) x ' ) 2   . ) . ) 9 ( d , 0 , , 0 3 [+& }&&@&@&@&@&@&@&@&@&@&@&@&@&@&@&@&@&@&@&@&@&@&@&@&@&@&@&@&@&@&@&@&@|&) ! { _ ] _ ~ n ] ^ ] ] ~ ! @ ! ) ' : (   ) ! @ { ] ~ ^ ^ ~ ] ^ ] ~ ] ~ ^ ! ] ! n ) ) ) ) ( ) ) (   )   ( . . . . ! . 2 ( ( ' ( ' ( ( ( ) ",
"! . 2 @ @ . %   ( ( ( 2 ( ) ( ( @ o ) @ . x : y (   2 .     ( ' d 0 ' & , , ; w & 0 ; ; & & g . $ @   ; & & 7 6 6 {.*.M.n.*.[.2.}.-.H -.[ 7$&@&@&@&@&@&@&@&@&@&@&@&@&@&@&@&@&@&@&@&@&@&@&@&@&@&@&@&@&@1&{ ] ^ ^ 2&&@&@&@&@&@&@&@&@&@&@&@&@&@&@&@&@&@&@&@&@&@&@&@&@&@3&@ @ . %   ( ( ( 2 ( ) ( ( @ o ) @ . x J@&@&@&@&@&@&@&@&@&@&@&@&@&@&@&@&@&@&@&@&@&@&@&@&@&@&@&@&@&@l%& 7 6 6 {.*.M.n.*.[.2.}.-.H -.[ 7 < ( ( 2 ) ! n 4&&@&@&@&@&@&@&@&@&@&@&@&@&@&@&@&@&@&@&@&@&@&@&@&@&@&@&@&@&@&@&@&@5&^ ] ] ] ! ! ) ! ) ) ) ! )   ) ) ) ! . 2 @ @ . %   ( ( ( 2 ( ) ( ( @ o ) @ . x : y (   2 .     ( ' d 0 ' & , , ; w & 6&&@&@&@&@&@&@&@&@&@&@&@&@&@&@&@&@&@&@&@&@&@&@&@&@&@&@&@&@&@&@&@&@7&! n { ] _ ] _ ] ] ^ ^ ] ] ] ] @ . ) (   2 @ { ! @ { ] ^ ^ ^ ^ ^ ^ ^ s ] ^ ] ] ] ! ! ) ! ) ) ) ! )   ) ) ) ! . 2 @ @ . %   ( ( ( 2 ( ) ( ( ",
". ! ) . ) . )   . ) . . . .   ) 2 ) 2 ! 2 : ' ( : ( ( x ( ' : : ' ' & & 0 7 , * 7 = & 9 A . 3 . g 3 % & ' 7 b b -.>.N *.'.}.1+2+[ {.(.H 6 7$&@&@&@&@&@&@&@&@&@&@&@&@&@&@&@&@&@&@&@&@&@&@&@&@&@&@&@&@&@8&] ~ ] ~ 9&0&&@&@&@&@&@&@&@&@&@&@&@&@&@&@&@&@&@&@&@&@&@&@&@&@a&b&) . )   . ) . . . .   ) 2 ) 2 ! 2 : a@&@&@&@&@&@&@&@&@&@&@&@&@&@&@&@&@&@&@&@&@&@&@&@&@&@&@&@&@&@!@7 b b -.>.N *.'.}.1+2+[ {.(.H 6 7 p (   ) 2 ! ~ c&&@&@&@&@&@&@&@&@&@&@&@&@&@&@&@&@&@&@&@&@&@&@&@&@&@&@&@&@&@&@&@&@d&^ ] ^ ] ] n ! @ c ! ! ) ! @ ) ) ) . ! ) . ) . )   . ) . . . .   ) 2 ) 2 ! 2 : ' ( : ( ( x ( ' : : ' ' & & 0 7 , * 7 e&&@&@&@&@&@&@&@&@&@&@&@&@&@&@&@&@&@&@&@&@&@&@&@&@&@&@&@&@&@&@&@&@f&g&~ @ ] ~ ^ ] ^ ^ ^.^ ] ] ] ~ ^ ! ) 2   2 n @ ] ~ ] ~ ] ~ ] ^ # ^ ] ~ ] ^ ] ^ ] ] n ! @ c ! ! ) ! @ ) ) ) . ! ) . ) . )   . ) . . . .   ) ",
"2 ) ) @ ) . . 2 . %   (   % . .   2 ( )   : E : : : : p : : ( : ( ( ( ' d , , , , ; ; ; & > & 9 A , < l 0 [ Y >.U Q D k D b 7 D [ }.u Q 1 h&&@&@&@&@&@&@&@&@&@&@&@&@&@&@&@&@&@&@&@&@&@&@&@&@&@&@&@&@&@i&~ ] ] ] ~ j&&@&@&@&@&@&@&@&@&@&@&@&@&@&@&@&@&@&@&@&@&@&@&@&@&@k&) . . 2 . %   (   % . .   2 ( )   : l&&@&@&@&@&@&@&@&@&@&@&@&@&@&@&@&@&@&@&@&@&@&@&@&@&@&@&@&@&@m&[ Y >.U Q D k D b 7 D [ }.u Q 1 d ( ( ( 2 ) ! ! n&&@&@&@&@&@&@&@&@&@&@&@&@&@&@&@&@&@&@&@&@&@&@&@&@&@&@&@&@&@&@&@&@o&] ^ ] ] _ @ n ! ] ] . ! @ c (   . 2 ) ) @ ) . . 2 . %   (   % . .   2 ( )   : E : : : : p : : ( : ( ( ( ' d , , , , p&q&&@&@&@&@&@&@&@&@&@&@&@&@&@&@&@&@&@&@&@&@&@&@&@&@&@&@&@&@&@&@&@&@5$! c ! ~ ] ^ ^ ] ^ a.^ # ^ ] ] ~ ) ) ( ) ~ @ { c ~ ] ] ] ~ ] ^ # ^ # ~ ] ^ ] ] _ @ n ! ] ] . ! @ c (   . 2 ) ) @ ) . . 2 . %   (   % . . ",
") @ ) ! . 2 ) )   ) & ) &   ( ( ( ' ' ( ' 0 p < 8 8 : E x   g.)   (   ( ' , , a > > = b = l ; > 7 l ; 7 =.3+U 6 7 | 7 , 7 , l 6 D u ).Q 1 r&&@&@&@&@&@&@&@&@&@&@&@&@&@&@&@&@&@&@&@&@&@&@&@&@&@&@&@&@&@8&] ~ ~ ] ~ s&t&&@&@&@&@&@&@&@&@&@&@&@&@&@&@&@&@&@&@&@&@&@&@&@&@u&v&2 ) )   ) & ) &   ( ( ( ' ' ( ' 0 w&&@&@&@&@&@&@&@&@&@&@&@&@&@&@&@&@&@&@&@&@&@&@&@&@&@&@&@&@&@x&3+U 6 7 | 7 , 7 , l 6 D u ).Q 1 ' ( ( ) 2 ) ) @ y&&@&@&@&@&@&@&@&@&@&@&@&@&@&@&@&@&@&@&@&@&@&@&@&@&@&@&@&@&@&@&@&@z&] ] ] ] { n ! @ n ] ! c n @ ) ) ) ) @ ) ! . 2 ) )   ) & ) &   ( ( ( ' ' ( ' 0 p < 8 8 : E x   g.)   (   ( ' , , a > > A&&@&@&@&@&@&@&@&@&@&@&@&@&@&@&@&@&@&@&@&@&@&@&@&@&@&@&@&@&@&@&@&@B&@ @ c @ ^ ] ^.^ # ] a.^ ] # ] ~ ) 2 ) ) ~ ] ] ~ ] ~ ~ ] ~ # ] ~ ] ~ ] ] ] ] ] { n ! @ n ] ! c n @ ) ) ) ) @ ) ! . 2 ) )   ) & ) &   ( ( ",
") ! @ 2 ) ) ) . ( ( ) . ) ' : , 8 ' 8 0 p 8 < G ( : x ( ) ) ) ! (   . 9 & ' 7 6 6 , b 1 l > = l M j Q :+$.[ 7 & 3 7 4 9 ' 7 4 d 6 [ } ..5 h&&@&@&@&@&@&@&@&@&@&@&@&@&@&@&@&@&@&@&@&@&@&@&@&@&@&@&@&@&@Q%^ ] ] ~ ] ~ C&&@&@&@&@&@&@&@&@&@&@&@&@&@&@&@&@&@&@&@&@&@&@&@&@&@D&) ) . ( ( ) . ) ' : , 8 ' 8 0 p 8 E&&@&@&@&@&@&@&@&@&@&@&@&@&@&@&@&@&@&@&@&@&@&@&@&@&@&@&@&@&@F&[ 7 & 3 7 4 9 ' 7 4 d 6 [ } ..5 d ( 2 ( 2 ) @ ! G&&@&@&@&@&@&@&@&@&@&@&@&@&@&@&@&@&@&@&@&@&@&@&@&@&@&@&@&@&@&@&@&@H&] { ] _ @ c ! ! @ ] c ! ~ c ) ) @ ) ! @ 2 ) ) ) . ( ( ) . ) ' : , 8 ' 8 0 p 8 < G ( : x ( ) ) ) ! (   . 9 & ' 7 6 6 , I&&@&@&@&@&@&@&@&@&@&@&@&@&@&@&@&@&@&@&@&@&@&@&@&@&@&@&@&@&@&@&@&@J&! ] @ ] ] ^ # ] ^.] ^ ^ # ^ ] ] @ ) ! @ ~ ] ~ ] ^ ] ] ~ ] ~ ^ # ] ] ~ ] { ] _ @ c ! ! @ ] c ! ~ c ) ) @ ) ! @ 2 ) ) ) . ( ( ) . ) ' : , ",
") ) ! ) ) 2   ) '   ( ' ( ' d p ' , p ' ' ' : 8 (   2 ) ! ! ! c ) ) 9 ( ( ; 7 j u D '.C 2+b '.C *.=.-.D 7 = 7 W b . $ d ' ( ' < B.6 u ..+.r&&@&@&@&@&@&@&@&@&@&@&@&@&@&@&@&@&@&@&@&@&@&@&@&@&@&@&@&@&@D%/ ^ ~ ] ~ ^ K&L&&@&@&@&@&@&@&@&@&@&@&@&@&@&@&@&@&@&@&@&@&@&@&@&@M&N&  ) '   ( ' ( ' d p ' , p ' ' ' J@&@&@&@&@&@&@&@&@&@&@&@&@&@&@&@&@&@&@&@&@&@&@&@&@&@&@&@&@&@O&= 7 W b . $ d ' ( ' < B.6 u ..+.' : 2   y ) ) P&&@&@&@&@&@&@&@&@&@&@&@&@&@&@&@&@&@&@&@&@&@&@&@&@&@&@&@&@&@&@&@&@&@Q&m c ] ] ] _ @ c ! c ~ ] ) ! c . ) ) ) ! ) ) 2   ) '   ( ' ( ' d p ' , p ' ' ' : 8 (   2 ) ! ! ! c ) ) 9 ( ( ; 7 j u D R&&@&@&@&@&@&@&@&@&@&@&@&@&@&@&@&@&@&@&@&@&@&@&@&@&@&@&@&@&@&@&@&@S&@ @ g ] ] a.^ # ] # ^.# ] ^ ~ @ ) ! @ c ~ ] ~ ^ / ^ ~ ] ~ ^ + m ] ~ ] m c ] ] ] _ @ c ! c ~ ] ) ! c . ) ) ) ! ) ) 2   ) '   ( ' ( ' d p ",
"2 ( ) ( : ' ' ( ( ' p ` p d (   ' ( ( ' ) ) ) ) ) ) ) ! ) ! _ ! .+) x ' ' ' 7 1 D b _.4+*.)+n.!.'.j.7 = = d ; ; ' ( ( d . ' p ' | 7 u Y ..T&&@&@&@&@&@&@&@&@&@&@&@&@&@&@&@&@&@&@&@&@&@&@&@&@&@&@&@&@&@_&^ ^ ] ~ ] # ^ U&&@&@&@&@&@&@&@&@&@&@&@&@&@&@&@&@&@&@&@&@&@&@&@&@&@V&' ( ( ' p ` p d (   ' ( ( ' ) ) }#&@&@&@&@&@&@&@&@&@&@&@&@&@&@&@&@&@&@&@&@&@&@&@&@&@&@&@&@&@W&d ; ; ' ( ( d . ' p ' | 7 u Y .., , ( ' ( ( . X&&@&@&@&@&@&@&@&@&@&@&@&@&@&@&@&@&@&@&@&@&@&@&@&@&@&@&@&@&@&@&@&@Y&] ^ ~ _ ^ ^ ] ] n @ ! @ ! . ) ) . ) 2 ( ) ( : ' ' ( ( ' p ` p d (   ' ( ( ' ) ) ) ) ) ) ) ! ) ! _ ! .+) x ' ' ' 7 1 D b Z&&@&@&@&@&@&@&@&@&@&@&@&@&@&@&@&@&@&@&@&@&@&@&@&@&@&@&@&@&@&@&@&@`&) @ @ c + ^ ^ a.^ ] # 5+] ] @ ! 2 ( ! @ ] ~ ^ + ^ ^ ] ~ ] # ^ ^ + m ] ^ ~ _ ^ ^ ] ] n @ ! @ ! . ) ) . ) 2 ( ) ( : ' ' ( ( ' p ` p d (   ",
"' ' ' 0 ' 0 0 d < , 8 ' ' (   9 . ) ! n ! -+n ++n n n ) ) _ 0.! K 2 ' ( d & b b j '._.t.v.p.5.7.i b b , & ' 0 2 ' ( ( ( ( |.( ' ' 7 1 [ +. *&@&@&@&@&@&@&@&@&@&@&@&@&@&@&@&@&@&@&@&@&@&@&@&@&@&@&@&@&@Q%m + ~ ^ ^ ~ ] .*+*&@&@&@&@&@&@&@&@&@&@&@&@&@&@&@&@&@&@&@&@&@&@&@&@*#@*d < , 8 ' ' (   9 . ) ! n ! -+4%&@&@&@&@&@&@&@&@&@&@&@&@&@&@&@&@&@&@&@&@&@&@&@&@&@&@&@&@&@l%' 0 2 ' ( ( ( ( |.( ' ' 7 1 [ +.=.6 3 , ; ( @ #*&@&@&@&@&@&@&@&@&@&@&@&@&@&@&@&@&@&@&@&@&@&@&@&@&@&@&@&@&@&@&@&@$*~ ^ ^ ] { _ ! { @ ~ c ! @ 2 ( % ( 2 ' ' ' 0 ' 0 0 d < , 8 ' ' (   9 . ) ! n ! -+n ++n n n ) ) _ 0.! K 2 ' ( d & b b j '.%*&@&@&@&@&@&@&@&@&@&@&@&@&@&@&@&@&@&@&@&@&@&@&@&@&@&@&@&@&@&@&@&@&*. ! ! _ ^ 6+] ^ ] # ] ] ^ ] ~ @ ) . . @ ~ ] ~ ] m + ~ ^ ^ ~ ] ~ ] ^ ~ ^ ^ ] { _ ! { @ ~ c ! @ 2 ( % ( 2 ' ' ' 0 ' 0 0 d < , 8 ' ' (   9 ",
"' e ' 0 , , , 0 0 ' ' ' & ) . . ! n n { -+=+-+=+-+-+n n _ n ) x ) ( @ < 0 7 b '.K.M.7+t.7.[.8+[.j 1 , 0 ' ( & ( ( (   (   ( 9 ( ' , 4 } C **&@&@&@&@&@&@&@&@&@&@&@&@&@&@&@&@&@&@&@&@&@&@&@&@&@&@&@&@&@Q%# ^ ^ ] # ] ~ ] =*&@&@&@&@&@&@&@&@&@&@&@&@&@&@&@&@&@&@&@&@&@&@&@&@&@-*0 0 ' ' ' & ) . . ! n n { -+=+;*&@&@&@&@&@&@&@&@&@&@&@&@&@&@&@&@&@&@&@&@&@&@&@&@&@&@&@&@&@!@( & ( ( (   (   ( 9 ( ' , 4 } C Q C b = & 3 ( >*&@&@&@&@&@&@&@&@&@&@&@&@&@&@&@&@&@&@&@&@&@&@&@&@&@&@&@&@&@&@&@&@,*^ ^ ] { ] ~ ! ~ ! @ ! f ) % % 2 ( ( ' e ' 0 , , , 0 0 ' ' ' & ) . . ! n n { -+=+-+=+-+-+n n _ n ) x ) ( @ < 0 7 b '.K.M.'*&@&@&@&@&@&@&@&@&@&@&@&@&@&@&@&@&@&@&@&@&@&@&@&@&@&@&@&@&@&@&@&@)*2 ! ^ ^ ] 6+^ + ^.] ^ ] + ~ ] ! % ) @ ~ ] ~ ^ ] # ^ ^ ] # ] ~ ] ~ ^ ^ ^ ] { ] ~ ! ~ ! @ ! f ) % % 2 ( ( ' e ' 0 , , , 0 0 ' ' ' & ) . . ",
", p , < 8 8 , ' ' ( ( . ! @ n ! @ ! ! n =+++_ -+n K   g.) ! n ] . ' 6 6 [ }.n.v.9+M.n.7.- - k 0+u '.a 0 7 ( . ( x ( ) 2 ) @ ) . ' ' , < 6 <@&@&@&@&@&@&@&@&@&@&@&@&@&@&@&@&@&@&@&@&@&@&@&@&@&@&@&@&@&@D%^ ^ # ^ ^ ^ ^ ] ^ !*&@&@&@&@&@&@&@&@&@&@&@&@&@&@&@&@&@&@&@&@&@&@&@&@&@~*' ( ( . ! @ n ! @ ! ! n =+++<%&@&@&@&@&@&@&@&@&@&@&@&@&@&@&@&@&@&@&@&@&@&@&@&@&@&@&@&@&@O&( . ( x ( ) 2 ) @ ) . ' ' , < 6 u u C j = . ( 3@&@&@&@&@&@&@&@&@&@&@&@&@&@&@&@&@&@&@&@&@&@&@&@&@&@&@&@&@&@&@&@&@{*~ ] ~ ] { ] ~ c @ { . ! @ 2 2 ( 0 0 , p , < 8 8 , ' ' ( ( . ! @ n ! @ ! ! n =+++_ -+n K   g.) ! n ] . ' 6 6 [ }.n.v.9+M.]*&@&@&@&@&@&@&@&@&@&@&@&@&@&@&@&@&@&@&@&@&@&@&@&@&@&@&@&@&@&@&@&@^*' ) ^ ^ ] ] ] + ^ ] ^ ] ^ ] ~ @ . @ @ ] + ^ ^ ^ ^ ^ # ^ ^ ^ ^ ] ^ ^ ~ ] ~ ] { ] ~ c @ { . ! @ 2 2 ( 0 0 , p , < 8 8 , ' ' ( ( . ! @ n ! ",
"4 < < < < 8 ' 0 ( ( 2 ! ! ! ! n @ ! ! ++! ++n ++! ) ) @ c ) ( ( b l b [.D y.,.M.F.~+a+[.'.- > 7 j +.6 ; 7 ' % ( ( 2 ) ) @ ) @ . ( 2 9 ' , 7$&@&@&@&@&@&@&@&@&@&@&@&@&@&@&@&@&@&@&@&@&@&@&@&@&@&@&@&@&@D%# ^ ^ ^ ^ ^ ~ _ ~ /*&@&@&@&@&@&@&@&@&@&@&@&@&@&@&@&@&@&@&@&@&@&@&@&@&@(*( ( 2 ! ! ! ! n @ ! ! ++! ++4%&@&@&@&@&@&@&@&@&@&@&@&@&@&@&@&@&@&@&@&@&@&@&@&@&@&@&@&@&@O&' % ( ( 2 ) ) @ ) @ . ( 2 9 ' , 7 6 C H 6 * ; _*&@&@&@&@&@&@&@&@&@&@&@&@&@&@&@&@&@&@&@&@&@&@&@&@&@&@&@&@&@&@&@&@:*] ~ s ~ ] ] ~ @ ! @ ! . ) ) ' E 8 8 4 < < < < 8 ' 0 ( ( 2 ! ! ! ! n @ ! ! ++! ++n ++! ) ) @ c ) ( ( b l b [.D y.,.M.F.~+<*&@&@&@&@&@&@&@&@&@&@&@&@&@&@&@&@&@&@&@&@&@&@&@&@&@&@&@&@&@&@&@&@[*2 . ~ @ ] ] + ] ] ^ ] ^ # ] ] @ ! @ g ~ ^ ^ ^ ^ # ^ ^ ^ ^ ^ ~ _ ~ ^ ] ~ s ~ ] ] ~ @ ! @ ! . ) ) ' E 8 8 4 < < < < 8 ' 0 ( ( 2 ! ! ! ! n ",
"< p ' ( ' ( ( 2 ( 2 ! ! ! { { ! ! . ) ! ! ! ! ) )     . & ( ( & > {.7.u.G.F.b+_.1+2+b ;+b * }+= , C j 0 0 , & ' ) . . ~ @ @ ! !   . . ' ; }*&@&@&@&@&@&@&@&@&@&@&@&@&@&@&@&@&@&@&@&@&@&@&@&@&@&@&@&@&@D%^ ^ ^ ^ ^ ] ^ m ^ _ |*&@&@&@&@&@&@&@&@&@&@&@&@&@&@&@&@&@&@&@&@&@&@&@&@&@1*2 ! ! ! { { ! ! . ) ! ! ! F$&@&@&@&@&@&@&@&@&@&@&@&@&@&@&@&@&@&@&@&@&@&@&@&@&@&@&@&@&@m&, & ' ) . . ~ @ @ ! !   . . ' ; ; 1 u Q C 4 ; 2*&@&@&@&@&@&@&@&@&@&@&@&@&@&@&@&@&@&@&@&@&@&@&@&@&@&@&@&@&@&@&@&@3*~ _ ~ ] ~ @ ! ! ) ( ( ( : E 8 8 G 8 < p ' ( ' ( ( 2 ( 2 ! ! ! { { ! ! . ) ! ! ! ! ) )     . & ( ( & > {.7.u.G.F.b+_.1+2+4*&@&@&@&@&@&@&@&@&@&@&@&@&@&@&@&@&@&@&@&@&@&@&@&@&@&@&@&@&@&@&@&@5*3 @ . ] g + ] a.^ # ^ ~ ^ ^ @ ! @ @ ] ^ ^ ^ ^ ^ ^ ^ ^ ^ ^ ] ^ m ^ _ ~ _ ~ ] ~ @ ! ! ) ( ( ( : E 8 8 G 8 < p ' ( ' ( ( 2 ( 2 ! ! ! { { ! ",
"'     . . 9 ) % ) o ) o ) ++! ! ) . ( ) ) !   ( < , , , 7 , , , *.5.n.9+x.5.1+;+j.b 2+, 7 a , ' = u C | , ' & ( % ) ! ~ n ] @ ! @ ) .   ' r&&@&@&@&@&@&@&@&@&@&@&@&@&@&@&@&@&@&@&@&@&@&@&@&@&@&@&@&@&@D%^ ^ ~ ] ^ ^ ] ^ ^ ^ 6*&@&@&@&@&@&@&@&@&@&@&@&@&@&@&@&@&@&@&@&@&@&@&@&@&@7*8*) o ) ++! ! ) . ( ) ) ! 9*&@&@&@&@&@&@&@&@&@&@&@&@&@&@&@&@&@&@&@&@&@&@&@&@&@&@&@&@&@C%' & ( % ) ! ~ n ] @ ! @ ) .   ' ' | [ } C u 7 0*&@&@&@&@&@&@&@&@&@&@&@&@&@&@&@&@&@&@&@&@&@&@&@&@&@&@&@&@&@&@&@&@a*^ ] @ @ @ ! ) ( ( x ( : : : : : ' x '     . . 9 ) % ) o ) o ) ++! ! ) . ( ) ) !   ( < , , , 7 , , , *.5.n.9+x.5.1+;+j.b b*&@&@&@&@&@&@&@&@&@&@&@&@&@&@&@&@&@&@&@&@&@&@&@&@&@&@&@&@&@&@&@&@c*; ; % / @ ] + ] # ] ] ^ ^ ~ @ ! @ ] ~ ~ ^ ] ^ ^ ^ ^ ~ ] ^ ^ ] ^ ^ ^ ^ ] @ @ @ ! ) ( ( x ( : : : : : ' x '     . . 9 ) % ) o ) o ) ++! ! ",
"    ) .   ( 2 9 2 ) 2 2 ) 2 ) 2   ; ' ( ' ' 8 < 6 | b j C c+:+d+*.e+e+e+7.;+1+}.2+7 | 6 1 %.0 & 7 j C u 1 d & ( ( ) @ @ ] { ! n c n ! .   r&&@&@&@&@&@&@&@&@&@&@&@&@&@&@&@&@&@&@&@&@&@&@&@&@&@&@&@&@&@Q%^ _ ^ _ ^ ^ s ] ^ ] _ d*&@&@&@&@&@&@&@&@&@&@&@&@&@&@&@&@&@&@&@&@&@&@&@&@&@e*2 2 ) 2 ) 2   ; ' ( ' ' h%&@&@&@&@&@&@&@&@&@&@&@&@&@&@&@&@&@&@&@&@&@&@&@&@&@&@&@&@&@f*d & ( ( ) @ @ ] { ! n c n ! .   ' , 4 1 [ u j g*&@&@&@&@&@&@&@&@&@&@&@&@&@&@&@&@&@&@&@&@&@&@&@&@&@&@&@&@&@&@&@&@h*_ ! @ ) . 2 & (   ' ' x ( '   )   )     ) .   ( 2 9 2 ) 2 2 ) 2 ) 2   ; ' ( ' ' 8 < 6 | b j C c+:+d+*.e+e+e+7.;+1+}.2+7 i*&@&@&@&@&@&@&@&@&@&@&@&@&@&@&@&@&@&@&@&@&@&@&@&@&@&@&@&@&@&@&@&@j*1 , ; $ . @ c ] ] ~ ] ~ ^ _ @ ! @ ~ ] ] ^ ^ ^ ] ^ _ ^ _ ^ ^ s ] ^ ] _ ! @ ) . 2 & (   ' ' x ( '   )   )     ) .   ( 2 9 2 ) 2 2 ) 2 ) 2 ",
"  )   ) 9 ) . . %   & ' ' ( ) 2 ; ' d d , 7 6 } D '.,.m.|+,.f+a b 2+D b 2+D = M b 7 * & * J < 0 ; = j H j , ' 8 & 2 ) @ { ] ~ { ! n ) ) . r&&@&@&@&@&@&@&@&@&@&@&@&@&@&@&@&@&@&@&@&@&@&@&@&@&@&@&@&@&@D%^ ^ ^ ^ ] _ ] ] _ c ! k*N+&@&@&@&@&@&@&@&@&@&@&@&@&@&@&@&@&@&@&@&@&@&@&@&@l*m*' ' ( ) 2 ; ' d d , 7 n*&@&@&@&@&@&@&@&@&@&@&@&@&@&@&@&@&@&@&@&@&@&@&@&@&@&@&@&@&@o*, ' 8 & 2 ) @ { ] ~ { ! n ) ) . ' ' d 7 1 6 [ p*&@&@&@&@&@&@&@&@&@&@&@&@&@&@&@&@&@&@&@&@&@&@&@&@&@&@&@&@&@&@&@&@q*! @ @ % ) % ) ) % ) ' '     (     |.  )   ) 9 ) . . %   & ' ' ( ) 2 ; ' d d , 7 6 } D '.,.m.|+,.f+a b 2+D b 2+D = M b 7 * &@&@&@&@&@&@&@&@&@&@&@&@&@&@&@&@&@&@&@&@&@&@&@&@&@&@&@&@&@&@&@&@r*i 7 ; A . @ $ c / ] c ~ ] { @ ! ! ~ # ~ ^ ^ ^ ^ ^ ^ ^ ^ ] _ ] ] _ c ! @ @ % ) % ) ) % ) ' '     (     |.  )   ) 9 ) . . %   & ' ' ( ) 2 ",
"g.) n ) ' ' ( . . & ; ; ; ; l , W | b 1 X :+,.,.o.v.o.n.4+C b a = 0 , = , = ; ; w ; , ; & ( , 8 7 ; i 1 +.} ; & ) @ @ ) _ ~ ! ! n ] ] c ) s*&@&@&@&@&@&@&@&@&@&@&@&@&@&@&@&@&@&@&@&@&@&@&@&@&@&@&@&@&@Q%{ n { ] { ~ ] ~ @ ! @ @ t*&@&@&@&@&@&@&@&@&@&@&@&@&@&@&@&@&@&@&@&@&@&@&@&@&@u*; ; ; l , W | b 1 X :+v*&@&@&@&@&@&@&@&@&@&@&@&@&@&@&@&@&@&@&@&@&@&@&@&@&@&@&@&@&@w*} ; & ) @ @ ) _ ~ ! ! n ] ] c ) 9 ( ' ; 7 1 b x*&@&@&@&@&@&@&@&@&@&@&@&@&@&@&@&@&@&@&@&@&@&@&@&@&@&@&@&@&@&@&@&@y*@ @ . @ % ( ;   &   ( ( p (   . )   g.) n ) ' ' ( . . & ; ; ; ; l , W | b 1 X :+,.,.o.v.o.n.4+C b a = 0 , = , = ; ; w ; , z*&@&@&@&@&@&@&@&@&@&@&@&@&@&@&@&@&@&@&@&@&@&@&@&@&@&@&@&@&@&@&@A*6 '.i ; ' . 9 ~ . # ~ ! @ ~ @ @ @ ! ] ~ ] ^ ^ ] { n { ] { ~ ] ~ @ ! @ @ . @ % ( ;   &   ( ( p (   . )   g.) n ) ' ' ( . . & ; ; ; ; l , ",
"g.g.    ) . & , 7 , l ; l l W k D (.1.].@.].K.=.7.~+g+h+<.i+a+0 ; e ( ( & 2 & & . & ' & . & ' , = = 7 7 u b < ' & @ c @ ~ _ ! ^ ! _ ] _ @ B*&@&@&@&@&@&@&@&@&@&@&@&@&@&@&@&@&@&@&@&@&@&@&@&@&@&@&@&@&@8&c @ ~ ] # ^ ] c @ @ ) . C*D*&@&@&@&@&@&@&@&@&@&@&@&@&@&@&@&@&@&@&@&@&@&@&@&@E*F*l l W k D (.1.].@.].G*&@&@&@&@&@&@&@&@&@&@&@&@&@&@&@&@&@&@&@&@&@&@&@&@&@&@&@&@&@H*b < ' & @ c @ ~ _ ! ^ ! _ ] _ @ )   & . 9 l , I*&@&@&@&@&@&@&@&@&@&@&@&@&@&@&@&@&@&@&@&@&@&@&@&@&@&@&@&@&@&@&@&@J*) . ( ( . % . & ' , < < , '   9   ' g.g.    ) . & , 7 , l ; l l W k D (.1.].@.].K.=.7.~+g+h+<.i+a+0 ; e ( ( & 2 & & . & K*&@&@&@&@&@&@&@&@&@&@&@&@&@&@&@&@&@&@&@&@&@&@&@&@&@&@&@&@&@&@&@&@L*b u +.C 6 , 9 $ . @ . c ~ ] ] ] ] ~ + ^ { ] ^ ~ c @ ~ ] # ^ ] c @ @ ) . ( ( . % . & ' , < < , '   9   ' g.g.    ) . & , 7 , l ; l l W k ",
"( ( ' : ' . 9 ; 3 i+M b (.*.K.D.#.;.H B.k l k !+1+{.b+L.k k = $ 2 ! 2 2 ) f . @ @ ( ' & . 9 & ' ; a ; 7 1 ; < , 9 @ @ n ^ { ! ^ ! ] ] ] c M*&@&@&@&@&@&@&@&@&@&@&@&@&@&@&@&@&@&@&@&@&@&@&@&@&@&@&@&@&@Q%~ ~ ] ] @ @ @ + + @ . ' % N*&@&@&@&@&@&@&@&@&@&@&@&@&@&@&@&@&@&@&@&@&@&@&@&@&@O*(.*.K.D.#.;.H B.k l P*&@&@&@&@&@&@&@&@&@&@&@&@&@&@&@&@&@&@&@&@&@&@&@&@&@&@&@&@&@f*; < , 9 @ @ n ^ { ! ^ ! ] ] ] c ! @ . ' ( ' ; Q*&@&@&@&@&@&@&@&@&@&@&@&@&@&@&@&@&@&@&@&@&@&@&@&@&@&@&@&@&@&@&@&@R*. ' % & ' < < < , < , d ' ' & 9 & 9 ( ( ' : ' . 9 ; 3 i+M b (.*.K.D.#.;.H B.k l k !+1+{.b+L.k k = $ 2 ! 2 2 ) f . @ @ ( S*&@&@&@&@&@&@&@&@&@&@&@&@&@&@&@&@&@&@&@&@&@&@&@&@&@&@&@&@&@&@&@&@T*d , b 1 $.Z ' & $ % @ + ~ ] ~ ~ ] ] ~ + ] ^ ~ ] ~ ~ ] ] @ @ @ + + @ . ' % & ' < < < , < , d ' ' & 9 & 9 ( ( ' : ' . 9 ; 3 i+M b (.*.K.D.",
": p < < 7 1 b D 6 Q 8.8.N ).7 l A ; ; l , k a !+]+R.w.j M = S ( ! ! ) ! ! ! ! ! . ) ( & . . & ( = < = = , 9 0 , $ @ @ @ ] @ ! ^ { ] ] _ ] J&&@&@&@&@&@&@&@&@&@&@&@&@&@&@&@&@&@&@&@&@&@&@&@&@&@&@&@&@&@1&@ @ @ $ @ . . % 9 . % 9 ( U*V*&@&@&@&@&@&@&@&@&@&@&@&@&@&@&@&@&@&@&@&@&@&@&@&@W*X*).7 l A ; ; l , k Y*&@&@&@&@&@&@&@&@&@&@&@&@&@&@&@&@&@&@&@&@&@&@&@&@&@&@&@&@&@C%9 0 , $ @ @ @ ] @ ! ^ { ] ] _ ] @ c n c . . ' Z*&@&@&@&@&@&@&@&@&@&@&@&@&@&@&@&@&@&@&@&@&@&@&@&@&@&@&@&@&@&@&@&@`*% 9 ( , 1 } Z 1 , d d 0 l , 7 7 d 0 : p < < 7 1 b D 6 Q 8.8.N ).7 l A ; ; l , k a !+]+R.w.j M = S ( ! ! ) ! ! ! ! ! . )  =&@&@&@&@&@&@&@&@&@&@&@&@&@&@&@&@&@&@&@&@&@&@&@&@&@&@&@&@&@&@&@&@.=; & ; 7 j u 6 7 $ @ g @ g @ / ] ~ ] @ ] ~ ~ ] @ @ @ @ $ @ . . % 9 . % 9 ( , 1 } Z 1 , d d 0 l , 7 7 d 0 : p < < 7 1 b D 6 Q 8.8.N ).7 l ",
"4 } } 6 } =.U N H 1 3 g A ' ; 3 d d ; & & l | ;+[ t.'.l , # . ( ! ! ! ! ) ! c @ @ . ( ) . . & % , , 7 0 , , ; 1 + ] . ) ~ _ ! ~ _ ~ ] ~ _ M*&@&@&@&@&@&@&@&@&@&@&@&@&@&@&@&@&@&@&@&@&@&@&@&@&@&@&@&@&@+=. . . % . % . % & , 7 < } X @=&@&@&@&@&@&@&@&@&@&@&@&@&@&@&@&@&@&@&@&@&@&@&@&@&@#=' ; 3 d d ; & & l $=&@&@&@&@&@&@&@&@&@&@&@&@&@&@&@&@&@&@&@&@&@&@&@&@&@&@&@&@&@C%, ; 1 + ] . ) ~ _ ! ~ _ ~ ] ~ _ ! n ~ ] c ) ' %=&@&@&@&@&@&@&@&@&@&@&@&@&@&@&@&@&@&@&@&@&@&@&@&@&@&@&@&@&@&@&@&@&=7 < } X 6 1 7 ; d , , 7 | 1 [ } j [ 4 } } 6 } =.U N H 1 3 g A ' ; 3 d d ; & & l | ;+[ t.'.l , # . ( ! ! ! ! ) ! c @ @ . *=&@&@&@&@&@&@&@&@&@&@&@&@&@&@&@&@&@&@&@&@&@&@&@&@&@&@&@&@&@&@&@&@f@' & ' a | u u u ; & @ & @ @ ] ~ g @ c @ @ . f . . . . % . % . % & , 7 < } X 6 1 7 ; d , , 7 | 1 [ } j [ 4 } } 6 } =.U N H 1 3 g A ' ; 3 ",
"'.u j C U !.U i * , , * . . . ( c . ( ' d , < i ;.U l ; & ) : j+n n n ) n ) ! ! c ) ( . . .   . , & , 0 , 5 , u @ g . 2 c ~ ! ! @ ] ~ { c ==&@&@&@&@&@&@&@&@&@&@&@&@&@&@&@&@&@&@&@&@&@&@&@&@&@&@&@&@&@-=. % % & ' & ; , 4 Z u u } 1 ;=>=&@&@&@&@&@&@&@&@&@&@&@&@&@&@&@&@&@&@&@&@&@&@&@&@,='=. ( c . ( ' d , E&&@&@&@&@&@&@&@&@&@&@&@&@&@&@&@&@&@&@&@&@&@&@&@&@&@&@&@&@&@C%5 , u @ g . 2 c ~ ! ! @ ] ~ { c { n n ) ) )   )=&@&@&@&@&@&@&@&@&@&@&@&@&@&@&@&@&@&@&@&@&@&@&@&@&@&@&@&@&@&@&@&@!=u u } 1 8 , l , , b 1 b b 6 j 8+$.v '.u j C U !.U i * , , * . . . ( c . ( ' d , < i ;.U l ; & ) : j+n n n ) n ) ! ! c ) O@&@&@&@&@&@&@&@&@&@&@&@&@&@&@&@&@&@&@&@&@&@&@&@&@&@&@&@&@&@&@&@&@~=. . 9 = , b D j 1 l & . @ @ @ g ~ c @ . % . . f . % % & ' & ; , 4 Z u u } 1 8 , l , , b 1 b b 6 j 8+$.v '.u j C U !.U i * , , * . . . ( ",
"{.j '.=.N =.b t * 0 ( ( o @ ! !   ) ( : ' 8 1 u *+; . < : K j+++c .+) ) ) .+) .+!   (   2 & ( & : , & 0 d 1 < } < % .   ) @ ! ! @ { @ ~ ! {=&@&@&@&@&@&@&@&@&@&@&@&@&@&@&@&@&@&@&@&@&@&@&@&@&@&@&@&@&@]=& ( 0 , 0 J } C H u b , l ; ; ^=&@&@&@&@&@&@&@&@&@&@&@&@&@&@&@&@&@&@&@&@&@&@&@&@&@/=! !   ) ( : ' 8 (=&@&@&@&@&@&@&@&@&@&@&@&@&@&@&@&@&@&@&@&@&@&@&@&@&@&@&@&@&@f#1 < } < % .   ) @ ! ! @ { @ ~ ! _ ] _ ] _ c ~ _=&@&@&@&@&@&@&@&@&@&@&@&@&@&@&@&@&@&@&@&@&@&@&@&@&@&@&@&@&@&@&@&@:=b , l ; ; , 1 | b b b b b ;+i j '.8+{.j '.=.N =.b t * 0 ( ( o @ ! !   ) ( : ' 8 1 u *+; . < : K j+++c .+) ) ) .+) .+!   s@&@&@&@&@&@&@&@&@&@&@&@&@&@&@&@&@&@&@&@&@&@&@&@&@&@&@&@&@&@&@&@&@<=. ) ( , = l b 6 j , & . . . @ @ c @ . ( & 2 & & & ( 0 , 0 J } C H u b , l ; ; , 1 | b b b b b ;+i j '.8+{.j '.=.N =.b t * 0 ( ( o @ ! ! ",
"'.8+_.*.C = }+7 & % f @ ! K ! ! ) ) ( 8 8 1 } /.k+' & ' ) { K K ) n ) ) )   ) .   ( ' ' ' ' ' ' 8 J $ * ' , 7 1 r d . ' ( . ) 2 ! @ ! ~ _ [=&@&@&@&@&@&@&@&@&@&@&@&@&@&@&@&@&@&@&@&@&@&@&@&@&@&@&@&@&@}=, 7 1 6 :+H u 6 , * ; = ' ; ; |=1=&@&@&@&@&@&@&@&@&@&@&@&@&@&@&@&@&@&@&@&@&@&@&@&@2=3=! ) ) ( 8 8 1 4=&@&@&@&@&@&@&@&@&@&@&@&@&@&@&@&@&@&@&@&@&@&@&@&@&@&@&@&@&@!@, 7 1 r d . ' ( . ) 2 ! @ ! ~ _ ~ _ ^ _ ! ! ! 5=&@&@&@&@&@&@&@&@&@&@&@&@&@&@&@&@&@&@&@&@&@&@&@&@&@&@&@&@&@&@&@&@6=; = ' ; ; , b 1 1 1 b b j j {.8+{.8+'.8+_.*.C = }+7 & % f @ ! K ! ! ) ) ( 8 8 1 } /.k+' & ' ) { K K ) n ) ) )   ) .   ( 7=&@&@&@&@&@&@&@&@&@&@&@&@&@&@&@&@&@&@&@&@&@&@&@&@&@&@&@&@&@&@&@&@8=! %   & 7 M b [ u ' ; ; & & 9 . 3 . & ' , 7 , , , 7 1 6 :+H u 6 , * ; = ' ; ; , b 1 1 1 b b j j {.8+{.8+'.8+_.*.C = }+7 & % f @ ! K ! ! ",
";+=.d+i * ; , ( ( ! ) ! ! ! _ ! : K ( p 5 I R l+1 < : x   ++! ! n n ) ) )   ' 8 d ' ' , W d d 7 , ' (   ' ' < J 6 8 , J ' 0 0 @ ( n ] _ _ 9=&@&@&@&@&@&@&@&@&@&@&@&@&@&@&@&@&@&@&@&@&@&@&@&@&@&@&@&@&@0=v -.H +.J a 8 0 ; & ( ; 9 ; 4 B.a=&@&@&@&@&@&@&@&@&@&@&@&@&@&@&@&@&@&@&@&@&@&@&@&@&@b=! : K ( p 5 I c=&@&@&@&@&@&@&@&@&@&@&@&@&@&@&@&@&@&@&@&@&@&@&@&@&@&@&@&@&@!@' < J 6 8 , J ' 0 0 @ ( n ] _ _ ] _ { ! ) ! c d=&@&@&@&@&@&@&@&@&@&@&@&@&@&@&@&@&@&@&@&@&@&@&@&@&@&@&@&@&@&@&@&@e=( ; 9 ; 4 B.6 u u b i u =.N 4+)+]+^+;+=.d+i * ; , ( ( ! ) ! ! ! _ ! : K ( p 5 I R l+1 < : x   ++! ! n n ) ) )   ' 8 d ' %=&@&@&@&@&@&@&@&@&@&@&@&@&@&@&@&@&@&@&@&@&@&@&@&@&@&@&@&@&@&@&@&@f=) ( . ' ; , a 1 v 6 * * ; & > A & l , k D b D j v -.H +.J a 8 0 ; & ( ; 9 ; 4 B.6 u u b i u =.N 4+)+]+^+;+=.d+i * ; , ( ( ! ) ! ! ! _ ! ",
"d+=.} , & 0 2 @ @ ! ] _ ] ] _ _ n :   < 7 H U } 7 8 |.  2 K 2 ! ++) K ) ( x ' 8 8 , 7 < 4 7 7 < d d ' & ' , 7 < , 0 1 6 7 0 , '   ! ! ! ! ==&@&@&@&@&@&@&@&@&@&@&@&@&@&@&@&@&@&@&@&@&@&@&@&@&@&@&@&@&@g=-.j 7 & , , 0 }+2 & ( & ; d 7 7 w#h=&@&@&@&@&@&@&@&@&@&@&@&@&@&@&@&@&@&@&@&@&@&@&@&@~&i=n :   < 7 H j=&@&@&@&@&@&@&@&@&@&@&@&@&@&@&@&@&@&@&@&@&@&@&@&@&@&@&@&@&@!@, 7 < , 0 1 6 7 0 , '   ! ! ! ! { ~ ! ~ ) ! @ k=&@&@&@&@&@&@&@&@&@&@&@&@&@&@&@&@&@&@&@&@&@&@&@&@&@&@&@&@&@&@&@&@&@l=& ; d 7 7 7 6 } 1 i i ;+;+'.m+<.4+d+=.} , & 0 2 @ @ ! ] _ ] ] _ _ n :   < 7 H U } 7 8 |.  2 K 2 ! ++) K ) ( x ' 8 8 , m=&@&@&@&@&@&@&@&@&@&@&@&@&@&@&@&@&@&@&@&@&@&@&@&@&@&@&@&@&@&@&@&@n=% ( & & 0 , ; a } } 7 7 , = = * k 7 b b }.-._.2.-.j 7 & , , 0 }+2 & ( & ; d 7 7 7 6 } 1 i i ;+;+'.m+<.4+d+=.} , & 0 2 @ @ ! ] _ ] ] _ _ ",
"U i * & ' & . @ c ] ] ] _ ^ ] n 0.: ' 8 = U U ; , ' |.  ) ) ! 2 ) ) 2 x ( ' 8 < < < < 1 B.4 < < ' ' : ' p 8 8 < 4 . 3 d 6 [ 4 & . ) c ) . B*&@&@&@&@&@&@&@&@&@&@&@&@&@&@&@&@&@&@&@&@&@&@&@&@&@&@&@&@&@o=l ; , , & &   % . % 2 & 7 W 7 d ; p=&@&@&@&@&@&@&@&@&@&@&@&@&@&@&@&@&@&@&@&@&@&@&@&@&@q=0.: ' 8 = U j=&@&@&@&@&@&@&@&@&@&@&@&@&@&@&@&@&@&@&@&@&@&@&@&@&@&@&@&@&@k#8 8 < 4 . 3 d 6 [ 4 & . ) c ) . ) @ )   ( ( ( ' r=&@&@&@&@&@&@&@&@&@&@&@&@&@&@&@&@&@&@&@&@&@&@&@&@&@&@&@&@&@&@&@&@s=& 7 W 7 d ; 7 4 a 7 a a a+a+;+{.)+U i * & ' & . @ c ] ] ] _ ^ ] n 0.: ' 8 = U U ; , ' |.  ) ) ! 2 ) ) 2 x ( ' 8 < < < t=&@&@&@&@&@&@&@&@&@&@&@&@&@&@&@&@&@&@&@&@&@&@&@&@&@&@&@&@&@&@&@&@u=' & & ; & , 7 i H v 7 > | b | 6 '.C -.-.2.-.[ b l ; , , & &   % . % 2 & 7 W 7 d ; 7 4 a 7 a a a+a+;+{.)+U i * & ' & . @ c ] ] ] _ ^ ] n ",
"7 ; . & & 2 @ ) ! m ] _ _ ] _ n ) ) d ; 7 =.N | d '   . ) o ) ! )     ( ' p , 8 < J 4 z z G < <   ( p d 8 8 < 4 < ; ' 7 4 7 7 4 ' . . . & v=&@&@&@&@&@&@&@&@&@&@&@&@&@&@&@&@&@&@&@&@&@&@&@&@&@&@&@&@&@w=* ; d 0 . . % 2 . % ( ' 7 l ; ; & d x=&@&@&@&@&@&@&@&@&@&@&@&@&@&@&@&@&@&@&@&@&@&@&@&@&@y=) d ; 7 =.z=&@&@&@&@&@&@&@&@&@&@&@&@&@&@&@&@&@&@&@&@&@&@&@&@&@&@&@&@&@K@8 < 4 < ; ' 7 4 7 7 4 ' . . . &   &   & & 9 ; , A=&@&@&@&@&@&@&@&@&@&@&@&@&@&@&@&@&@&@&@&@&@&@&@&@&@&@&@&@&@&@&@&@z@' 7 l ; ; & d 7 l & * 7 b k k a+= 7 ; . & & 2 @ ) ! m ] _ _ ] _ n ) ) d ; 7 =.N | d '   . ) o ) ! )     ( ' p , 8 < J B=&@&@&@&@&@&@&@&@&@&@&@&@&@&@&@&@&@&@&@&@&@&@&@&@&@&@&@&@&@&@&@&@C=, = W b 7 a 7 | j H C u -.C C C C u j j k 7 = d * ; d 0 . . % 2 . % ( ' 7 l ; ; & d 7 l & * 7 b k k a+= 7 ; . & & 2 @ ) ! m ] _ _ ] _ n ",
"$ 9 ( ( . @ c ~ ] ] ] ! c ! n .   9 ' ; 6 !.,.b = ' 9 . @ . ! . .   9 ' ' , 8 7 8 J z 1 F < L E ' d p < < ` 4 < 6 4 7 6 B.7 | '.7 d & . ; r&&@&@&@&@&@&@&@&@&@&@&@&@&@&@&@&@&@&@&@&@&@&@&@&@&@&@&@&@&@D=, ' . / . ) . ) %   ( ' 7 ' ; l d 7 E=&@&@&@&@&@&@&@&@&@&@&@&@&@&@&@&@&@&@&@&@&@&@&@&@&@F=9 ' ; 6 !.v*&@&@&@&@&@&@&@&@&@&@&@&@&@&@&@&@&@&@&@&@&@&@&@&@&@&@&@&@&@B@` 4 < 6 4 7 6 B.7 | '.7 d & . ; ' d ; , , ; ; l G=&@&@&@&@&@&@&@&@&@&@&@&@&@&@&@&@&@&@&@&@&@&@&@&@&@&@&@&@&@&@&@&@H=' 7 ' ; l d 7 , % ; ; 0 = , * - M $ 9 ( ( . @ c ~ ] ] ] ! c ! n .   9 ' ; 6 !.,.b = ' 9 . @ . ! . .   9 ' ' , 8 7 8 I=J=&@&@&@&@&@&@&@&@&@&@&@&@&@&@&@&@&@&@&@&@&@&@&@&@&@&@&@&@&@&@&@&@K=l ; - k 7 7 b D '.D.N ;.u u j T j | 7 d l d d 7 , ' . / . ) . ) %   ( ' 7 ' ; l d 7 , % ; ; 0 = , * - M $ 9 ( ( . @ c ~ ] ] ] ! c ! n . ",
". ( 9 . c ) @ ^ @ _ ] ] ! ] ! ) c d 9 6 }.n+*.; d ; . @ ! @ @ . ) 9 . |.' , < 7 8 < J h J F 8 8 p 8 < < < 4 4 6 X 6 | | u '.| | [ 1 k ; ; #&&@&@&@&@&@&@&@&@&@&@&@&@&@&@&@&@&@&@&@&@&@&@&@&@&@&@&@&@&@L=( ( ) @ @ % ) & ) 2 ( ' d ; ; 7 < < , M=&@&@&@&@&@&@&@&@&@&@&@&@&@&@&@&@&@&@&@&@&@&@&@&@&@N=9 6 }.n+O=&@&@&@&@&@&@&@&@&@&@&@&@&@&@&@&@&@&@&@&@&@&@&@&@&@&@&@&@&@B@4 4 6 X 6 | | u '.| | [ 1 k ; ; l = * | 7 k k b P=&@&@&@&@&@&@&@&@&@&@&@&@&@&@&@&@&@&@&@&@&@&@&@&@&@&@&@&@&@&@&@&@Q=' d ; ; 7 < < , . ' ; ' * , ; ; & . ( 9 . c ) @ ^ @ _ ] ] ! ] ! ) c d 9 6 }.n+*.; d ; . @ ! @ @ . ) 9 . |.' , < 7 8 R=&@&@&@&@&@&@&@&@&@&@&@&@&@&@&@&@&@&@&@&@&@&@&@&@&@&@&@&@&@&@&@&@S=T=b 2+| j j.j $.H $.+.C [ b 7 7 1 1 b 7 7 1 , '   ( ( ) @ @ % ) & ) 2 ( ' d ; ; 7 < < , . ' ; ' * , ; ; & . ( 9 . c ) @ ^ @ _ ] ] ! ] ! ) ",
"c ) c ~ n ! ! _ _ ] ] _ ~ c @ ! . W ; u -.(+;+; ; & . c @ ! o . ( 9   ' ' , , , J J 1 J J z < 8 , < 4 < | 6 } $.u C $.'.$.$.'.$.'.C u b k 7$&@&@&@&@&@&@&@&@&@&@&@&@&@&@&@&@&@&@&@&@&@&@&@&@&@&@&@&@&@U=( (   ) @ ! ) . . . ) & ' ; , < a 7 ' V=W=&@&@&@&@&@&@&@&@&@&@&@&@&@&@&@&@&@&@&@&@&@&@&@&@X=p&u -.(+Y=&@&@&@&@&@&@&@&@&@&@&@&@&@&@&@&@&@&@&@&@&@&@&@&@&@&@&@&@&@Z=6 } $.u C $.'.$.$.'.$.'.C u b k 7 b 6 D b 6 '.-.`=&@&@&@&@&@&@&@&@&@&@&@&@&@&@&@&@&@&@&@&@&@&@&@&@&@&@&@&@&@&@&@&@ -& ' ; , < a 7 ' . & ' , 7 d ; . $ c ) c ~ n ! ! _ _ ] ] _ ~ c @ ! . W ; u -.(+;+; ; & . c @ ! o . ( 9   ' ' , , , J .-&@&@&@&@&@&@&@&@&@&@&@&@&@&@&@&@&@&@&@&@&@&@&@&@&@&@&@&@&@&@&@&@+-'.-.H _.,.;.$.j 6 = , 7 , 1 7 < 6 1 8 ' , ' ( ( ' ( (   ) @ ! ) . . . ) & ' ; , < a 7 ' . & ' , 7 d ; . $ c ) c ~ n ! ! _ _ ] ] _ ~ c @ ! ",
"c c ) n ] 0.^ @ _ ^ ] ~ c ] n . ' d 7 } =.:+M a & 9 @ @ @ @ ) 2     ( ' ' 8 d 0 , J 1 < J J < 7 , 7 7 7 6 } H U #.,.C }.3.L.3._.H *.;.H j i@&@&@&@&@&@&@&@&@&@&@&@&@&@&@&@&@&@&@&@&@&@&@&@&@&@&@&@&@&@@-) ! ! ! @ ! @ ! @ . @ . ( & , 7 , ' ; % #-&@&@&@&@&@&@&@&@&@&@&@&@&@&@&@&@&@&@&@&@&@&@&@&@&@$-} =.:+%-&@&@&@&@&@&@&@&@&@&@&@&@&@&@&@&@&@&@&@&@&@&@&@&@&@&@&@&@&@&-} H U #.,.C }.3.L.3._.H *.;.H j j C Q N U =.*.U *-&@&@&@&@&@&@&@&@&@&@&@&@&@&@&@&@&@&@&@&@&@&@&@&@&@&@&@&@&@&@&@&@&@v&( & , 7 , ' ; % . & ' ' & % . . c c ) n ] 0.^ @ _ ^ ] ~ c ] n . ' d 7 } =.:+M a & 9 @ @ @ @ ) 2     ( ' ' 8 d 0 , =-&@&@&@&@&@&@&@&@&@&@&@&@&@&@&@&@&@&@&@&@&@&@&@&@&@&@&@&@&@&@&@&@x&*.U -.u -.u 7 l , ; l , ; ' & & 8 8 , 0 E ' ( : ( ) ! ! ! @ ! @ ! @ . @ . ( & , 7 , ' ; % . & ' ' & % . . c c ) n ] 0.^ @ _ ^ ] ~ c ] n . ",
"c ] c _ c _ ] _ { ] ^ ^ ~ { . ( d . 4 D o+i } * , . ) ) @ ! 2 f ) ( ( : , E , , 6 1 b b 1 6 a 7 7 a a 6 C #.'+'+8.o.8.].<.<.5.t.].U =.,.#.q%&@&@&@&@&@&@&@&@&@&@&@&@&@&@&@&@&@&@&@&@&@&@&@&@&@&@&@&@&@--g.2 ) c ! n @ ! . ) ) ( & ' , ' 0 d 0 & ;->-&@&@&@&@&@&@&@&@&@&@&@&@&@&@&@&@&@&@&@&@&@&@&@&@,-'-o+i 4=&@&@&@&@&@&@&@&@&@&@&@&@&@&@&@&@&@&@&@&@&@&@&@&@&@&@&@&@&@)-#.'+'+8.o.8.].<.<.5.t.].U =.,.#.U -.u b 6 i 6 b !-&@&@&@&@&@&@&@&@&@&@&@&@&@&@&@&@&@&@&@&@&@&@&@&@&@&@&@&@&@&@&@&@&@~-& ' , ' 0 d 0 & 9 & ' ' ( . . . c ] c _ c _ ] _ { ] ^ ^ ~ { . ( d . 4 D o+i } * , . ) ) @ ! 2 f ) ( ( : , E , , 6 {-&@&@&@&@&@&@&@&@&@&@&@&@&@&@&@&@&@&@&@&@&@&@&@&@&@&@&@&@&@&@&@&@]-6 b b b 1 , , 0 ' ' & ( ( ( 0 E ' E E E : : x   y g.2 ) c ! n @ ! . ) ) ( & ' , ' 0 d 0 & 9 & ' ' ( . . . c ] c _ c _ ] _ { ] ^ ^ ~ { . ( ",
"c n ] ] ^ ^ ^ ] _ ^ ^ _ @ c @ )   ; < u :+:+* , % . @ ) @ 2 ( 2 ( x ( : ' , , , a b 1 i b D D i b 1 j '.]+,.,.<._.{.{.{.{.{.}.8+'.i 6 } C ^-&@&@&@&@&@&@&@&@&@&@&@&@&@&@&@&@&@&@&@&@&@&@&@&@&@&@&@&@&@/-x x K ! ) ! c ) ) .   ' ' , 0 ' & ; ( 9 & (-&@&@&@&@&@&@&@&@&@&@&@&@&@&@&@&@&@&@&@&@&@&@&@&@&@_-:+:+:-&@&@&@&@&@&@&@&@&@&@&@&@&@&@&@&@&@&@&@&@&@&@&@&@&@&@&@&@&@<-,.,.<._.{.{.{.{.{.}.8+'.i 6 } C i b , 7 a 7 a 7 , [-&@&@&@&@&@&@&@&@&@&@&@&@&@&@&@&@&@&@&@&@&@&@&@&@&@&@&@&@&@&@&@&@}-' , 0 ' & ; ( 9 & ( ' &   . . . c n ] ] ^ ^ ^ ] _ ^ ^ _ @ c @ )   ; < u :+:+* , % . @ ) @ 2 ( 2 ( x ( : ' , , , |-1-&@&@&@&@&@&@&@&@&@&@&@&@&@&@&@&@&@&@&@&@&@&@&@&@&@&@&@&@&@&@&@&@2-a 7 , 7 , , ' 0 ' 0 ( ( ( ( ( x 2 x : P x : : x : x x K ! ) ! c ) ) .   ' ' , 0 ' & ; ( 9 & ( ' &   . . . c n ] ] ^ ^ ^ ] _ ^ ^ _ @ c @ ) ",
"! @ ] ^ ] ^ ] ^ ~ ^ ] ~ { c @ . ' ' ; } p+o+w * & . & ( ( ( 0 ( ( ( ( ' 7 1 i i j i [ '.-.Q $.j '.C C p+-.p+v ;+j b 2+;+[.8+[.2+a a b 1 6 3-&@&@&@&@&@&@&@&@&@&@&@&@&@&@&@&@&@&@&@&@&@&@&@&@&@&@&@&@&@4-x K 2 ) ) ! ! ! ) ) . ( 0 0 ' ( & ( & & ( 5-,=&@&@&@&@&@&@&@&@&@&@&@&@&@&@&@&@&@&@&@&@&@&@&@&@6-7-o+8-&@&@&@&@&@&@&@&@&@&@&@&@&@&@&@&@&@&@&@&@&@&@&@&@&@&@&@&@&@9-p+v ;+j b 2+;+[.8+[.2+a a b 1 6 1 7 = * , l 0 ' 0 0-&@&@&@&@&@&@&@&@&@&@&@&@&@&@&@&@&@&@&@&@&@&@&@&@&@&@&@&@&@&@&@&@a-0 0 ' ( & ( & & ( & . ( . 2 . @ ! @ ] ^ ] ^ ] ^ ~ ^ ] ~ { c @ . ' ' ; } p+o+w * & . & ( ( ( 0 ( ( ( ( ' 7 1 i i b-&@&@&@&@&@&@&@&@&@&@&@&@&@&@&@&@&@&@&@&@&@&@&@&@&@&@&@&@&@&@&@&@&@c-0 ' 0 ' 0 ' : ' ' ( ( ( ( ) ( ( y 2 x x Y.: x x x x K 2 ) ) ! ! ! ) ) . ( 0 0 ' ( & ( & & ( & . ( . 2 . @ ! @ ] ^ ] ^ ] ^ ~ ^ ] ~ { c @ . ",
". ! _ ] ] ^ _ ] { ] ^ ~ c @ @ ) d ' * } >.q+= * * & ' : ' , , }+J , * 0 , a 1 6 6 ;+j H ,.,.*.2.v C C } i D b k 2+a 2+a a+a+b b , , 7 I , d-&@&@&@&@&@&@&@&@&@&@&@&@&@&@&@&@&@&@&@&@&@&@&@&@&@&@&@&@&@4-( y ) ++2 ! ) @ ) . ) ( ' ' e 2 & ; 0 ' ' & e-&@&@&@&@&@&@&@&@&@&@&@&@&@&@&@&@&@&@&@&@&@&@&@&@&@f-q+g-&@&@&@&@&@&@&@&@&@&@&@&@&@&@&@&@&@&@&@&@&@&@&@&@&@&@&@&@&@h-D b k 2+a 2+a a+a+b b , , 7 I , J a , ; ; ; ( ' ( i-&@&@&@&@&@&@&@&@&@&@&@&@&@&@&@&@&@&@&@&@&@&@&@&@&@&@&@&@&@&@&@&@&@j-' e 2 & ; 0 ' ' & & % ( & ) @ . ! _ ] ] ^ _ ] { ] ^ ~ c @ @ ) d ' * } >.q+= * * & ' : ' , , }+J , * 0 , a 1 6 k-&@&@&@&@&@&@&@&@&@&@&@&@&@&@&@&@&@&@&@&@&@&@&@&@&@&@&@&@&@&@&@&@[*; ( ' ( ' 0 p , 8 0 ' ' ' ( 2 ( x ( ) 2 x x x x x x ( y ) ++2 ! ) @ ) . ) ( ' ' e 2 & ; 0 ' ' & & % ( & ) @ . ! _ ] ] ^ _ ] { ] ^ ~ c @ @ ) ",
"! @ @ @ ] ~ ^ ] { ~ ] ] ~ c ! ( ( 7 6 =.4+]+a b 0 & ; ' * < b , = * , a D f+C ]+N ,.,.=.'.| , W 1 6 1 a 7 7 7 a , 7 I = * * 7 0+, a , * = l-&@&@&@&@&@&@&@&@&@&@&@&@&@&@&@&@&@&@&@&@&@&@&@&@&@&@&@&@&@4-x x y 2 x ) ) 2 ) . 2 ( ( ( e ; 0 ( * 0 ; ( m-n-&@&@&@&@&@&@&@&@&@&@&@&@&@&@&@&@&@&@&@&@&@&@&@&@o-p-Y*&@&@&@&@&@&@&@&@&@&@&@&@&@&@&@&@&@&@&@&@&@&@&@&@&@&@&@&@&@O&7 7 a , 7 I = * * 7 0+, a , * = | 1 7 * ; ( & ' ' q-&@&@&@&@&@&@&@&@&@&@&@&@&@&@&@&@&@&@&@&@&@&@&@&@&@&@&@&@&@&@&@&@&@r-( e ; 0 ( * 0 ; ( ; e ' ( % f ! @ @ @ ] ~ ^ ] { ~ ] ] ~ c ! ( ( 7 6 =.4+]+a b 0 & ; ' * < b , = * , a D f+C s-t-&@&@&@&@&@&@&@&@&@&@&@&@&@&@&@&@&@&@&@&@&@&@&@&@&@&@&@&@&@&@&@&@u-( & ' ' 0 : 0 d ' 8 ' E : E ' x : ( ( 2 ( x : : : x x x y 2 x ) ) 2 ) . 2 ( ( ( e ; 0 ( * 0 ; ( ; e ' ( % f ! @ @ @ ] ~ ^ ] { ~ ] ] ~ c ! ( ",
"@ @ @ ! ~ ] ~ ^ ! { ] ~ @ ! ) ' d } [ r+=.C a+a+= = = , | j C [.D [.{.-._.)+,.4+=.]+u 6 7 d , | d , d , d , , d , , , d , , 7 < 7 J 7 , , D+&@&@&@&@&@&@&@&@&@&@&@&@&@&@&@&@&@&@&@&@&@&@&@&@&@&@&@&@&@4-' y ( g.x y 2 ) % ) 9 ( ( 2 ( 0 0 * ( ; 0 * 0 v-&@&@&@&@&@&@&@&@&@&@&@&@&@&@&@&@&@&@&@&@&@&@&@&@&@w-x-&@&@&@&@&@&@&@&@&@&@&@&@&@&@&@&@&@&@&@&@&@&@&@&@&@&@&@&@&@f#, , d , , , d , , 7 < 7 J 7 , , 6 6 6 d ; ; & ( ( ' y-&@&@&@&@&@&@&@&@&@&@&@&@&@&@&@&@&@&@&@&@&@&@&@&@&@&@&@&@&@&@&@&@z-2 ( 0 0 * ( ; 0 * 0 , 0 e & f @ @ @ ! ~ ] ~ ^ ! { ] ~ @ ! ) ' d } [ r+=.C a+a+= = = , | j C [.D [.{.-._.)+,.A-&@&@&@&@&@&@&@&@&@&@&@&@&@&@&@&@&@&@&@&@&@&@&@&@&@&@&@&@&@&@&@&@&@B-; & ( ( ' ' ' ' , ' d 8 , 8 p 0 ' 0 : x ( ' ( ' E x ' y ( g.x y 2 ) % ) 9 ( ( 2 ( 0 0 * ( ; 0 * 0 , 0 e & f @ @ @ ! ~ ] ~ ^ ! { ] ~ @ ! ) ' ",
". @ @ ~ ~ ~ ~ c ! @ @ ! ) ) ( ' < [ '.N ^+)+1+= k k | D j 2.K.]+d.<.R.<.d.6.]+_.-.j b = d , d ' d d , 7 d d ( ( '   ( ' ' : 0 ' 7 a 7 7 7 7$&@&@&@&@&@&@&@&@&@&@&@&@&@&@&@&@&@&@&@&@&@&@&@&@&@&@&@&@&@4-( ( x 2 ( ( ) 2 . . % ) & 2 % e ' ' * 0 * , , C-D-&@&@&@&@&@&@&@&@&@&@&@&@&@&@&@&@&@&@&@&@&@&@&@&@E-F-&@&@&@&@&@&@&@&@&@&@&@&@&@&@&@&@&@&@&@&@&@&@&@&@&@&@&@&@&@f#d ( ( '   ( ' ' : 0 ' 7 a 7 7 7 7 6 j 7 , ' 9 ( ( ( G-&@&@&@&@&@&@&@&@&@&@&@&@&@&@&@&@&@&@&@&@&@&@&@&@&@&@&@&@&@&@&@&@&@H-% e ' ' * 0 * , , 0 0 & % % . @ @ ~ ~ ~ ~ c ! @ @ ! ) ) ( ' < [ '.N ^+)+1+= k k | D j 2.K.]+d.<.R.<.d.6.]+I-&@&@&@&@&@&@&@&@&@&@&@&@&@&@&@&@&@&@&@&@&@&@&@&@&@&@&@&@&@&@&@&@*#J-' 9 ( ( ( ( & ( ; ' ' d , p , ' : , < d ' ' ( x ' x ( ( x 2 ( ( ) 2 . . % ) & 2 % e ' ' * 0 * , , 0 0 & % % . @ @ ~ ~ ~ ~ c ! @ @ ! ) ) ( ' ",
"2 . @ @ @ ! @ ! @ ] @ ) 9 ( ' ' ; k N _.1+d.{.[.2+!+D j }.)+R.d.f.m+d.s+{.[.D ;+| b | < 8 d p d 0 ' d p < , d ' ' , 8 ' ( ( : < J 6 j j i o$&@&@&@&@&@&@&@&@&@&@&@&@&@&@&@&@&@&@&@&@&@&@&@&@&@&@&@&@&@K-: x ' x ( ) ) . ) @ c % ) f % ( 0 ' 0 , , , , 0 L-&@&@&@&@&@&@&@&@&@&@&@&@&@&@&@&@&@&@&@&@&@&@&@&@&@&@&@&@&@&@&@&@&@&@&@&@&@&@&@&@&@&@&@&@&@&@&@&@&@&@&@&@&@&@&@B@, d ' ' , 8 ' ( ( : < J 6 j j i D u H 1 7 d ' 9 ( 9 M-&@&@&@&@&@&@&@&@&@&@&@&@&@&@&@&@&@&@&@&@&@&@&@&@&@&@&@&@&@&@&@&@&@N-% ( 0 ' 0 , , , , 0 & t+2 % 2 . @ @ @ ! @ ! @ ] @ ) 9 ( ' ' ; k N _.1+d.{.[.2+!+D j }.)+R.d.f.m+d.s+{.[.O-&@&@&@&@&@&@&@&@&@&@&@&@&@&@&@&@&@&@&@&@&@&@&@&@&@&@&@&@&@&@&@&@&@P-7 d ' 9 ( 9   . . 9 ( ( ' ' d , ' ' , < , d 0 ' : E E : x ' x ( ) ) . ) @ c % ) f % ( 0 ' 0 , , , , 0 & t+2 % 2 . @ @ @ ! @ ! @ ] @ ) 9 ( ' ' ",
"9 ) . . ) 9 ) . . ( ( ) ( ( ( ; l a+2.s+'.u+{.u+[.7.1+~+m.o.]+~+C _.-.{.i D 1 6 J < 4 < , p ' p < 1 4 1 < < 7 < 4 1 4 J 7 , 4 1 D i j 1 a Q-&@&@&@&@&@&@&@&@&@&@&@&@&@&@&@&@&@&@&@&@&@&@&@&@&@&@&@&@&@R-: ' 8 : 8 ( ) ! ) ) ) ( . % 2 }+0 * * ; 0 = 0 , S-T-&@&@&@&@&@&@&@&@&@&@&@&@&@&@&@&@&@&@&@&@&@&@&@&@&@&@&@&@&@&@&@&@&@&@&@&@&@&@&@&@&@&@&@&@&@&@&@&@&@&@&@&@&@&@B@< 7 < 4 1 4 J 7 , 4 1 D i j 1 a b 1 b u 1 ; , @ ' ( P&U-&@&@&@&@&@&@&@&@&@&@&@&@&@&@&@&@&@&@&@&@&@&@&@&@&@&@&@&@&@&@&@&@j@X#}+0 * * ; 0 = 0 , 0 0 & 2 9 ) . . ) 9 ) . . ( ( ) ( ( ( ; l a+2.s+'.u+{.u+[.7.1+~+m.o.]+~+C _.-.{.i D V-&@&@&@&@&@&@&@&@&@&@&@&@&@&@&@&@&@&@&@&@&@&@&@&@&@&@&@&@&@&@&@&@&@W-1 ; , @ ' ( @ ' x e ( ( ( 0 0 ' , , < 1 7 0 7 8 ( 8 < : ' 8 : 8 ( ) ! ) ) ) ( . % 2 }+0 * * ; 0 = 0 , 0 0 & 2 9 ) . . ) 9 ) . . ( ( ) ( ( ( ; ",
". . @ . . @ @ $ ( ' ' 9 & & & * D ;+{.~+[.~+d.}.v+_.d.R.L.,.[.8+j 8+'.[ 1 b 1 J < < < 8 p d : d 7 = , , 7 , = ' = , , l , ' = , 7 b D b 7 X-&@&@&@&@&@&@&@&@&@&@&@&@&@&@&@&@&@&@&@&@&@&@&@&@&@&@&@&@&@Y-1 z 1 p ' ( .   . ) . ) o % % & 0 0 0 * * , , 0 & Z-&@&@&@&@&@&@&@&@&@&@&@&@&@&@&@&@&@&@&@&@&@&@&@&@&@&@&@&@&@&@&@&@&@&@&@&@&@&@&@&@&@&@&@&@&@&@&@&@&@&@&@&@&@&@O&, = ' = , , l , ' = , 7 b D b 7 a a a b +., & d ' ' 8 `-&@&@&@&@&@&@&@&@&@&@&@&@&@&@&@&@&@&@&@&@&@&@&@&@&@&@&@&@&@&@&@&@&@ ;& 0 0 0 * * , , 0 & @ @ f . . @ . . @ @ $ ( ' ' 9 & & & * D ;+{.~+[.~+d.}.v+_.d.R.L.,.[.8+j 8+'.[ 1 .;+;&@&@&@&@&@&@&@&@&@&@&@&@&@&@&@&@&@&@&@&@&@&@&@&@&@&@&@&@&@&@&@&@&@@;+., & d ' ' 8 ( ( ( ( 0 8 8 8 < 8 < 7 1 | 7 J 1 < 8 J 1 z 1 p ' ( .   . ) . ) o % % & 0 0 0 * * , , 0 & @ @ f . . @ . . @ @ $ ( ' ' 9 & & & * ",
"c @ c @ @ . @ c $ ( 0 ' 0 9 & , = [.*._.]+n.t.s+6.{.[.0+2+a+2+j i D 6 b b 1 1 < < 8 8 d ' ' ' ' ( ; d ; 0 ; ' ; ' 0 d , ' ; ' ; = , 7 b 7 #;&@&@&@&@&@&@&@&@&@&@&@&@&@&@&@&@&@&@&@&@&@&@&@&@&@&@&@&@&@$;6 6 < 0 ' &   ( 2 . ) . o 2 f 2 & ' 0 0 ' , , ' f %;&;&@&@&@&@&@&@&@&@&@&@&@&@&@&@&@&@&@&@&@&@&@&@&@&@&@&@&@&@&@&@&@&@&@&@&@&@&@&@&@&@&@&@&@&@&@&@&@&@&@&@&@&@&@m&; ' ; ' 0 d , ' ; ' ; = , 7 b 7 = 7 7 < +.6 , , 9 ( ' *;&@&@&@&@&@&@&@&@&@&@&@&@&@&@&@&@&@&@&@&@&@&@&@&@&@&@&@&@&@&@&@&@&@=;-;& ' 0 0 ' , , ' f / ~ @ c @ c @ @ . @ c $ ( 0 ' 0 9 & , = [.*._.]+n.t.s+6.{.[.0+2+a+2+j i D 6 b b f*&@&@&@&@&@&@&@&@&@&@&@&@&@&@&@&@&@&@&@&@&@&@&@&@&@&@&@&@&@&@&@&@&@;;< +.6 , , 9 ( ' , 0 0 , , , , * 7 b 1 i u 6 b 6 6 j 6 1 6 6 < 0 ' &   ( 2 . ) . o 2 f 2 & ' 0 0 ' , , ' f / ~ @ c @ c @ @ . @ c $ ( 0 ' 0 9 & , ",
"c @ @ @ . ) . % . & ( ' , 0 ' b a j !.w+o._.7.8+j 2+a+k a+= a k D [ ;+6 6 6 1 1 p , ' (       . & & ; ( ; ; ' & ; ; ' ; 0 ; ' ; ; & = , 7 }*&@&@&@&@&@&@&@&@&@&@&@&@&@&@&@&@&@&@&@&@&@&@&@&@&@&@&@&@&@0=[.i b 6 7 0 0 e ( 2 @ 2 ! f ! % 2 }+' , , , 8 e . f >;&@&@&@&@&@&@&@&@&@&@&@&@&@&@&@&@&@&@&@&@&@&@&@&@&@&@&@&@&@&@&@&@&@&@&@&@&@&@&@&@&@&@&@&@&@&@&@&@&@&@&@&@&@,;; ' & ; ; ' ; 0 ; ' ; ; & = , 7 ; = , * & u 5 , , 6 ; ';);&@&@&@&@&@&@&@&@&@&@&@&@&@&@&@&@&@&@&@&@&@&@&@&@&@&@&@&@&@&@&@&@&@p#2 }+' , , , 8 e . f @ o c @ @ @ . ) . % . & ( ' , 0 ' b a j !.w+o._.7.8+j 2+a+k a+= a k D [ ;+6 !;&@&@&@&@&@&@&@&@&@&@&@&@&@&@&@&@&@&@&@&@&@&@&@&@&@&@&@&@&@&@&@&@&@&@^=* & u 5 , , 6 ; J 7 7 b < a 7 b , 6 j '.C '.i j.2+C {.j [.i b 6 7 0 0 e ( 2 @ 2 ! f ! % 2 }+' , , , 8 e . f @ o c @ @ @ . ) . % . & ( ' , 0 ' b ",
"@ @ . . 2 % ( & 8 0 & & , J 1 } -.o+].j M j C a+1+k b [.D b b = D j '.u 6 6 1 < , : ' ( ( . 2 .   % & ( & ( & ( & 2 & . % % & & ; & ; = , }*&@&@&@&@&@&@&@&@&@&@&@&@&@&@&@&@&@&@&@&@&@&@&@&@&@&@&@&@&@~;~+'.0+;+1 a , 0 e % % 2 @ ! f ) % ( ' 0 7 J , ( ( 2 ) {;&@&@&@&@&@&@&@&@&@&@&@&@&@&@&@&@&@&@&@&@&@&@&@&@&@&@&@&@&@&@&@&@&@&@&@&@&@&@&@&@&@&@&@&@&@&@&@&@&@&@&@&@l%( & ( & 2 & . % % & & ; & ; = , ; & d 7 3 Y } 7 1 a , ; ];&@&@&@&@&@&@&@&@&@&@&@&@&@&@&@&@&@&@&@&@&@&@&@&@&@&@&@&@&@&@&@&@&@&@^;( ' 0 7 J , ( ( 2 ) f @ @ . . 2 % ( & 8 0 & & , J 1 } -.o+].j M j C a+1+k b [.D b b = D j './;(;&@&@&@&@&@&@&@&@&@&@&@&@&@&@&@&@&@&@&@&@&@&@&@&@&@&@&@&@&@&@&@&@&@_;:;7 3 Y } 7 1 a , ; = k b | b j '.-.=.*.*.N *.Q d._.n.n._.~+'.0+;+1 a , 0 e % % 2 @ ! f ) % ( ' 0 7 J , ( ( 2 ) f @ @ . . 2 % ( & 8 0 & & , J 1 } ",
"% . % . % . & ( & , 7 a } u u u j i b i D 2+k b b b D b = a j 8+6 '.v u 6 1 < , 8 8 ' (   ( 9 ) % ) % . % 2 & 2 & % @ @ . ) % ( & & & ; ' }*&@&@&@&@&@&@&@&@&@&@&@&@&@&@&@&@&@&@&@&@&@&@&@&@&@&@&@&@&@<;)+_.}.;+j i J I 0 }+2 e ! 2 2 ) & ( ; d 1 1 < ' & ( % [;&@&@&@&@&@&@&@&@&@&@&@&@&@&@&@&@&@&@&@&@&@&@&@&@&@&@&@&@&@&@&@&@&@&@&@&@&@&@&@&@&@&@&@&@&@&@&@&@&@&@&@&@};2 & 2 & % @ @ . ) % ( & & & ; ' ; ; ; 1 J =.j } j 7 j [.|;&@&@&@&@&@&@&@&@&@&@&@&@&@&@&@&@&@&@&@&@&@&@&@&@&@&@&@&@&@&@&@&@&@&@1;*=; d 1 1 < ' & ( % @ % . % . % . & ( & , 7 a } u u u j i b i D 2+k b b b D b = a j 8+6 '.v 2;&@&@&@&@&@&@&@&@&@&@&@&@&@&@&@&@&@&@&@&@&@&@&@&@&@&@&@&@&@&@&@&@&@&@3;; 1 J =.j } j 7 j [.j.'.}.-.{.2.*.<.,.<.*.*.*.*.<.x+n.x+<.)+_.}.;+j i J I 0 }+2 e ! 2 2 ) & ( ; d 1 1 < ' & ( % @ % . % . % . & ( & , 7 a } u u u ",
"& ( & ( * ' , b , i } j C :+8+i 6 7 = k 7 a k 7 b [.u {.u '.v -.[ j [ 6 6 1 , p 8 ' ( ) . ) ) . @ . . ! . . . ) . @ . . % (   % 9   & 9 ( }*&@&@&@&@&@&@&@&@&@&@&@&@&@&@&@&@&@&@&@&@&@&@&@&@&@&@&@&@&@4;_.s+=.C j i b 1 , e & 0 2 ) ( & ( & ' , a 6 1 , ' ' ( ( 5;&@&@&@&@&@&@&@&@&@&@&@&@&@&@&@&@&@&@&@&@&@&@&@&@&@&@&@&@&@&@&@&@&@&@&@&@&@&@&@&@&@&@&@&@&@&@&@&@&@&@&@6;. . ) . @ . . % (   % 9   & 9 ( ; ' & & l 1 C u j C *.N <.7;&@&@&@&@&@&@&@&@&@&@&@&@&@&@&@&@&@&@&@&@&@&@&@&@&@&@&@&@&@&@&@&@&@&@8;9;, a 6 1 , ' ' ( ( & ( & ( * ' , b , i } j C :+8+i 6 7 = k 7 a k 7 b [.u {.u '.v -.[ j 0;w%&@&@&@&@&@&@&@&@&@&@&@&@&@&@&@&@&@&@&@&@&@&@&@&@&@&@&@&@&@&@&@&@&@&@a;& & l 1 C u j C *.N <.<.,.R.*.=.*.j {.j D b D ;+j ^+7.{.6._.s+=.C j i b 1 , e & 0 2 ) ( & ( & ' , a 6 1 , ' ' ( ( & ( & ( * ' , b , i } j C :+8+i ",
"; 0 = , , b i '.:+N *.j j j D | - 7 7 7 b k 7 D j '.$.C -.-.'.u [ 6 6 b 1 1 < ' ' ( . . ! @ @ ~ . o . @ . @ ) @ @ @ ~ . ) . 2 ) . 9 ( . 9 r&&@&@&@&@&@&@&@&@&@&@&@&@&@&@&@&@&@&@&@&@&@&@&@&@&@&@&@&@&@b;i 2+D a D i 1  .7 , * ' & ( ' ' ' ; l , 7 6 [ 7 , , , 0 c;*#&@&@&@&@&@&@&@&@&@&@&@&@&@&@&@&@&@&@&@&@&@&@&@&@&@&@&@&@&@&@&@&@&@&@&@&@&@&@&@&@&@&@&@&@&@&@&@&@&@&@6;@ ) @ @ @ ~ . ) . 2 ) . 9 ( . 9 ' ' ; 9 ; , N b * ]+8+2.{.d;&@&@&@&@&@&@&@&@&@&@&@&@&@&@&@&@&@&@&@&@&@&@&@&@&@&@&@&@&@&@&@&@&@&@&@e;, 7 6 [ 7 , , , 0 ; 0 = , , b i '.:+N *.j j j D | - 7 7 7 b k 7 D j '.$.C -.-.'.u [ f;g;&@&@&@&@&@&@&@&@&@&@&@&@&@&@&@&@&@&@&@&@&@&@&@&@&@&@&@&@&@&@&@&@&@&@h;' ; 9 ; , N b * ]+8+2.{.}.{.-.'.1+a+k D D 7 a+a 7 b ;+D {.]+i 2+D a D i 1  .7 , * ' & ( ' ' ' ; l , 7 6 [ 7 , , , 0 ; 0 = , , b i '.:+N *.j j j D | ",
"a+a b b j =.'+,+].)+{.'.j [.'.8+[ i [.6 j j j '.-.*.N *.=.=.}.i D 6 | , , 7 , ' ' 2 . ! @ ) ! @ ) @ @ { @ ! @ ~ ! @ ~ @ ) 2 ( . ( ) . . . i;&@&@&@&@&@&@&@&@&@&@&@&@&@&@&@&@&@&@&@&@&@&@&@&@&@&@&@&@&@D=7 7 , k a 7 7 b 1 1 7 ; ' ' ' , 7 7 k !+| D j D a 7 b | a+j;&@&@&@&@&@&@&@&@&@&@&@&@&@&@&@&@&@&@&@&@&@&@&@&@&@&@&@&@&@&@&@&@&@&@&@&@&@&@&@&@&@&@&@&@&@&@&@&@&@&@k;! @ ~ ! @ ~ @ ) 2 ( . ( ) . . . . . $ ' * ; '.u a+D ;+j.[.l;m;&@&@&@&@&@&@&@&@&@&@&@&@&@&@&@&@&@&@&@&@&@&@&@&@&@&@&@&@&@&@&@&@&@&@&@n;| D j D a 7 b | a+a b b j =.'+,+].)+{.'.j [.'.8+[ i [.6 j j j '.-.*.N *.=.=.}.i o;p;&@&@&@&@&@&@&@&@&@&@&@&@&@&@&@&@&@&@&@&@&@&@&@&@&@&@&@&@&@&@&@&@&@&@&@q;. $ ' * ; '.u a+D ;+j.[.'.j.b b b | , = * = , , 7 , | 7 7 7 7 7 , k a 7 7 b 1 1 7 ; ' ' ' , 7 7 k !+| D j D a 7 b | a+a b b j =.'+,+].)+{.'.j [.'.8+",
"}.C C -.=.d+5.].]+'.D D ;+D D [.b D b b D 6 i 6 j $.C =.2.=.2.-.u '.1 7 , < 8 ' ( 2 ! @ ! @ @ ] ! ~ ] ~ ] ~ ~ ] ~ ] @ @ 2 ) ! ] @ @ @ c @ r;&@&@&@&@&@&@&@&@&@&@&@&@&@&@&@&@&@&@&@&@&@&@&@&@&@&@&@&@&@@-; & ; ( ; ; , 7 | | 7 , 7 7 , l l = y+e+| [.'.'.j.j j v }.s;t;&@&@&@&@&@&@&@&@&@&@&@&@&@&@&@&@&@&@&@&@&@&@&@&@&@&@&@&@&@&@&@&@&@&@&@&@&@&@&@&@&@&@&@&@&@&@&@&@&@u;~ ~ ] ~ ] @ @ 2 ) ! ] @ @ @ c @ c @ g 9 ' ; 6 C j ;+2+b D D v;&@&@&@&@&@&@&@&@&@&@&@&@&@&@&@&@&@&@&@&@&@&@&@&@&@&@&@&@&@&@&@&@&@&@&@w;x;[.'.'.j.j j v }.C C -.=.d+5.].]+'.D D ;+D D [.b D b b D 6 i 6 j $.C =.2.=.2.y;z;&@&@&@&@&@&@&@&@&@&@&@&@&@&@&@&@&@&@&@&@&@&@&@&@&@&@&@&@&@&@&@&@&@&@&@A;c @ g 9 ' ; 6 C j ;+2+b D D b b k 7 = = 0 ; & & ' 0 0 ' ' ' ( ; & ; ( ; ; , 7 | | 7 , 7 7 , l l = y+e+| [.'.'.j.j j v }.C C -.=.d+5.].]+'.D D ;+D D [.",
"=._.{.j [.2+k k b k k k !+k k 7 k 7 7 , 7 7 7 | b b [ '.$.-.2.=.D.H u 6 < 7 d ' ( ) @ ! @ ! ~ ^ ~ ] ^ + ~ ] ~ ] ] ~ ~ ! @ @ ~ ] ~ ] ~ ] ] 9=&@&@&@&@&@&@&@&@&@&@&@&@&@&@&@&@&@&@&@&@&@&@&@&@&@&@&@&@&@z%. ) 9   9 & d l ; ; l l , 7 7 7 | j.j.j.D {.*.*._.]+-.-.=._.B;&@&@&@&@&@&@&@&@&@&@&@&@&@&@&@&@&@&@&@&@&@&@&@&@&@&@&@&@&@&@&@&@&@&@&@&@&@&@&@&@&@&@&@&@&@&@&@&@&@C;] ~ ] ] ~ ~ ! @ @ ~ ] ~ ] ~ ] ] ] + @ @ . ; a C ]+2+= k 7 | 7 D;&@&@&@&@&@&@&@&@&@&@&@&@&@&@&@&@&@&@&@&@&@&@&@&@&@&@&@&@&@&@&@&@&@&@&@&@E;*.*._.]+-.-.=._.{.j [.2+k k b k k k !+k k 7 k 7 7 , 7 7 7 | b b [ '.$.-.F;G;&@&@&@&@&@&@&@&@&@&@&@&@&@&@&@&@&@&@&@&@&@&@&@&@&@&@&@&@&@&@&@&@&@&@&@&@H;] + @ @ . ; a C ]+2+= k 7 | 7 = , , ; ' & & 2 & & ( ( ) 2 . ) . ) 9   9 & d l ; ; l l , 7 7 7 | j.j.j.D {.*.*._.]+-.-.=._.{.j [.2+k k b k k k !+k k 7 ",
"{.6 2+= k !+a k = = = = = ; * ; ; ; ; & ; ; * ; 7 7 7 [ '.[ '.'.H &.u } 5 4 8 ( ( 2 ) ~ @ ~ ] ~ ] + ~ ^ ] ~ ] ~ @ ! @ c { ] @ @ ~ ] @ ] + I;&@&@&@&@&@&@&@&@&@&@&@&@&@&@&@&@&@&@&@&@&@&@&@&@&@&@&@&@&@i&) ) 9 ( . ' ' ' & A 9 ' ; 7 6 j '.-.-.~+7.6.K.s+-.{.{.{.{.6 J;K;&@&@&@&@&@&@&@&@&@&@&@&@&@&@&@&@&@&@&@&@&@&@&@&@&@&@&@&@&@&@&@&@&@&@&@&@&@&@&@&@&@&@&@&@&@&@&@&@u;~ ] ~ @ ! @ c { ] @ @ ~ ] @ ] + ^ ] c + . ' ; +.*.a = = , = , L;&@&@&@&@&@&@&@&@&@&@&@&@&@&@&@&@&@&@&@&@&@&@&@&@&@&@&@&@&@&@&@&@&@&@&@&@&@M;N;-.{.{.{.{.6 2+= k !+a k = = = = = ; * ; ; ; ; & ; ; * ; 7 7 7 [ '.O;P;&@&@&@&@&@&@&@&@&@&@&@&@&@&@&@&@&@&@&@&@&@&@&@&@&@&@&@&@&@&@&@&@&@&@&@&@Q;+ ^ ] c + . ' ; +.*.a = = , = , d , ; ' ; ( . . % ) % ) @ ) ! c ) ) 9 ( . ' ' ' & A 9 ' ; 7 6 j '.-.-.~+7.6.K.s+-.{.{.{.{.6 2+= k !+a k = = = = = ; * ; ",
"*.C D = * l ; > = d 0 ' ; & & & & . & . %   & ( ' ; , 1 6 6 1 6 6 6 1 6 6 z < 8 ( ) ~ ~ ] ~ ~ ~ ] m ] ] ^ ~ c @ ! @ ! ~ c ~ _ @ ] m ] ^ ^ I;&@&@&@&@&@&@&@&@&@&@&@&@&@&@&@&@&@&@&@&@&@&@&@&@&@&@&@&@&@i&@ ! . ) . ) & 9 . & & ' ; 7 6 6 j }.{.'.<.N s+C 8+8+C ]+*.C D R;&@&@&@&@&@&@&@&@&@&@&@&@&@&@&@&@&@&@&@&@&@&@&@&@&@&@&@&@&@&@&@&@&@&@&@&@&@&@&@&@&@&@&@&@&@&@&@&@S;~ c @ ! @ ! ~ c ~ _ @ ] m ] ^ ^ ^ 0.] ] @ ' ; i =.b a+; ; ; d ' T;&@&@&@&@&@&@&@&@&@&@&@&@&@&@&@&@&@&@&@&@&@&@&@&@&@&@&@&@&@&@&@&@&@&@&@&@&@U;V;8+C ]+*.C D = * l ; > = d 0 ' ; & & & & . & . %   & ( ' ; , W;X;&@&@&@&@&@&@&@&@&@&@&@&@&@&@&@&@&@&@&@&@&@&@&@&@&@&@&@&@&@&@&@&@&@&@&@&@&@Y;Z;^ ^ 0.] ] @ ' ; i =.b a+; ; ; d ' ' ; ' ( % . @ . @ @ @ ! c ! c @ ! . ) . ) & 9 . & & ' ; 7 6 6 j }.{.'.<.N s+C 8+8+C ]+*.C D = * l ; > = d 0 ' ; & & & ",
"b , * > ; * * 0 & ; ( & % ( & ( . % @ . @ f @ 2 % 2 0 < 1 1 6 6 [ 6 | < < < 8 8 2 ) @ ~ ^ m ~ ~ ~ ] ] ] ~ ] ~ ! ] @ ! ) ! ! ~ ] ~ ~ ~ ] ^ I;&@&@&@&@&@&@&@&@&@&@&@&@&@&@&@&@&@&@&@&@&@&@&@&@&@&@&@&@&@1&. . . . ( 2 ) % . 2 . ( & ' * , k b [.'.<.)+d.]+]+-.]+8+b , * `; >&@&@&@&@&@&@&@&@&@&@&@&@&@&@&@&@&@&@&@&@&@&@&@&@&@&@&@&@&@&@&@&@&@&@&@&@&@&@&@&@&@&@&@&@&@&@&@C;] ~ ! ] @ ! ) ! ! ~ ] ~ ~ ~ ] ^ ^ ] ] ] .+( ( 7 '.i = ; 9 9 ; ; v@3$&@&@&@&@&@&@&@&@&@&@&@&@&@&@&@&@&@&@&@&@&@&@&@&@&@&@&@&@&@&@&@&@&@&@&@&@&@.>+>@>8+b , * > ; * * 0 & ; ( & % ( & ( . % @ . @ f @ 2 % #>$>%>&@&@&@&@&@&@&@&@&@&@&@&@&@&@&@&@&@&@&@&@&@&@&@&@&@&@&@&@&@&@&@&@&@&@&@&@&@&@&>] ^ ^ ] ] ] .+( ( 7 '.i = ; 9 9 ; ; ' & ( 9 . @ @ @ @ @ c @ @ c @ . . . . ( 2 ) % . 2 . ( & ' * , k b [.'.<.)+d.]+]+-.]+8+b , * > ; * * 0 & ; ( & % ( & ( ",
"b a , ; ; & . $ % 2 . ! ) ) ) @ ! @ @ @ ! @ ! @ ! )   ( ' 4 5 5 u 6 4 7 7 d ' : ( 2 ! ! ~ ~ { ! ] @ @ @ ~ c ! ! ! ! . ) 2 ) @ ] o ! ~ m _ 9=&@&@&@&@&@&@&@&@&@&@&@&@&@&@&@&@&@&@&@&@&@&@&@&@&@&@&@&@&@L=. ) . % ) & 2 @ ! @ @ f & % & ; * 7 b {.j 7.f+8+{.v 0+- b a , ; Z*&@&@&@&@&@&@&@&@&@&@&@&@&@&@&@&@&@&@&@&@&@&@&@&@&@&@&@&@&@&@&@&@&@&@&@&@&@&@&@&@&@&@&@&@&@&@&@C;c ! ! ! ! . ) 2 ) @ ] o ! ~ m _ ] _ n @ ] . ' ; a j ; ; 9 . & ' 9 *>&@&@&@&@&@&@&@&@&@&@&@&@&@&@&@&@&@&@&@&@&@&@&@&@&@&@&@&@&@&@&@&@&@&@&@&@&@&@&@=>->;>a , ; ; & . $ % 2 . ! ) ) ) @ ! @ @ @ ! @ ! >>,>7*&@&@&@&@&@&@&@&@&@&@&@&@&@&@&@&@&@&@&@&@&@&@&@&@&@&@&@&@&@&@&@&@&@&@&@&@&@&@&@'>)>m _ ] _ n @ ] . ' ; a j ; ; 9 . & ' 9 & ' 9 . . c @ c @ @ @ . .   . ) . % ) & 2 @ ! @ @ f & % & ; * 7 b {.j 7.f+8+{.v 0+- b a , ; ; & . $ % 2 . ! ) ) ) @ ",
"* * ; 0 & & e ' @ ! @ ! @ o ! ~ ! @ ! ~ ~ _ ! ! ) 2 @ @ % 8 1 5 1 7 d , 8 ( ( 2 ( x ( 2 ) ! @ ~ @ ) o ) ! @ ) ( ( 2 ! ) 2 ) 2 ) ! ~ ~ ^ ^ ==&@&@&@&@&@&@&@&@&@&@&@&@&@&@&@&@&@&@&@&@&@&@&@&@&@&@&@&@&@!>9 % . . ~ @ ! @ ~ z+! 2 ( @ . 0 = * a f+v [.b D f+v ;+= * * ; 0 ~>{>&@&@&@&@&@&@&@&@&@&@&@&@&@&@&@&@&@&@&@&@&@&@&@&@&@&@&@&@&@&@&@&@&@&@&@&@&@&@&@&@&@&@&@&@&@&@]>@ ) ( ( 2 ! ) 2 ) 2 ) ! ~ ~ ^ ^ { ] ^ ! ] c ( & ' } > ' & 9 9 ;   ; h;&@&@&@&@&@&@&@&@&@&@&@&@&@&@&@&@&@&@&@&@&@&@&@&@&@&@&@&@&@&@&@&@&@&@&@&@&@&@&@&@&@^>/>(>& & e ' @ ! @ ! @ o ! ~ ! @ ! ~ _>:><>#%&@&@&@&@&@&@&@&@&@&@&@&@&@&@&@&@&@&@&@&@&@&@&@&@&@&@&@&@&@&@&@&@&@&@&@&@&@&@&@&@[>}>~ ^ ^ { ] ^ ! ] c ( & ' } > ' & 9 9 ;   ; ' ( ( @ . @ . . @ . . . % 9 % . . ~ @ ! @ ~ z+! 2 ( @ . 0 = * a f+v [.b D f+v ;+= * * ; 0 & & e ' @ ! @ ! @ o ! ~ ",
"7 0 , , ( 0 8 x 2 2 ) @ ! @ ) @ ! @ c ! ] + ^ c ] @ @ ] . < 1 J < < < p d : ( @ ) ) 2 2 2 ) ( ) ( % ( % 2 ) ( ( ) ( y ) ! n ! ! @ @ ! ! { [=&@&@&@&@&@&@&@&@&@&@&@&@&@&@&@&@&@&@&@&@&@&@&@&@&@&@&@&@&@+=2 . % ~ @ @ @ @ @ @ @ @ % % % & ' 7 b } [ b a = I 1  .a 7 0 , , ( |>&@&@&@&@&@&@&@&@&@&@&@&@&@&@&@&@&@&@&@&@&@&@&@&@&@&@&@&@&@&@&@&@&@&@&@&@&@&@&@&@&@&@&@&@&@&@s$) ( ( ) ( y ) ! n ! ! @ @ ! ! { ~ ^ ^ ^ ^ @ %   1 5 , ' . . 2   % . 1>2>&@&@&@&@&@&@&@&@&@&@&@&@&@&@&@&@&@&@&@&@&@&@&@&@&@&@&@&@&@&@&@&@&@&@&@&@&@&@&@&@&@&@&@3>4>5>6>7>8>9>0>g&P&a>k*b>c>d>e>f>&@&@&@&@&@&@&@&@&@&@&@&@&@&@&@&@&@&@&@&@&@&@&@&@&@&@&@&@&@&@&@&@&@&@&@&@&@&@&@&@&@&@&@g>@ ! ! { ~ ^ ^ ^ ^ @ %   1 5 , ' . . 2   % . ( ' % . . % @ % % . % . . 2 . % ~ @ @ @ @ @ @ @ @ % % % & ' 7 b } [ b a = I 1  .a 7 0 , , ( 0 8 x 2 2 ) @ ! @ ) @ ",
"I ' & & . ( ( 2 ) ) @ ! @ @ c . . ! @ @ ] ^.] _ c ! c $ 2 , J J < < 8 0 : ( ! ! @ ! @ ! . ) . . ( ( e ' 0 ' 0 : ( ( ) ! ! n @ ! ) % ) @ { [=&@&@&@&@&@&@&@&@&@&@&@&@&@&@&@&@&@&@&@&@&@&@&@&@&@&@&@&@&@1&@ . @ $ @ @ @ @ @ ! . . ) . . ( , 7 1 [ 1 b 7 , 7 b 1 7 I ' & & . *&&&&@&@&@&@&@&@&@&@&@&@&@&@&@&@&@&@&@&@&@&@&@&@&@&@&@&@&@&@&@&@&@&@&@&@&@&@&@&@&@&@&@&@&@&@&@m&' 0 : ( ( ) ! ! n @ ! ) % ) @ { ~ _ m ] ~ @ ) & < 6 , ' ( @ ( ( ' ( % h>&@&@&@&@&@&@&@&@&@&@&@&@&@&@&@&@&@&@&@&@&@&@&@&@&@&@&@&@&@&@&@&@&@&@&@&@&@&@&@&@&@&@&@&@&@&@&@&@&@&@&@&@&@&@&@&@&@&@&@&@&@&@&@&@&@&@&@&@&@&@&@&@&@&@&@&@&@&@&@&@&@&@&@&@&@&@&@&@&@&@&@&@&@&@&@&@&@&@&@&@&@&@i>j>% ) @ { ~ _ m ] ~ @ ) & < 6 , ' ( @ ( ( ' ( % 0 ( % % % % % % f ) % @ @ . @ $ @ @ @ @ @ ! . . ) . . ( , 7 1 [ 1 b 7 , 7 b 1 7 I ' & & . ( ( 2 ) ) @ ! @ @ c . ",
"7 0 % . @ % ) @ ) @ ! ] ] ~ c ! ! @ ] ] ] # ^ ] @ ] @ @ ( ' < , 4 E ' : ' ) @ ! ] ~ c { @ ! . @ ( ( ' 8 8 8 8 8 x ( 2 ) 2 @ ) ! 2 ) @ ! @ ==&@&@&@&@&@&@&@&@&@&@&@&@&@&@&@&@&@&@&@&@&@&@&@&@&@&@&@&@&@+=% 2 . @ @ @ @ @ . . 2 2 % . % ( , < 1 } 7 7 , = 7 a 7 , 7 0 % . @ % k>&@&@&@&@&@&@&@&@&@&@&@&@&@&@&@&@&@&@&@&@&@&@&@&@&@&@&@&@&@&@&@&@&@&@&@&@&@&@&@&@&@&@&@&@&@K@8 8 8 x ( 2 ) 2 @ ) ! 2 ) @ ! @ { ] { @ ] ! %   0 4 1 ' ( ( ( ' ( ( ( , l>&@&@&@&@&@&@&@&@&@&@&@&@&@&@&@&@&@&@&@&@&@&@&@&@&@&@&@&@&@&@&@&@&@&@&@&@&@&@&@&@&@&@&@&@&@&@&@&@&@&@&@&@&@&@&@&@&@&@&@&@&@&@&@&@&@&@&@&@&@&@&@&@&@&@&@&@&@&@&@&@&@&@&@&@&@&@&@&@&@&@&@&@&@&@&@&@&@&@&@&@z%m>2 ) @ ! @ { ] { @ ] ! %   0 4 1 ' ( ( ( ' ( ( ( , ( & 2 % % % ( & ( % . % 2 . @ @ @ @ @ . . 2 2 % . % ( , < 1 } 7 7 , = 7 a 7 , 7 0 % . @ % ) @ ) @ ! ] ] ~ c ! ",
"1 = & & @ . ( @ ! @ ~ ~ ] ] ] ] @ @ ~ @ ] ^ + ] ] # + . ' , , J h ' ' ' x @ ] ! @ ] ~ c @ @ . . . & ( ' 0 8 8 8 8 : ( ( 2 ( 2 2 . . @ ! @ M*&@&@&@&@&@&@&@&@&@&@&@&@&@&@&@&@&@&@&@&@&@&@&@&@&@&@&@&@&@n>. & 2 % @ @ @ . ! % ) . ) % . ' , < | 1 I 7 a , , , 7 a 1 = & & @ . ( o>&@&@&@&@&@&@&@&@&@&@&@&@&@&@&@&@&@&@&@&@&@&@&@&@&@&@&@&@&@&@&@&@&@&@&@&@&@&@&@&@&@&@&@&@m&8 8 8 8 : ( ( 2 ( 2 2 . . @ ! @ ! o ! ) @ @ ( & ' 4 5 9 ' ' ' & % ( ' 0 p>q>&@&@&@&@&@&@&@&@&@&@&@&@&@&@&@&@&@&@&@&@&@&@&@&@&@&@&@&@&@&@&@&@&@&@&@&@&@&@&@&@&@&@&@&@&@&@&@&@&@&@&@&@&@&@&@&@&@&@&@&@&@&@&@&@&@&@&@&@&@&@&@&@&@&@&@&@&@&@&@&@&@&@&@&@&@&@&@&@&@&@&@&@&@&@&@&@&@&@2#r>2 . . @ ! @ ! o ! ) @ @ ( & ' 4 5 9 ' ' ' & % ( ' 0 0 ( & e % ( t+( e ( 2 . & 2 % @ @ @ . ! % ) . ) % . ' , < | 1 I 7 a , , , 7 a 1 = & & @ . ( @ ! @ ~ ~ ] ] ] ] ",
"1 7 0 & % ( ( @ @ ~ ] ] ^ ^ ] ] ^ ~ n @ ! ] ^ # ] + ~ ( 8 , J 1 < ' ( ' ( @ c ! ] ] ] ^ ] @ ] @ @ . 2 9 ( ' 8 < 8 E ' ( : 0 ( ( ( ) % ! ) s>&@&@&@&@&@&@&@&@&@&@&@&@&@&@&@&@&@&@&@&@&@&@&@&@&@&@&@&@&@!>. % . . 2 . % @ . @ . 2 % . % ( , , 7 1 7 7 , = 0 , 7 J 1 7 0 & % ( ( t>&@&@&@&@&@&@&@&@&@&@&@&@&@&@&@&@&@&@&@&@&@&@&@&@&@&@&@&@&@&@&@&@&@&@&@&@&@&@&@&@&@&@&@&@1@' 8 < 8 E ' ( : 0 ( ( ( ) % ! ) 2   ( 2 @ @   ' ' b u 0 ' 0 ( . & ( ' e ( u>v>&@&@&@&@&@&@&@&@&@&@&@&@&@&@&@&@&@&@&@&@&@&@&@&@&@&@&@&@&@&@&@&@&@&@&@&@&@&@&@&@&@&@&@&@&@&@&@&@&@&@&@&@&@&@&@&@&@&@&@&@&@&@&@&@&@&@&@&@&@&@&@&@&@&@&@&@&@&@&@&@&@&@&@&@&@&@&@&@&@&@&@&@&@&@&@&@s#w>( ( ( ) % ! ) 2   ( 2 @ @   ' ' b u 0 ' 0 ( . & ( ' e ( ( % 2 ( % 2 ( ( ( % . % . . 2 . % @ . @ . 2 % . % ( , , 7 1 7 7 , = 0 , 7 J 1 7 0 & % ( ( @ @ ~ ] ] ^ ^ ] ] ",
"b a , ' & ( 0 ! @ @ ] ^ ~ ^ ^ ~ ^ ] ~ ] ! @ ] # @ ] . d < 1 < 1 8 '   (   ! ~ @ ] ~ ~ ] ~ ] @ ! . . . ) . ( ' 8 , E , 8 0 : 0 ' ' ' ( ( ( s>&@&@&@&@&@&@&@&@&@&@&@&@&@&@&@&@&@&@&@&@&@&@&@&@&@&@&@&@&@n>% ) % ) % 2 ) f ) @ @ @ . 2 & ( ' ' , 7 a a , , ; = , a b a , ' & ( 0 ! x>&@&@&@&@&@&@&@&@&@&@&@&@&@&@&@&@&@&@&@&@&@&@&@&@&@&@&@&@&@&@&@&@&@&@&@&@&@&@&@&@&@&@&@6;( ' 8 , E , 8 0 : 0 ' ' ' ( ( ( 2 x 2 ) 2 . & d , 7 X 1 < ' & ' , 0 ( ( e & y>z>&@&@&@&@&@&@&@&@&@&@&@&@&@&@&@&@&@&@&@&@&@&@&@&@&@&@&@&@&@&@&@&@&@&@&@&@&@&@&@&@&@&@&@&@&@&@&@&@&@&@&@&@&@&@&@&@&@&@&@&@&@&@&@&@&@&@&@&@&@&@&@&@&@&@&@&@&@&@&@&@&@&@&@&@&@&@&@&@&@&@&@&@&@&@&@@$: 0 ' ' ' ( ( ( 2 x 2 ) 2 . & d , 7 X 1 < ' & ' , 0 ( ( e & 2 % 2 ( 2 & e ( 2 % ) % ) % 2 ) f ) @ @ @ . 2 & ( ' ' , 7 a a , , ; = , a b a , ' & ( 0 ! @ @ ] ^ ~ ^ ^ ~ ",
"7 7 a , & ( ' f @ @ ] ~ ^ ^ ] ^ ^ ~ ~ @ @ ! @ ] @ @ ( , < J 7 , ' ( (   ) . ~ ] ! { c ~ c ! @ @ . . . % ) ( ' d ( ' 0 0 , 0 ' e 0 ( ( & ( A>&@&@&@&@&@&@&@&@&@&@&@&@&@&@&@&@&@&@&@&@&@&@&@&@&@&@&@&@&@@-% ( ( % 2 . % . @ @ @ @ . . % ( & & , < 1 , * = 0 * 0 7 7 7 a , & ( ' f /%&@&@&@&@&@&@&@&@&@&@&@&@&@&@&@&@&@&@&@&@&@&@&@&@&@&@&@&@&@&@&@&@&@&@&@&@&@&@&@&@&@&@&@G$( ' d ( ' 0 0 , 0 ' e 0 ( ( & ( ( ( ( . ( 2 % , d 7 6 6 6 a ' , ' , & 2 & 2 % B>C>&@&@&@&@&@&@&@&@&@&@&@&@&@&@&@&@&@&@&@&@&@&@&@&@&@&@&@&@&@&@&@&@&@&@&@&@&@&@&@&@&@&@&@&@&@&@&@&@&@&@&@&@&@&@&@&@&@&@&@&@&@&@&@&@&@&@&@&@&@&@&@&@&@&@&@&@&@&@&@&@&@&@&@&@&@&@&@&@&@&@&@&@&@D>, 0 ' e 0 ( ( & ( ( ( ( . ( 2 % , d 7 6 6 6 a ' , ' , & 2 & 2 % 2 ( 2 % ( e 0 ( % ( ( % 2 . % . @ @ @ @ . . % ( & & , < 1 , * = 0 * 0 7 7 7 a , & ( ' f @ @ ] ~ ^ ^ ] ^ ",
"= 7 1 7 }+; 0 . @ @ ~ ] ] ^ ^ { ^ ~ ] ] ~ ) ! @ @ . ( d , , ' & 9 (   2 . ! c ^ { ] ~ ] ^ ] ] c @ . ) ) 9 & ( ' % ( 0 , ' 0 & }+) & & % 9 s>&@&@&@&@&@&@&@&@&@&@&@&@&@&@&@&@&@&@&@&@&@&@&@&@&@&@&@&@&@!>2 % . % . 2 @ ) f @ @ @ @ @ . & % & ' 1 7 , ; , = ' ; 0 = 7 1 7 }+; 0 . @ E>&@&@&@&@&@&@&@&@&@&@&@&@&@&@&@&@&@&@&@&@&@&@&@&@&@&@&@&@&@&@&@&@&@&@&@&@&@&@&@&@&@&@F>& ( ' % ( 0 , ' 0 & }+) & & % 9 2 & 2 f ' & . d , 0 7 J i X a ; & ' , % 2 2 % o G>H>&@&@&@&@&@&@&@&@&@&@&@&@&@&@&@&@&@&@&@&@&@&@&@&@&@&@&@&@&@&@&@&@&@&@&@&@&@&@&@&@&@&@&@&@&@&@&@&@&@&@&@&@&@&@&@&@&@&@&@&@&@&@&@&@&@&@&@&@&@&@&@&@&@&@&@&@&@&@&@&@&@&@&@&@&@&@&@&@&@&@&@I>, ' 0 & }+) & & % 9 2 & 2 f ' & . d , 0 7 J i X a ; & ' , % 2 2 % o ( e 2 % ( ( % 2 % . % . 2 @ ) f @ @ @ @ @ . & % & ' 1 7 , ; , = ' ; 0 = 7 1 7 }+; 0 . @ @ ~ ] ] ^ ^ { ",
", , I a , ( % ( . @ ^ ] m ~ ] ^ ^ ^ ~ m ] / @ % . ( ' ( 9 ( 9 . @ ) &   ) @ ~ ^ ^ ^ ^ ^ ~ @ @ ! . ( & &   ' , ' ' ' * ( }+( 0 e & . ( ( & s>&@&@&@&@&@&@&@&@&@&@&@&@&@&@&@&@&@&@&@&@&@&@&@&@&@&@&@&@&@@-% ( 2 % 2 2 . @ @ @ @ % ) f . . % 9 0 7 a , , , 0 0 * , , , I a , ( % ( . J>K>&@&@&@&@&@&@&@&@&@&@&@&@&@&@&@&@&@&@&@&@&@&@&@&@&@&@&@&@&@&@&@&@&@&@&@&@&@&@&@&@&@c%' , ' ' ' * ( }+( 0 e & . ( ( & 2 9 %   & ( ( 0 ' , 7 1 7 } & $ , w < % 9 2 . 2 ( L>M>&@&@&@&@&@&@&@&@&@&@&@&@&@&@&@&@&@&@&@&@&@&@&@&@&@&@&@&@&@&@&@&@&@&@&@&@&@&@&@&@&@&@&@&@&@&@&@&@&@&@&@&@&@&@&@&@&@&@&@&@&@&@&@&@&@&@&@&@&@&@&@&@&@&@&@&@&@&@&@&@&@&@&@&@&@&@&@&@&@N>* ( }+( 0 e & . ( ( & 2 9 %   & ( ( 0 ' , 7 1 7 } & $ , w < % 9 2 . 2 ( 2 2 e e ( ( % ( 2 % 2 2 . @ @ @ @ % ) f . . % 9 0 7 a , , , 0 0 * , , , I a , ( % ( . @ ^ ] m ~ ] ^ ",
"I , , J J , ( & . @ @ @ ] @ ~ ] ~ ] ~ + ~ @ % ( % ( ' ( 9 . 2 . @ . ) @ ! ~ ] ] ^ ^ ^ ~ c ! @ ) . ( ' & ( d 8 0 0 ' 0 ' * 0 * ' & & ( & ( O>&@&@&@&@&@&@&@&@&@&@&@&@&@&@&@&@&@&@&@&@&@&@&@&@&@&@&@&@&@P>( 2 % ( % 2 @ f @ @ f @ @ @ @ % . & ' , b , , = , d 0 , I , , J J , ( & . @ Q>&@&@&@&@&@&@&@&@&@&@&@&@&@&@&@&@&@&@&@&@&@&@&@&@&@&@&@&@&@&@&@&@&@&@&@&@&@&@&@&@&@1@d 8 0 0 ' 0 ' * 0 * ' & & ( & ( & ( % ( ( 0 ' 0 ' , 7 1 = u '.S & ' 0 ( 2 . f ) 2 2 R>S>&@&@&@&@&@&@&@&@&@&@&@&@&@&@&@&@&@&@&@&@&@&@&@&@&@&@&@&@&@&@&@&@&@&@&@&@&@&@&@&@&@&@&@&@&@&@&@&@&@&@&@&@&@&@&@&@&@&@&@&@&@&@&@&@&@&@&@&@&@&@&@&@&@&@&@&@&@&@&@&@&@&@&@&@&@&@T>U>' 0 ' * 0 * ' & & ( & ( & ( % ( ( 0 ' 0 ' , 7 1 = u '.S & ' 0 ( 2 . f ) 2 2 ( ( e ( e ( 2 % ( % 2 @ f @ @ f @ @ @ @ % . & ' , b , , = , d 0 , I , , J J , ( & . @ @ @ ] @ ~ ] ",
"J I , J J , ; % . @ @ @ ! @ ] ~ @ @ ~ ~ $ % ( ' ( }+( . @ @ . @ ] @ @ @ c ] { ^ ^ ] ] { @ ! ) . ) ( ( ( ( 0 8 ' 0 ' 0 e ' 0 0 0 ' ( ( ' ( A>&@&@&@&@&@&@&@&@&@&@&@&@&@&@&@&@&@&@&@&@&@&@&@&@&@&@&@&@&@V>2 & 2 ( 2 % 2 % @ @ @ @ @ @ @ . % & ' , < , 0 , 0 0 , , J I , J J , ; % . @ W>E@&@&@&@&@&@&@&@&@&@&@&@&@&@&@&@&@&@&@&@&@&@&@&@&@&@&@&@&@&@&@&@&@&@&@&@&@&@&@&@&@1@0 8 ' 0 ' 0 e ' 0 0 0 ' ( ( ' ( ( ( ( ' 0 ' 0 , ' 8 7 , 6 i v ; 0 w , ' & . @ @ % 2 2 X>Y>&@&@&@&@&@&@&@&@&@&@&@&@&@&@&@&@&@&@&@&@&@&@&@&@&@&@&@&@&@&@&@&@&@&@&@&@&@&@&@&@&@&@&@&@&@&@&@&@&@&@&@&@&@&@&@&@&@&@&@&@&@&@&@&@&@&@&@&@&@&@&@&@&@&@&@&@&@&@&@&@&@&@&@&@Z>`>0 ' 0 e ' 0 0 0 ' ( ( ' ( ( ( ( ' 0 ' 0 , ' 8 7 , 6 i v ; 0 w , ' & . @ @ % 2 2 ( }+( t+2 & 2 ( 2 % 2 % @ @ @ @ @ @ @ . % & ' , < , 0 , 0 0 , , J I , J J , ; % . @ @ @ ! @ ] ~ ",
", , 0 , , , & ( % % . @ @ ~ ~ ] @ @ @ @ . % e 0 ( ( . @ / ] ] c + c c @ ! ~ ~ ] m ] { ~ ! @ ! ~ . & & & ( 0 ' & e ( 0 ( 0 E 0 E 0 ' 0 0 0  ,&@&@&@&@&@&@&@&@&@&@&@&@&@&@&@&@&@&@&@&@&@&@&@&@&@&@&@&@&@!>( t+( % 2 % 2 % ) % @ @ f @ . % ) % ; , , 0 * ' 0 0 ; 0 , , 0 , , , & ( % % . .,&@&@&@&@&@&@&@&@&@&@&@&@&@&@&@&@&@&@&@&@&@&@&@&@&@&@&@&@&@&@&@&@&@&@&@&@&@&@&@&@1@0 ' & e ( 0 ( 0 E 0 E 0 ' 0 0 0 0 ' 0 ' 0 ' 0 ' , 0 , , j , } } J ' , 0 ( . f @ ! . 2 % 2 +,@,&@&@&@&@&@&@&@&@&@&@&@&@&@&@&@&@&@&@&@&@&@&@&@&@&@&@&@&@&@&@&@&@&@&@&@&@&@&@&@&@&@&@&@&@&@&@&@&@&@&@&@&@&@&@&@&@&@&@&@&@&@&@&@&@&@&@&@&@&@&@&@&@&@&@&@&@&@&@&@&@&@#,$,& e ( 0 ( 0 E 0 E 0 ' 0 0 0 0 ' 0 ' 0 ' 0 ' , 0 , , j , } } J ' , 0 ( . f @ ! . 2 % 2 e % ( t+( % 2 % 2 % ) % @ @ f @ . % ) % ; , , 0 * ' 0 0 ; 0 , , 0 , , , & ( % % . @ @ ~ ~ ] ",
"% e e ( }+e , , & ( . @ g ~ c ~ $ @ . % ( 0 0 0 0 & f @ ^ ] ~ ] ] / ) ) ! @ _ ] { ] { c { ] ~ ] f . % & ( 0 ( & ( & ( ( 0 ( ' ' 0 e ' 0 '  ,&@&@&@&@&@&@&@&@&@&@&@&@&@&@&@&@&@&@&@&@&@&@&@&@&@&@&@&@&@!>2 ( % ( % 2 % 2 f @ @ @ % @ % 2 . % & ' , 0 ; 0 = ' & & % e e ( }+e , , & ( . %,&,&@&@&@&@&@&@&@&@&@&@&@&@&@&@&@&@&@&@&@&@&@&@&@&@&@&@&@&@&@&@&@&@&@&@&@&@&@&@&@1@0 ( & ( & ( ( 0 ( ' ' 0 e ' 0 ' 0 0 0 0 0 E 0 E E E , 1 , a C v , } 0 ' & 2 . % . % . 2 % 2 *,=,&@&@&@&@&@&@&@&@&@&@&@&@&@&@&@&@&@&@&@&@&@&@&@&@&@&@&@&@&@&@&@&@&@&@&@&@&@&@&@&@&@&@&@&@&@&@&@&@&@&@&@&@&@&@&@&@&@&@&@&@&@&@&@&@&@&@&@&@&@&@&@&@&@&@&@&@&@&@W=-,S-( & ( & ( ( 0 ( ' ' 0 e ' 0 ' 0 0 0 0 0 E 0 E E E , 1 , a C v , } 0 ' & 2 . % . % . 2 % 2 % 2 ( % ( % 2 % 2 f @ @ @ % @ % 2 . % & ' , 0 ; 0 = ' & & % e e ( }+e , , & ( . @ g ~ c ~ ",
"% ( e % % % ( 0 ' ; ( & . @ . . % . % & ; 0 0 0 0 ( . @ ] ~ _ @ @ @ ) ) ) @ { ~ ] { ] ~ ] ] ^ # . % % & ' e ( % ) % ( 2 ( ( ( ( 2 % 2 2 % A>&@&@&@&@&@&@&@&@&@&@&@&@&@&@&@&@&@&@&@&@&@&@&@&@&@&@&@&@&@@-t+2 % 2 f 2 % 2 % 2 f @ ) 2 . . % . & , , , , < , 0 & & % ( e % % % ( 0 ' ; ( & ;,&@&@&@&@&@&@&@&@&@&@&@&@&@&@&@&@&@&@&@&@&@&@&@&@&@&@&@&@&@&@&@&@&@&@&@&@&@&@&@!@e ( % ) % ( 2 ( ( ( ( 2 % 2 2 % ( ( ( 0 ' ( e ' 0 0 E I J 6 Z +.0 1 J ' ; ( &   ( . . 2 t+% ( >,,,&@&@&@&@&@&@&@&@&@&@&@&@&@&@&@&@&@&@&@&@&@&@&@&@&@&@&@&@&@&@&@&@&@&@&@&@&@&@&@&@&@&@&@&@&@&@&@&@&@&@&@&@&@&@&@&@&@&@&@&@&@&@&@&@&@&@&@&@&@&@&@&@&@&@&@&@',),' e ( % ) % ( 2 ( ( ( ( 2 % 2 2 % ( ( ( 0 ' ( e ' 0 0 E I J 6 Z +.0 1 J ' ; ( &   ( . . 2 t+% ( t+2 % 2 f 2 % 2 % 2 f @ ) 2 . . % . & , , , , < , 0 & & % ( e % % % ( 0 ' ; ( & . @ . . ",
"% e e % % t % 3 & ' 0 ' ( ( ( ( ( & & e 0 , , 0 0 2 @ ~ @ ] n ! @ . ) @ ! c ] _ ~ ^ ] ^ ^ ^ ] m . t % & e }+% f . @ @ 2 ) o ) 2 @ f . f % s>&@&@&@&@&@&@&@&@&@&@&@&@&@&@&@&@&@&@&@&@&@&@&@&@&@&@&@&@&@!>2 % % 2 % . f ) % @ 2 f . @ @ % . % ( d J J J 1 J , & % % e e % % t % 3 & ' 0 ' u>!,&@&@&@&@&@&@&@&@&@&@&@&@&@&@&@&@&@&@&@&@&@&@&@&@&@&@&@&@&@&@&@&@&@&@&@&@&@&@~,}+% f . @ @ 2 ) o ) 2 @ f . f % 2 & ( ( ( % ( ( Y.' ( }+6 J , k+1 0 1 0 ' ( & ( &   % % 2 % % 2 % {,],&@&@&@&@&@&@&@&@&@&@&@&@&@&@&@&@&@&@&@&@&@&@&@&@&@&@&@&@&@&@&@&@&@&@&@&@&@&@&@&@&@&@&@&@&@&@&@&@&@&@&@&@&@&@&@&@&@&@&@&@&@&@&@&@&@&@&@&@&@&@&@&@N+^,/,& e }+% f . @ @ 2 ) o ) 2 @ f . f % 2 & ( ( ( % ( ( Y.' ( }+6 J , k+1 0 1 0 ' ( & ( &   % % 2 % % 2 % % 2 % . f ) % @ 2 f . @ @ % . % ( d J J J 1 J , & % % e e % % t % 3 & ' 0 ' ( ( ( ( ",
"m ~ % f % & % $ & & ' , d ' ( ' , ' 0 ; * 0 0 0 * % @ ~ ~ ] { c ) ) @ @ ] m ] ~ s ^ ^ ^ ^ ^ ~ ] f $ t & e ( % @ @ @ @ @ @ ! @ @ @ @ f . % (,&@&@&@&@&@&@&@&@&@&@&@&@&@&@&@&@&@&@&@&@&@&@&@&@&@&@&@&@&@n>t+2 % % 2 % 2 f 2 % . 2 f @ @ @ @ . ' , a 1 1 1 1 , & % m ~ % f % & % $ & & ' , d _,&@&@&@&@&@&@&@&@&@&@&@&@&@&@&@&@&@&@&@&@&@&@&@&@&@&@&@&@&@&@&@&@&@&@&@&@&@&@~,( % @ @ @ @ @ @ ! @ @ @ @ f . % % ( e % % f f 2 % ( 2 0 e * J } u z , d 0 & ( ( ( & ( & 2 % 2 t+2 % :,<,[,&@&@&@&@&@&@&@&@&@&@&@&@&@&@&@&@&@&@&@&@&@&@&@&@&@&@&@&@&@&@&@&@&@&@&@&@&@&@&@&@&@&@&@&@&@&@&@&@&@&@&@&@&@&@&@&@&@&@&@&@&@&@&@&@&@&@&@&@&@},|,$ t & e ( % @ @ @ @ @ @ ! @ @ @ @ f . % % ( e % % f f 2 % ( 2 0 e * J } u z , d 0 & ( ( ( & ( & 2 % 2 t+2 % % 2 % 2 f 2 % . 2 f @ @ @ @ . ' , a 1 1 1 1 , & % m ~ % f % & % $ & & ' , d ' ( ' ",
"  . . + @ # @ $ $ % & * * = = - = ; > & ; ; , ' ' . @ @ @ @ @ ) ! ) @ ~ ~ @ { ] ^ ^ ^ ^ ^ ^ ^ ^ ~ / @ & ( & . @ . @ @ @ _ ~ { { ] { ! ! ~ M*&@&@&@&@&@&@&@&@&@&@&@&@&@&@&@&@&@&@&@&@&@&@&@&@&@&@&@&@&@!>2 % % % % % % % % % . % $ $ . 3 . . & ; 4 5 6 7 < 7 & .   . . + @ # @ $ $ % & * * 1,2,&@&@&@&@&@&@&@&@&@&@&@&@&@&@&@&@&@&@&@&@&@&@&@&@&@&@&@&@&@&@&@&@&@&@&@&@&@1@& . @ . @ @ @ _ ~ { { ] { ! ! ~ ! ! ) ) @ ) . ) (   . : ' ' ' < [ } | 1 , & & & ( ( ( 2 ( 2 % 2 % % % % 3,4,@,&@&@&@&@&@&@&@&@&@&@&@&@&@&@&@&@&@&@&@&@&@&@&@&@&@&@&@&@&@&@&@&@&@&@&@&@&@&@&@&@&@&@&@&@&@&@&@&@&@&@&@&@&@&@&@&@&@&@&@&@&@&@&@&@&@5,6,^ ~ / @ & ( & . @ . @ @ @ _ ~ { { ] { ! ! ~ ! ! ) ) @ ) . ) (   . : ' ' ' < [ } | 1 , & & & ( ( ( 2 ( 2 % 2 % % % % % % % % % . % $ $ . 3 . . & ; 4 5 6 7 < 7 & .   . . + @ # @ $ $ % & * * = = - ",
"< 8 . ' ~ 9 / ( % ; 0 , a b 6 1 b 7 = ; ; 0 ; 0 & . . @ . c @ ! . 2 ) ! ] ! @ { ~ ^ ^ ^ ^ ^ _ ~ ~ @ @ ( ( ( % % . @ c ~ ! { ! { ] ] ~ _ ! M*&@&@&@&@&@&@&@&@&@&@&@&@&@&@&@&@&@&@&@&@&@&@&@&@&@&@&@&@&@-=. f @ @ % . % . % 3 % $ g c $ . . ; ' , < } } 4 , ' ' d < 8 . ' ~ 9 / ( % ; 0 , a b 7,&@&@&@&@&@&@&@&@&@&@&@&@&@&@&@&@&@&@&@&@&@&@&@&@&@&@&@&@&@&@&@&@&@&@&@&@&@1@( % % . @ c ~ ! { ! { ] ] ~ _ ! ! @ ! . ) @ ) . (   ( & ( ' d 1 6 7 ; 7 ; & & % e 2 2 % f % f . f @ @ % . % 8,9,0,&@&@&@&@&@&@&@&@&@&@&@&@&@&@&@&@&@&@&@&@&@&@&@&@&@&@&@&@&@&@&@&@&@&@&@&@&@&@&@&@&@&@&@&@&@&@&@&@&@&@&@&@&@&@&@&@&@&@&@&@&@a,b,c,_ ~ ~ @ @ ( ( ( % % . @ c ~ ! { ! { ] ] ~ _ ! ! @ ! . ) @ ) . (   ( & ( ' d 1 6 7 ; 7 ; & & % e 2 2 % f % f . f @ @ % . % . % 3 % $ g c $ . . ; ' , < } } 4 , ' ' d < 8 . ' ~ 9 / ( % ; 0 , a b 6 1 ",
"5 h 8 ( 9 . & ( ; ( * ; , 1 i j | a 7 k * l ' , & . . . . @ @ ) 2 ) @ @ ~ ~ c ~ ] ^ ~ ^ _ m _ ~ ~ ~ @ & ( . . . @ @ ! @ ! n ! ! { ] ] @ ) s>&@&@&@&@&@&@&@&@&@&@&@&@&@&@&@&@&@&@&@&@&@&@&@&@&@&@&@&@&@!>@ 2 % 2 % o . f @ @ $ f @ @ @ @ 9 ' p 8 < q r < ' ; ' 7 5 h 8 ( 9 . & ( ; ( * ; , 1 d,e,&@&@&@&@&@&@&@&@&@&@&@&@&@&@&@&@&@&@&@&@&@&@&@&@&@&@&@&@&@&@&@&@&@&@&@&@1@. . . @ @ ! @ ! n ! ! { ] ] @ ) 2 ) ! ) ! . 2   ( 2 ) ( ' ( ; < 1 1 ; & & & % % . % 2 @ % ! % @ 2 % 2 % o . f @ f,g,h,&@&@&@&@&@&@&@&@&@&@&@&@&@&@&@&@&@&@&@&@&@&@&@&@&@&@&@&@&@&@&@&@&@&@&@&@&@&@&@&@&@&@&@&@&@&@&@&@&@&@&@&@&@&@&@&@%&i,j,^ _ m _ ~ ~ ~ @ & ( . . . @ @ ! @ ! n ! ! { ] ] @ ) 2 ) ! ) ! . 2   ( 2 ) ( ' ( ; < 1 1 ; & & & % % . % 2 @ % ! % @ 2 % 2 % o . f @ @ $ f @ @ @ @ 9 ' p 8 < q r < ' ; ' 7 5 h 8 ( 9 . & ( ; ( * ; , 1 i j ",
", 6 r & ; $ d & d * ' * 0 , 7 b 7 b 6 6 7 * ; 9 & % & & . @ . % ) 2 . ~ ] ] ~ ] ~ s ] ^ ^ ^ ~ ] ] $ @ . ( 2 . . @ @ @ { @ ! ! ! @ @ @ ! ) s>&@&@&@&@&@&@&@&@&@&@&@&@&@&@&@&@&@&@&@&@&@&@&@&@&@&@&@&@&@1&% 2 % 2 % % @ % . t @ @ ) @ @ @ 2 ( 0 ' 5 5 < , ' ' ( ' , 6 r & ; $ d & d * ' * 0 , 7 k,&@&@&@&@&@&@&@&@&@&@&@&@&@&@&@&@&@&@&@&@&@&@&@&@&@&@&@&@&@&@&@&@&@&@&@&@1@2 . . @ @ @ { @ ! ! ! @ @ @ ! ) 2   2 ( ) 2   2   (   ( ( (   , 4 1 7 & & & % @ @ @ f o . f @ % 2 % 2 % % @ % . t @ l,m,n,o,&@&@&@&@&@&@&@&@&@&@&@&@&@&@&@&@&@&@&@&@&@&@&@&@&@&@&@&@&@&@&@&@&@&@&@&@&@&@&@&@&@&@&@&@&@&@&@&@&@&@&@p,q,r,s ] ^ ^ ^ ~ ] ] $ @ . ( 2 . . @ @ @ { @ ! ! ! @ @ @ ! ) 2   2 ( ) 2   2   (   ( ( (   , 4 1 7 & & & % @ @ @ f o . f @ % 2 % 2 % % @ % . t @ @ ) @ @ @ 2 ( 0 ' 5 5 < , ' ' ( ' , 6 r & ; $ d & d * ' * 0 , 7 b ",
"9 6 } u & , & , , d 0 ; ' & ' * a i v v 6 , & w & & . . @ @ . ( & 2 . @ ~ @ @ ] @ ~ ] ~ ] ] ~ ~ ~ @ ) ( ( % ) @ @ @ @ @ ! ! ! ! ! ) 2 ) 2 A>&@&@&@&@&@&@&@&@&@&@&@&@&@&@&@&@&@&@&@&@&@&@&@&@&@&@&@&@&@8&@ ~ @ . 2 ) % @ @ @ @ @ % ) ) ) x x : ' z z ' ( ' ' % . 9 6 } u & , & , , d 0 ; ' & ' * s,&@&@&@&@&@&@&@&@&@&@&@&@&@&@&@&@&@&@&@&@&@&@&@&@&@&@&@&@&@&@&@&@&@&@&@1@% ) @ @ @ @ @ ! ! ! ! ! ) 2 ) 2 ( x : ( x ( 2 ( y ) 2 @ ) ' 0 < 4 , & & ( 9 @ ~ ~ f o @ @ ~ ~ @ ~ @ . 2 ) % @ @ @ @ @ % ) t,u,v,w,&@&@&@&@&@&@&@&@&@&@&@&@&@&@&@&@&@&@&@&@&@&@&@&@&@&@&@&@&@&@&@&@&@&@&@&@&@&@&@&@&@&@&@&@&@x,y,z,@ ] @ ~ ] ~ ] ] ~ ~ ~ @ ) ( ( % ) @ @ @ @ @ ! ! ! ! ! ) 2 ) 2 ( x : ( x ( 2 ( y ) 2 @ ) ' 0 < 4 , & & ( 9 @ ~ ~ f o @ @ ~ ~ @ ~ @ . 2 ) % @ @ @ @ @ % ) ) ) x x : ' z z ' ( ' ' % . 9 6 } u & , & , , d 0 ; ' & ' * ",
"A = 6 B [ , l 1 , ; & ( & % % 9 = 1 C C u D , , ' & % % . $ & ( ' ( ( . @ @ . . ! @ ! ] @ @ ! @ ! . 2 0 ( ( % ) @ @ @ ! ) 2 ! ) 2 ( ( ( ) A>&@&@&@&@&@&@&@&@&@&@&@&@&@&@&@&@&@&@&@&@&@&@&@&@&@&@&@&@&@8&@ ! f ) % 2 . % @ . % @ ) ! 2 y ( E E 8 F G 8 ( ( (   ( A = 6 B [ , l 1 , ; & ( & % % 9 A,&@&@&@&@&@&@&@&@&@&@&@&@&@&@&@&@&@&@&@&@&@&@&@&@&@&@&@&@&@&@&@&@&@&@&@1@( % ) @ @ @ ! ) 2 ! ) 2 ( ( ( ) ( E 8 E ( x ( x ( 2 ) ( ' ' ' < < 8 & ' ( ( f ~ ~ @ o @ ! @ ~ @ ! f ) % 2 . % @ . % @ ) ! 2 y ( B,C,D,E,F,&@&@&@&@&@&@&@&@&@&@&@&@&@&@&@&@&@&@&@&@&@&@&@&@&@&@&@&@&@&@&@&@&@&@&@&@&@@-t@G,H,. @ @ . . ! @ ! ] @ @ ! @ ! . 2 0 ( ( % ) @ @ @ ! ) 2 ! ) 2 ( ( ( ) ( E 8 E ( x ( x ( 2 ) ( ' ' ' < < 8 & ' ( ( f ~ ~ @ o @ ! @ ~ @ ! f ) % 2 . % @ . % @ ) ! 2 y ( E E 8 F G 8 ( ( (   ( A = 6 B [ , l 1 , ; & ( & % % 9 ",
"; > 6 D H 1 [ < & 9 3 . . . . 2 & = i } i i 1 1 I * ; * ' * 0 , ' 0 & . . 2 ( . % ) . @ ! @ ! @ ) % ( E ' 2 ) . ) . 2 ) 2 ) 2 2 ( ' ' ' 0 : ' E ' x ( ( x ( x 2 E E 0 ' 0 J < 0 ( & % . ! ~ { @ ! @ @ ! @ ! 2 2 2 ) @ ! @ f @ ! f K x x 8 8 L 8 8 < E ' ' ' & ' ; > 6 D H 1 [ < & 9 3 . . . . 2 & = i } i i 1 1 I * ; * ' * 0 , ' 0 & . . 2 ( . % ) . @ ! @ ! @ ) % ( E ' 2 ) . ) . 2 ) 2 ) 2 2 ( ' ' ' 0 : ' E ' x ( ( x ( x 2 E E 0 ' 0 J < 0 ( & % . ! ~ { @ ! @ @ ! @ ! 2 2 2 ) @ ! @ f @ ! f K x x 8 8 L 8 8 I,J,_,K,L,M,&@&@&@&@&@&@&@&@&@&@&@&@&@&@&@&@&@&@&@&@&@&@&@&@&@&@&@N,O,P,Q,R,, ' 0 & . . 2 ( . % ) . @ ! @ ! @ ) % ( E ' 2 ) . ) . 2 ) 2 ) 2 2 ( ' ' ' 0 : ' E ' x ( ( x ( x 2 E E 0 ' 0 J < 0 ( & % . ! ~ { @ ! @ @ ! @ ! 2 2 2 ) @ ! @ f @ ! f K x x 8 8 L 8 8 < E ' ' ' & ' ; > 6 D H 1 [ < & 9 3 . . . . 2 ",
"M | k b [ N H , O . $ . @ @ . ( & , a a a , I a 1 a , , a 7 7 J ; ' ( % . % 9 ( . . . @ c . . ! . 2 ( ' ( . . % ) 2 ( ( ( x (   ' ( ' d < 8 8 ' ' ( ( x ( ( x ( . ( 0 8 < J 8 ( ( . 2 . o @ o @ ~ ~ ~ ~ ~ . 2 2 . 2 @ o @ @ . 2 ) ( E 8 P 8 8 < 8 p ; ( 8 d & ' M | k b [ N H , O . $ . @ @ . ( & , a a a , I a 1 a , , a 7 7 J ; ' ( % . % 9 ( . . . @ c . . ! . 2 ( ' ( . . % ) 2 ( ( ( x (   ' ( ' d < 8 8 ' ' ( ( x ( ( x ( . ( 0 8 < J 8 ( ( . 2 . o @ o @ ~ ~ ~ ~ ~ . 2 2 . 2 @ o @ @ . 2 ) ( E 8 P 8 8 < 8 p ; ( 8 d S,T,U,V,W,X,Y,Z,`, '.'+'@'`$O+E@#']%{>$'%'&'*'='-';'>',', , a 7 7 J ; ' ( % . % 9 ( . . . @ c . . ! . 2 ( ' ( . . % ) 2 ( ( ( x (   ' ( ' d < 8 8 ' ' ( ( x ( ( x ( . ( 0 8 < J 8 ( ( . 2 . o @ o @ ~ ~ ~ ~ ~ . 2 2 . 2 @ o @ @ . 2 ) ( E 8 P 8 8 < 8 p ; ( 8 d & ' M | k b [ N H , O . $ . @ @ . ( ",
"[ 6 6 [ u C Q R 7 9 ; . . S c   & & ; , , , a 1 = 0 * , , I a a < , ; ' & ' ( ' ' ( % . 2   2 . ( ( ' x ( 2 @ ] ( @ ( : 8 J E < < ' 7 8 < < ( d ( < 8   ( 8 ' ( 2 ' 8 8 < z < 0 ( ( 2 % 2 2 ! ~ ! % ~ ~ @ 2 2 2 2 @ ! f ! o 2 2 ( x : p 8 < G 8 d 8 7 d 7 < 4 7 [ 6 6 [ u C Q R 7 9 ; . . S c   & & ; , , , a 1 = 0 * , , I a a < , ; ' & ' ( ' ' ( % . 2   2 . ( ( ' x ( 2 @ ] ( @ ( : 8 J E < < ' 7 8 < < ( d ( < 8   ( 8 ' ( 2 ' 8 8 < z < 0 ( ( 2 % 2 2 ! ~ ! % ~ ~ @ 2 2 2 2 @ ! f ! o 2 2 ( x : p 8 < G 8 d 8 7 d 7 < 4 7 [ 6 6 [ u C Q R 7 9 ; . . S c   & & ; , , , a 1 = 0 * , , I a a < , ; ' & ' ( ' ' ( % . 2   2 . ( ( ' x ( 2 @ ] ( @ ( : 8 J E < < ' 7 8 < < ( d ( < 8   ( 8 ' ( 2 ' 8 8 < z < 0 ( ( 2 % 2 2 ! ~ ! % ~ ~ @ 2 2 2 2 @ ! f ! o 2 2 ( x : p 8 < G 8 d 8 7 d 7 < 4 7 [ 6 6 [ u C Q R 7 9 ; . . S c   ",
"b 6 6 i 7 7 T U u 7 V @ $   ] + % & e ; * , 7 1 a a , = = = , 7 a < 7 , 8 , 0 0 '   @ @ . ( ( ' ( ( 2 . 2 . ) % 9 @ . . ' 8 < } u } B } 6 < ' 7 . ' ' ' ' d ( ( , 8 7 , J 1 < , & ( & ( ) 2 2 2 % 2 @ @ @ 2 ( ) 2 f ! . 2 . 2 x ' , p 0 p 8 < 8 d , W < 1 X 5 6 b 6 6 i 7 7 T U u 7 V @ $   ] + % & e ; * , 7 1 a a , = = = , 7 a < 7 , 8 , 0 0 '   @ @ . ( ( ' ( ( 2 . 2 . ) % 9 @ . . ' 8 < } u } B } 6 < ' 7 . ' ' ' ' d ( ( , 8 7 , J 1 < , & ( & ( ) 2 2 2 % 2 @ @ @ 2 ( ) 2 f ! . 2 . 2 x ' , p 0 p 8 < 8 d , W < 1 X 5 6 b 6 6 i 7 7 T U u 7 V @ $   ] + % & e ; * , 7 1 a a , = = = , 7 a < 7 , 8 , 0 0 '   @ @ . ( ( ' ( ( 2 . 2 . ) % 9 @ . . ' 8 < } u } B } 6 < ' 7 . ' ' ' ' d ( ( , 8 7 , J 1 < , & ( & ( ) 2 2 2 % 2 @ @ @ 2 ( ) 2 f ! . 2 . 2 x ' , p 0 p 8 < 8 d , W < 1 X 5 6 b 6 6 i 7 7 T U u 7 V @ $   ] + ",
", 7 < W & A 7 B u 4 3 @ + . ~ ~ . & 9 & ( * , , 1 6 1 a a , = , * 0 , 7 < 1 < < , 0 (   ( ( ' ( .   ( ' ' ( . @ . @ & & 0 , , < a u U Y u Z = , 1 < , 7 J , ' , d , , J 1 < 0 & ( ( 9 ( & ( ' : ( ' ( ) 2 ( ( . ( . ! 2 ) 2 ( : 8 p , p , ` , d d 8 W < 5 X 6 7 , 7 < W & A 7 B u 4 3 @ + . ~ ~ . & 9 & ( * , , 1 6 1 a a , = , * 0 , 7 < 1 < < , 0 (   ( ( ' ( .   ( ' ' ( . @ . @ & & 0 , , < a u U Y u Z = , 1 < , 7 J , ' , d , , J 1 < 0 & ( ( 9 ( & ( ' : ( ' ( ) 2 ( ( . ( . ! 2 ) 2 ( : 8 p , p , ` , d d 8 W < 5 X 6 7 , 7 < W & A 7 B u 4 3 @ + . ~ ~ . & 9 & ( * , , 1 6 1 a a , = , * 0 , 7 < 1 < < , 0 (   ( ( ' ( .   ( ' ' ( . @ . @ & & 0 , , < a u U Y u Z = , 1 < , 7 J , ' , d , , J 1 < 0 & ( ( 9 ( & ( ' : ( ' ( ) 2 ( ( . ( . ! 2 ) 2 ( : 8 p , p , ` , d d 8 W < 5 X 6 7 , 7 < W & A 7 B u 4 3 @ + . ~ ~ ",
"' 9 . 3 . > d b [ 4 , g @ + . . @ . % % ' & 0 0 1  .6 6 b a a , ; ; ' 7 J 4 J J 8 8 < 8 8 ' & ) 9 ( ' ' ( (   % ) . 0 d , 7 , a ..U R +.} u H U C u 1 1 6 < 7 1 a 7 a 1 b 4 7 < = ' ' ' ' ( ( '   ( ' ( ' ( ( ) ( 2 ) 2 ( ( : 8 8 d 8 ' d < < p 7 < 8 p , W ' . ' 9 . 3 . > d b [ 4 , g @ + . . @ . % % ' & 0 0 1  .6 6 b a a , ; ; ' 7 J 4 J J 8 8 < 8 8 ' & ) 9 ( ' ' ( (   % ) . 0 d , 7 , a ..U R +.} u H U C u 1 1 6 < 7 1 a 7 a 1 b 4 7 < = ' ' ' ' ( ( '   ( ' ( ' ( ( ) ( 2 ) 2 ( ( : 8 8 d 8 ' d < < p 7 < 8 p , W ' . ' 9 . 3 . > d b [ 4 , g @ + . . @ . % % ' & 0 0 1  .6 6 b a a , ; ; ' 7 J 4 J J 8 8 < 8 8 ' & ) 9 ( ' ' ( (   % ) . 0 d , 7 , a ..U R +.} u H U C u 1 1 6 < 7 1 a 7 a 1 b 4 7 < = ' ' ' ' ( ( '   ( ' ( ' ( ( ) ( 2 ) 2 ( ( : 8 8 d 8 ' d < < p 7 < 8 p , W ' . ' 9 . 3 . > d b [ 4 , g @ + . . ",
") @ + + . . ; ; 6 6 1 9 ( % ( @ @ . . ) & ( ' ; ; 7 b 1 6 D b , 7 , , , 0 , ' ' ' 0 , 8 < < 8 0 d ' ( ' ' & ( d ' & , ' , 6 j H [ v Q u 6 [ 1 6 @.#.U C $.u D 7 | D j } 6 b , , d 0 ; ' ' 9 ( & & ( ' ' ' p ' ( ( . ( ( ( ( : , p 8 , p 8 < < 8 8 p , ( . . @ g ) @ + + . . ; ; 6 6 1 9 ( % ( @ @ . . ) & ( ' ; ; 7 b 1 6 D b , 7 , , , 0 , ' ' ' 0 , 8 < < 8 0 d ' ( ' ' & ( d ' & , ' , 6 j H [ v Q u 6 [ 1 6 @.#.U C $.u D 7 | D j } 6 b , , d 0 ; ' ' 9 ( & & ( ' ' ' p ' ( ( . ( ( ( ( : , p 8 , p 8 < < 8 8 p , ( . . @ g ) @ + + . . ; ; 6 6 1 9 ( % ( @ @ . . ) & ( ' ; ; 7 b 1 6 D b , 7 , , , 0 , ' ' ' 0 , 8 < < 8 0 d ' ( ' ' & ( d ' & , ' , 6 j H [ v Q u 6 [ 1 6 @.#.U C $.u D 7 | D j } 6 b , , d 0 ; ' ' 9 ( & & ( ' ' ' p ' ( ( . ( ( ( ( : , p 8 , p 8 < < 8 8 p , ( . . @ g ) @ + + . . ; ; 6 6 1 9 ( % ( @ ",
"] ] @ c g g g 9 7 X u } & & . ( . @ . . ( ; ( & & 0 < b j } 6 b a %., , ' ' e ( & ( ( ' ' 8 8 < < < 4 z 4 ' ( ( , , 4 b 6 C &.*.=.H +.[ b j u Q =.*.Q -.;.>.N *.,.N -.D = | 6 i 7 ' ' ' ' & & ' 9 ' ' d , 8 , ' (   %   ( ( ( : , p < < < G < 8 ' : ' ) @ c @ @ ] ] @ c g g g 9 7 X u } & & . ( . @ . . ( ; ( & & 0 < b j } 6 b a %., , ' ' e ( & ( ( ' ' 8 8 < < < 4 z 4 ' ( ( , , 4 b 6 C &.*.=.H +.[ b j u Q =.*.Q -.;.>.N *.,.N -.D = | 6 i 7 ' ' ' ' & & ' 9 ' ' d , 8 , ' (   %   ( ( ( : , p < < < G < 8 ' : ' ) @ c @ @ ] ] @ c g g g 9 7 X u } & & . ( . @ . . ( ; ( & & 0 < b j } 6 b a %., , ' ' e ( & ( ( ' ' 8 8 < < < 4 z 4 ' ( ( , , 4 b 6 C &.*.=.H +.[ b j u Q =.*.Q -.;.>.N *.,.N -.D = | 6 i 7 ' ' ' ' & & ' 9 ' ' d , 8 , ' (   %   ( ( ( : , p < < < G < 8 ' : ' ) @ c @ @ ] ] @ c g g g 9 7 X u } & & . ( ",
"] _ n ] + + 3 . A 5 +.+.' ( f ' % ) ) 2 ' ( ' & ' d , b 6 u u 6 a , , 0 0 , ' ( 0 ( ( % ( ( ' : , < 6 r X < d 8 < < Z 6 u -.C C [ 6 '.} ).u [ u !.~.-.$.{.'.D D -.N ].>.,.R C | } b d , 7 ' ' d ' 0 d 8 < 4 < 8 ' ' ( ' ( ( : 8 8 < < 8 < G 8 : ( ( ) ! ] { ! ! ] _ n ] + + 3 . A 5 +.+.' ( f ' % ) ) 2 ' ( ' & ' d , b 6 u u 6 a , , 0 0 , ' ( 0 ( ( % ( ( ' : , < 6 r X < d 8 < < Z 6 u -.C C [ 6 '.} ).u [ u !.~.-.$.{.'.D D -.N ].>.,.R C | } b d , 7 ' ' d ' 0 d 8 < 4 < 8 ' ' ( ' ( ( : 8 8 < < 8 < G 8 : ( ( ) ! ] { ! ! ] _ n ] + + 3 . A 5 +.+.' ( f ' % ) ) 2 ' ( ' & ' d , b 6 u u 6 a , , 0 0 , ' ( 0 ( ( % ( ( ' : , < 6 r X < d 8 < < Z 6 u -.C C [ 6 '.} ).u [ u !.~.-.$.{.'.D D -.N ].>.,.R C | } b d , 7 ' ' d ' 0 d 8 < 4 < 8 ' ' ( ' ( ( : 8 8 < < 8 < G 8 : ( ( ) ! ] { ! ! ] _ n ] + + 3 . A 5 +.+.' ( f ' ",
"^ ] ^.^ + . c 3 & , X [ Z ; ; % . ) .   ( ' ' ( ; 0 , , b u '.b 1 J 7 , ' & % . % ( & ( ) 2 ( ( ' 9 ' < < G } /.6 1 6 b 6 (.-.H $.[ } [ D [ '._.:.<.'.[.).D D [ [ }.'.j -.,.#.Y Q u | | 7 7 d 7 , 7 | < < 1 < < < 8 , E : E d 8 < < G G 8 8 : 2   ( ! { ] { ] ^ ^ ] ^.^ + . c 3 & , X [ Z ; ; % . ) .   ( ' ' ( ; 0 , , b u '.b 1 J 7 , ' & % . % ( & ( ) 2 ( ( ' 9 ' < < G } /.6 1 6 b 6 (.-.H $.[ } [ D [ '._.:.<.'.[.).D D [ [ }.'.j -.,.#.Y Q u | | 7 7 d 7 , 7 | < < 1 < < < 8 , E : E d 8 < < G G 8 8 : 2   ( ! { ] { ] ^ ^ ] ^.^ + . c 3 & , X [ Z ; ; % . ) .   ( ' ' ( ; 0 , , b u '.b 1 J 7 , ' & % . % ( & ( ) 2 ( ( ' 9 ' < < G } /.6 1 6 b 6 (.-.H $.[ } [ D [ '._.:.<.'.[.).D D [ [ }.'.j -.,.#.Y Q u | | 7 7 d 7 , 7 | < < 1 < < < 8 , E : E d 8 < < G G 8 8 : 2   ( ! { ] { ] ^ ^ ] ^.^ + . c 3 & , X [ Z ; ; % ",
"] ^ # ] ] ] @ . + |.1 1 4 7 d & . & ( . 2 ( : ' 8 d , < 6 j [ j X 1 7 , d , ' ' (   2 2 ( ) 2 ) ( ' ' ' 8 d 8 < 5 /.u u $.1.[ ,.$.[ [ $.C '.2.3.4.5.6.7.D | [ 1 [ X X X T $.H *.;.8.:.N $.u 6 D 1 6 } } 6 6 5 1 < 8 ' p , : 8 G < z 9.G p : ( ) ) ) ) @ ] ] ] ] ] ^ # ] ] ] @ . + |.1 1 4 7 d & . & ( . 2 ( : ' 8 d , < 6 j [ j X 1 7 , d , ' ' (   2 2 ( ) 2 ) ( ' ' ' 8 d 8 < 5 /.u u $.1.[ ,.$.[ [ $.C '.2.3.4.5.6.7.D | [ 1 [ X X X T $.H *.;.8.:.N $.u 6 D 1 6 } } 6 6 5 1 < 8 ' p , : 8 G < z 9.G p : ( ) ) ) ) @ ] ] ] ] ] ^ # ] ] ] @ . + |.1 1 4 7 d & . & ( . 2 ( : ' 8 d , < 6 j [ j X 1 7 , d , ' ' (   2 2 ( ) 2 ) ( ' ' ' 8 d 8 < 5 /.u u $.1.[ ,.$.[ [ $.C '.2.3.4.5.6.7.D | [ 1 [ X X X T $.H *.;.8.:.N $.u 6 D 1 6 } } 6 6 5 1 < 8 ' p , : 8 G < z 9.G p : ( ) ) ) ) @ ] ] ] ] ] ^ # ] ] ] @ . + |.1 1 4 7 d & ",
"^ 0.^ a.] / c @ c & d 7 7 d b.3 9 ( ( ( . x 0 x ' : , < 1 6 j 6 [ 6 4 , , d ' ( ( % ( ) ) 2 ) 2 ) ) ( ' ( ( ' ' & 1 < X u >.*.c.~.=.C }.-._._.d.e.4.f.}.b j | 1 5 5 5 [ 6 X $.(.6 H ~.!.:.@.*.u | } Q +.6 i 5 4 < < < G < :   : < G G 8 : : x g.( ) ! ] ] ] + + ^ 0.^ a.] / c @ c & d 7 7 d b.3 9 ( ( ( . x 0 x ' : , < 1 6 j 6 [ 6 4 , , d ' ( ( % ( ) ) 2 ) 2 ) ) ( ' ( ( ' ' & 1 < X u >.*.c.~.=.C }.-._._.d.e.4.f.}.b j | 1 5 5 5 [ 6 X $.(.6 H ~.!.:.@.*.u | } Q +.6 i 5 4 < < < G < :   : < G G 8 : : x g.( ) ! ] ] ] + + ^ 0.^ a.] / c @ c & d 7 7 d b.3 9 ( ( ( . x 0 x ' : , < 1 6 j 6 [ 6 4 , , d ' ( ( % ( ) ) 2 ) 2 ) ) ( ' ( ( ' ' & 1 < X u >.*.c.~.=.C }.-._._.d.e.4.f.}.b j | 1 5 5 5 [ 6 X $.(.6 H ~.!.:.@.*.u | } Q +.6 i 5 4 < < < G < :   : < G G 8 : : x g.( ) ! ] ] ] + + ^ 0.^ a.] / c @ c & d 7 7 d b.3 ",
"# # ^.# ^ ] ] @ . 9 ( ; 7 7 l 9 ; ( &   2 ( ( x E E < 4 6 5 6 6 X 1 4 < 7 , ' & |.( ) % ) ! 2 ) ) & ( ' (   (   . , d 1 | H H @.c.].].:.].*.d.5.h.i.d.6.j.} b r X X X X X X r u /.B X 6 +.1.#.k.>.#.U '.X H B ; , ` 7 < < < < z < ` p ' x : ( x g.( ! @ c c ] ^ # # ^.# ^ ] ] @ . 9 ( ; 7 7 l 9 ; ( &   2 ( ( x E E < 4 6 5 6 6 X 1 4 < 7 , ' & |.( ) % ) ! 2 ) ) & ( ' (   (   . , d 1 | H H @.c.].].:.].*.d.5.h.i.d.6.j.} b r X X X X X X r u /.B X 6 +.1.#.k.>.#.U '.X H B ; , ` 7 < < < < z < ` p ' x : ( x g.( ! @ c c ] ^ # # ^.# ^ ] ] @ . 9 ( ; 7 7 l 9 ; ( &   2 ( ( x E E < 4 6 5 6 6 X 1 4 < 7 , ' & |.( ) % ) ! 2 ) ) & ( ' (   (   . , d 1 | H H @.c.].].:.].*.d.5.h.i.d.6.j.} b r X X X X X X r u /.B X 6 +.1.#.k.>.#.U '.X H B ; , ` 7 < < < < z < ` p ' x : ( x g.( ! @ c c ] ^ # # ^.# ^ ] ] @ . 9 ( ; 7 7 l 9 ",
"^.^ # ] ^ + ] ] . . 9 9 d 7 7 7 ' ; ( %   ( 2 ) ( ' 8 F 1 6 1 1 1 1 1 4 < < ' ' ( ( % ) ! @ ! 2 .   : ' : (   ( ' d ' < ; 6 6 $.:.:.c.l.m.].n.o.4.p.n.}.C '.j X q q.q q.q X 9.5 G X q r.B s.u +.;.;.@.c.>.u 6 } 4 1 4 < 4 < < < < p : (   x   ) g.) ) ) ) ! c # ^.^ # ] ^ + ] ] . . 9 9 d 7 7 7 ' ; ( %   ( 2 ) ( ' 8 F 1 6 1 1 1 1 1 4 < < ' ' ( ( % ) ! @ ! 2 .   : ' : (   ( ' d ' < ; 6 6 $.:.:.c.l.m.].n.o.4.p.n.}.C '.j X q q.q q.q X 9.5 G X q r.B s.u +.;.;.@.c.>.u 6 } 4 1 4 < 4 < < < < p : (   x   ) g.) ) ) ) ! c # ^.^ # ] ^ + ] ] . . 9 9 d 7 7 7 ' ; ( %   ( 2 ) ( ' 8 F 1 6 1 1 1 1 1 4 < < ' ' ( ( % ) ! @ ! 2 .   : ' : (   ( ' d ' < ; 6 6 $.:.:.c.l.m.].n.o.4.p.n.}.C '.j X q q.q q.q X 9.5 G X q r.B s.u +.;.;.@.c.>.u 6 } 4 1 4 < 4 < < < < p : (   x   ) g.) ) ) ) ! c # ^.^ # ] ^ + ] ] . . 9 9 d 7 7 7 ",
"] ] ^ ] ^ ~ ] ~ ] ~ c 3 9 ; d 7 d &   9 2 ) ( 2 ) x x 8 8 8 7 , < < < J < < 8 ' ' ( ) @ @ @ . @ . ) (   (   ( . ( ( ( 7 d 5 u u Q ,.!.3.t.u.v.w.x.y.n.'.-.$.6 7 5 5 5 9.z.A.h G A.9.9.h h < h /.B.;.#.Q U C.:.[ 4 b 6 6 6 6 < d 8 ' (   :   ) ! ! ) ) K (   @ ^.] ] ^ ] ^ ~ ] ~ ] ~ c 3 9 ; d 7 d &   9 2 ) ( 2 ) x x 8 8 8 7 , < < < J < < 8 ' ' ( ) @ @ @ . @ . ) (   (   ( . ( ( ( 7 d 5 u u Q ,.!.3.t.u.v.w.x.y.n.'.-.$.6 7 5 5 5 9.z.A.h G A.9.9.h h < h /.B.;.#.Q U C.:.[ 4 b 6 6 6 6 < d 8 ' (   :   ) ! ! ) ) K (   @ ^.] ] ^ ] ^ ~ ] ~ ] ~ c 3 9 ; d 7 d &   9 2 ) ( 2 ) x x 8 8 8 7 , < < < J < < 8 ' ' ( ) @ @ @ . @ . ) (   (   ( . ( ( ( 7 d 5 u u Q ,.!.3.t.u.v.w.x.y.n.'.-.$.6 7 5 5 5 9.z.A.h G A.9.9.h h < h /.B.;.#.Q U C.:.[ 4 b 6 6 6 6 < d 8 ' (   :   ) ! ! ) ) K (   @ ^.] ] ^ ] ^ ~ ] ~ ] ~ c 3 9 ; d 7 ",
"s ] _ ] _ ] ~ ] ] ~ g @ $ . l < 7 d & 9 ( . 2 ) 2 ( ' E d E p 8 d 8 8 8 < 8 p 8 ( ( & 2 . 2 . ) 2 9 ( ' ( ( ) ( ( ' ( 4 z 5 r X +.D.Q }.2.E.F.w.v.G.8.,.'.C 4 6 B.h h h h H.L P I.G I.G A.A.h X T u B $.6 [ J.@.H B T j X } 6 4 : '   : : x x ) ! ) ) x : ( ) c s ] _ ] _ ] ~ ] ] ~ g @ $ . l < 7 d & 9 ( . 2 ) 2 ( ' E d E p 8 d 8 8 8 < 8 p 8 ( ( & 2 . 2 . ) 2 9 ( ' ( ( ) ( ( ' ( 4 z 5 r X +.D.Q }.2.E.F.w.v.G.8.,.'.C 4 6 B.h h h h H.L P I.G I.G A.A.h X T u B $.6 [ J.@.H B T j X } 6 4 : '   : : x x ) ! ) ) x : ( ) c s ] _ ] _ ] ~ ] ] ~ g @ $ . l < 7 d & 9 ( . 2 ) 2 ( ' E d E p 8 d 8 8 8 < 8 p 8 ( ( & 2 . 2 . ) 2 9 ( ' ( ( ) ( ( ' ( 4 z 5 r X +.D.Q }.2.E.F.w.v.G.8.,.'.C 4 6 B.h h h h H.L P I.G I.G A.A.h X T u B $.6 [ J.@.H B T j X } 6 4 : '   : : x x ) ! ) ) x : ( ) c s ] _ ] _ ] ~ ] ] ~ g @ $ . l < ",
"] _ ] { ^ { ^ ] ~ ] @ . . . 0 1 6 < ( ( & 2 ) 2 ( x : E : E : E ' ( ' x ' E ' 8 ' : ' ' ( ( ( ( ' ' : ' ' ' ( ( : 8 E < z 4 } 5 $.-.C -.2.K.n.L.u.M.].].B X b T 1 4 G h G G N.N.I.L O.g.N.P.h Q.r B.[ X 6 [ 5 6 >.R U H u 6 1 , d ' ' : : (   K ) K ( g.K ) ) ! ] _ ] { ^ { ^ ] ~ ] @ . . . 0 1 6 < ( ( & 2 ) 2 ( x : E : E : E ' ( ' x ' E ' 8 ' : ' ' ( ( ( ( ' ' : ' ' ' ( ( : 8 E < z 4 } 5 $.-.C -.2.K.n.L.u.M.].].B X b T 1 4 G h G G N.N.I.L O.g.N.P.h Q.r B.[ X 6 [ 5 6 >.R U H u 6 1 , d ' ' : : (   K ) K ( g.K ) ) ! ] _ ] { ^ { ^ ] ~ ] @ . . . 0 1 6 < ( ( & 2 ) 2 ( x : E : E : E ' ( ' x ' E ' 8 ' : ' ' ( ( ( ( ' ' : ' ' ' ( ( : 8 E < z 4 } 5 $.-.C -.2.K.n.L.u.M.].].B X b T 1 4 G h G G N.N.I.L O.g.N.P.h Q.r B.[ X 6 [ 5 6 >.R U H u 6 1 , d ' ' : : (   K ) K ( g.K ) ) ! ] _ ] { ^ { ^ ] ~ ] @ . . . 0 1 ",
"] m _ ] ] ~ s ^ ] # ] @ . 9 , 4 } 1 0 ; ( % ) 2 ) 2 x ( x ( x : x ( x ( ( ( ' : 8 8 8 8 8 ' 8 ' ' 8 8 p ' (   x ( 8 : 8 z < q } 6 $.(.2.R.L.4.K.v.!.$.Y >.B [ < 4 4 < < G S.N.O.K N.N.g.T.S.P.z.X 5 B.5 < 4 5 6 < u U.R Y +.6 < < p ' : : ( K ) ) ) ! ! @ n ~ c ] m _ ] ] ~ s ^ ] # ] @ . 9 , 4 } 1 0 ; ( % ) 2 ) 2 x ( x ( x : x ( x ( ( ( ' : 8 8 8 8 8 ' 8 ' ' 8 8 p ' (   x ( 8 : 8 z < q } 6 $.(.2.R.L.4.K.v.!.$.Y >.B [ < 4 4 < < G S.N.O.K N.N.g.T.S.P.z.X 5 B.5 < 4 5 6 < u U.R Y +.6 < < p ' : : ( K ) ) ) ! ! @ n ~ c ] m _ ] ] ~ s ^ ] # ] @ . 9 , 4 } 1 0 ; ( % ) 2 ) 2 x ( x ( x : x ( x ( ( ( ' : 8 8 8 8 8 ' 8 ' ' 8 8 p ' (   x ( 8 : 8 z < q } 6 $.(.2.R.L.4.K.v.!.$.Y >.B [ < 4 4 < < G S.N.O.K N.N.g.T.S.P.z.X 5 B.5 < 4 5 6 < u U.R Y +.6 < < p ' : : ( K ) ) ) ! ! @ n ~ c ] m _ ] ] ~ s ^ ] # ] @ . 9 , 4 ",
"^ ^ ^ ^ s ^ ! { ! ! @ . ( ( < < u 6 7 ' ( & . @ ) ( x x x x 2 y 2 y ( y ( x ( x ' ' ' 8 < < < < < 8 d E : ' x ( x E < F B.z 1 4 X C u ~.V.L.w.W.H C $.B +.&.B &.6 B.4 < p : : : g.g.g.T.T.p P.z.` 5 5 < < h 5 < 5 r B 5 Z B X.r 5 4 : ' ) ) ) x ! ] _ ] _ ] ] ] ^ ^ ^ ^ s ^ ! { ! ! @ . ( ( < < u 6 7 ' ( & . @ ) ( x x x x 2 y 2 y ( y ( x ( x ' ' ' 8 < < < < < 8 d E : ' x ( x E < F B.z 1 4 X C u ~.V.L.w.W.H C $.B +.&.B &.6 B.4 < p : : : g.g.g.T.T.p P.z.` 5 5 < < h 5 < 5 r B 5 Z B X.r 5 4 : ' ) ) ) x ! ] _ ] _ ] ] ] ^ ^ ^ ^ s ^ ! { ! ! @ . ( ( < < u 6 7 ' ( & . @ ) ( x x x x 2 y 2 y ( y ( x ( x ' ' ' 8 < < < < < 8 d E : ' x ( x E < F B.z 1 4 X C u ~.V.L.w.W.H C $.B +.&.B &.6 B.4 < p : : : g.g.g.T.T.p P.z.` 5 5 < < h 5 < 5 r B 5 Z B X.r 5 4 : ' ) ) ) x ! ] _ ] _ ] ] ] ^ ^ ^ ^ s ^ ! { ! ! @ . ( ( < < ",
"] _ ^ s ^ { ] { @ ! @ ! . ( p , 1 < , & & % ( 2 ) 2 x Y.x x K 2 g.2 K ) x ) ( (   ( ' ' ' p < 8 < 8 8 8 d 8 : ' : 8 8 < z 5 X r u B K.2.E.L.Z.M.=.r } X q.u B &.>.H z.d d p : : G g.c )   p p ` G < G G < < G < < z J , 8 Z `.q 9.5 < : : : x n _ ] ^ ] _ { ] _ ] _ ^ s ^ { ] { @ ! @ ! . ( p , 1 < , & & % ( 2 ) 2 x Y.x x K 2 g.2 K ) x ) ( (   ( ' ' ' p < 8 < 8 8 8 d 8 : ' : 8 8 < z 5 X r u B K.2.E.L.Z.M.=.r } X q.u B &.>.H z.d d p : : G g.c )   p p ` G < G G < < G < < z J , 8 Z `.q 9.5 < : : : x n _ ] ^ ] _ { ] _ ] _ ^ s ^ { ] { @ ! @ ! . ( p , 1 < , & & % ( 2 ) 2 x Y.x x K 2 g.2 K ) x ) ( (   ( ' ' ' p < 8 < 8 8 8 d 8 : ' : 8 8 < z 5 X r u B K.2.E.L.Z.M.=.r } X q.u B &.>.H z.d d p : : G g.c )   p p ` G < G G < < G < < z J , 8 Z `.q 9.5 < : : : x n _ ] ^ ] _ { ] _ ] _ ^ s ^ { ] { @ ! @ ! . ( p , ",
"_ ] _ ] { ] { ! _ ~ c @ @ ( ' 8 7 , , ' & ) & 2 . 2   x ( y ( K 2 K 2 ) ) ! ) ! 2 )   ( ( ' p 8 < < p 8 p E d E : 8 < < < 1 q +...=.#.(.w.E. +3.H r z h z z.X $...Q H r 4 d ' |.d   .+) |.p 4 h h 8 8 G G 8 < G J G 8 : < z z 1 z r r.G (   ) ! ! _ ] s ~ ] ^ _ _ ] _ ] { ] { ! _ ~ c @ @ ( ' 8 7 , , ' & ) & 2 . 2   x ( y ( K 2 K 2 ) ) ! ) ! 2 )   ( ( ' p 8 < < p 8 p E d E : 8 < < < 1 q +...=.#.(.w.E. +3.H r z h z z.X $...Q H r 4 d ' |.d   .+) |.p 4 h h 8 8 G G 8 < G J G 8 : < z z 1 z r r.G (   ) ! ! _ ] s ~ ] ^ _ _ ] _ ] { ] { ! _ ~ c @ @ ( ' 8 7 , , ' & ) & 2 . 2   x ( y ( K 2 K 2 ) ) ! ) ! 2 )   ( ( ' p 8 < < p 8 p E d E : 8 < < < 1 q +...=.#.(.w.E. +3.H r z h z z.X $...Q H r 4 d ' |.d   .+) |.p 4 h h 8 8 G G 8 < G J G 8 : < z z 1 z r r.G (   ) ! ! _ ] s ~ ] ^ _ _ ] _ ] { ] { ! _ ~ c @ @ ( ' 8 ",
"{ ] { ] ] { ~ _ ~ _ @ ! . 2 ( ' , , , , ' ( & . 2   ( x ( y ) y 2 K 2 ++2 ! ! ! . ) . .   ( ' ' < 8 < 8 8 8 : d E < < J < 6 r H U J.U ;.3.@+u.U B q.z G h < ` 4 | X H ..&.5 | , p , ' d ' |.p < < L 8 < < L < G 8 p E < F h z 5 s.r.X.q.8 x g.x ) ! _ { _ _ c { { ] { ] ] { ~ _ ~ _ @ ! . 2 ( ' , , , , ' ( & . 2   ( x ( y ) y 2 K 2 ++2 ! ! ! . ) . .   ( ' ' < 8 < 8 8 8 : d E < < J < 6 r H U J.U ;.3.@+u.U B q.z G h < ` 4 | X H ..&.5 | , p , ' d ' |.p < < L 8 < < L < G 8 p E < F h z 5 s.r.X.q.8 x g.x ) ! _ { _ _ c { { ] { ] ] { ~ _ ~ _ @ ! . 2 ( ' , , , , ' ( & . 2   ( x ( y ) y 2 K 2 ++2 ! ! ! . ) . .   ( ' ' < 8 < 8 8 8 : d E < < J < 6 r H U J.U ;.3.@+u.U B q.z G h < ` 4 | X H ..&.5 | , p , ' d ' |.p < < L 8 < < L < G 8 p E < F h z 5 s.r.X.q.8 x g.x ) ! _ { _ _ c { { ] { ] ] { ~ _ ~ _ @ ! . 2 ( ' ",
"n ! ] _ ~ _ ~ ! ] ! . ) ( ( ' ( & & * 0 7 , ' ( & ( ( (     ( g.( y ) 2 ! ! @ @ @ @ ! ) ( ( ' : : 8 p 8 p ' 8 p , < 4 1 6 X $...X.H $.;.d.~.#+Q } $+%+G L p ` d 4 < < 6 B H T [ 7 7 d ' ' 8 8 < 8 8 < : 8 < < 8 , ' ' 8 < h q r.&+r 5 9.q.9.8 x ) ! { n ! ! ++) n ! ] _ ~ _ ~ ! ] ! . ) ( ( ' ( & & * 0 7 , ' ( & ( ( (     ( g.( y ) 2 ! ! @ @ @ @ ! ) ( ( ' : : 8 p 8 p ' 8 p , < 4 1 6 X $...X.H $.;.d.~.#+Q } $+%+G L p ` d 4 < < 6 B H T [ 7 7 d ' ' 8 8 < 8 8 < : 8 < < 8 , ' ' 8 < h q r.&+r 5 9.q.9.8 x ) ! { n ! ! ++) n ! ] _ ~ _ ~ ! ] ! . ) ( ( ' ( & & * 0 7 , ' ( & ( ( (     ( g.( y ) 2 ! ! @ @ @ @ ! ) ( ( ' : : 8 p 8 p ' 8 p , < 4 1 6 X $...X.H $.;.d.~.#+Q } $+%+G L p ` d 4 < < 6 B H T [ 7 7 d ' ' 8 8 < 8 8 < : 8 < < 8 , ' ' 8 < h q r.&+r 5 9.q.9.8 x ) ! { n ! ! ++) n ! ] _ ~ _ ~ ! ] ! . ) ( ( ' ( ",
"@ ! n @ _ ~ n { @ ! ) ( ' ( ; ( , 0 0 , 4 J , ' ' ( ' ' x ) x   y ) y ) ! ! ! ! c @ ! .   ( ' ( ' p 8 < 8 8 p 8 8 < 6 X } u Q Y /.+.H -.V.,.w.$.q $+I.L S.p p 4 h 8 d < 6 u $.$.u 6 , , 8 z F L ' 8 < d , 8 < 8 d 8 h z 5 5 5 q r 4 p G 9.z S.L O.x ! K ! ! { ! @ ! n @ _ ~ n { @ ! ) ( ' ( ; ( , 0 0 , 4 J , ' ' ( ' ' x ) x   y ) y ) ! ! ! ! c @ ! .   ( ' ( ' p 8 < 8 8 p 8 8 < 6 X } u Q Y /.+.H -.V.,.w.$.q $+I.L S.p p 4 h 8 d < 6 u $.$.u 6 , , 8 z F L ' 8 < d , 8 < 8 d 8 h z 5 5 5 q r 4 p G 9.z S.L O.x ! K ! ! { ! @ ! n @ _ ~ n { @ ! ) ( ' ( ; ( , 0 0 , 4 J , ' ' ( ' ' x ) x   y ) y ) ! ! ! ! c @ ! .   ( ' ( ' p 8 < 8 8 p 8 8 < 6 X } u Q Y /.+.H -.V.,.w.$.q $+I.L S.p p 4 h 8 d < 6 u $.$.u 6 , , 8 z F L ' 8 < d , 8 < 8 d 8 h z 5 5 5 q r 4 p G 9.z S.L O.x ! K ! ! { ! @ ! n @ _ ~ n { @ ! ) ( ' ( ; ( ",
"! c ! ! ! ! ! ! ) ) 2   ( ( ' ( a 7 , , I < 7 J ' p ' :   (   x 2 K ) ! ) ! @ @ { @ @ ) ) ( ( : ' 8 < < < 8 < 4 1 1 5 X u $.Q Q Y r H $.(.V.:.U r 9.%+P N.: ` ` 8 < < < 7 | 6 u ;.=.+.6 J %.E 2 , 8 7 %., , < 4 < z 5 5 5 4 8 ' d : ' : :   x N.E K K ! ++_ _ ] ! c ! ! ! ! ! ! ) ) 2   ( ( ' ( a 7 , , I < 7 J ' p ' :   (   x 2 K ) ! ) ! @ @ { @ @ ) ) ( ( : ' 8 < < < 8 < 4 1 1 5 X u $.Q Q Y r H $.(.V.:.U r 9.%+P N.: ` ` 8 < < < 7 | 6 u ;.=.+.6 J %.E 2 , 8 7 %., , < 4 < z 5 5 5 4 8 ' d : ' : :   x N.E K K ! ++_ _ ] ! c ! ! ! ! ! ! ) ) 2   ( ( ' ( a 7 , , I < 7 J ' p ' :   (   x 2 K ) ! ) ! @ @ { @ @ ) ) ( ( : ' 8 < < < 8 < 4 1 1 5 X u $.Q Q Y r H $.(.V.:.U r 9.%+P N.: ` ` 8 < < < 7 | 6 u ;.=.+.6 J %.E 2 , 8 7 %., , < 4 < z 5 5 5 4 8 ' d : ' : :   x N.E K K ! ++_ _ ] ! c ! ! ! ! ! ! ) ) 2   ( ( ' ( ",
") ! ) ! @ ! ! ) 2 2 ) 2   ( ' ' ' 0 ' & 0 , J 5 , 8 8 ' ' g.( x ) 2 ) o ! ! ] ! @ n @ @ @   ( : ' 8 < h G G z z 5 5 } X u $.B H /.5 T -.).(.#.*+X.q $+H.S.T.p p G 8 8 : , 7 | b 6 C =.+.Z J %.J J 7 7 1 1 d , 5 z < ' ) .   9 )   ( ) ) ! K ) ! ! { ! ++) ! ! ++) ! ) ! @ ! ! ) 2 2 ) 2   ( ' ' ' 0 ' & 0 , J 5 , 8 8 ' ' g.( x ) 2 ) o ! ! ] ! @ n @ @ @   ( : ' 8 < h G G z z 5 5 } X u $.B H /.5 T -.).(.#.*+X.q $+H.S.T.p p G 8 8 : , 7 | b 6 C =.+.Z J %.J J 7 7 1 1 d , 5 z < ' ) .   9 )   ( ) ) ! K ) ! ! { ! ++) ! ! ++) ! ) ! @ ! ! ) 2 2 ) 2   ( ' ' ' 0 ' & 0 , J 5 , 8 8 ' ' g.( x ) 2 ) o ! ! ] ! @ n @ @ @   ( : ' 8 < h G G z z 5 5 } X u $.B H /.5 T -.).(.#.*+X.q $+H.S.T.p p G 8 8 : , 7 | b 6 C =.+.Z J %.J J 7 7 1 1 d , 5 z < ' ) .   9 )   ( ) ) ! K ) ! ! { ! ++) ! ! ++) ! ) ! @ ! ! ) 2 2 ) 2   ( ' ' ",
") ) . n . ) ( ) ! ) ) ) ( ( ) 2 (   ( ' : 0 0 , a , ; , ( ( p ) x ( ( ) 2 2 ) ) ) ) .   ' ' ' ' 8 < < 8 < 1 5 q 5 5 X X 5 5 X q 9.5 5 z.} u u ..k.q 5 h G p h : p S.p 8 < < p 6 4 6 6 i u -.+.j ).[ 1 | 1 5 z p ' ( : 2 ) ! ) : ) ++! ! ++! ++n _ =+_ _ { -+! ++) ) . n . ) ( ) ! ) ) ) ( ( ) 2 (   ( ' : 0 0 , a , ; , ( ( p ) x ( ( ) 2 2 ) ) ) ) .   ' ' ' ' 8 < < 8 < 1 5 q 5 5 X X 5 5 X q 9.5 5 z.} u u ..k.q 5 h G p h : p S.p 8 < < p 6 4 6 6 i u -.+.j ).[ 1 | 1 5 z p ' ( : 2 ) ! ) : ) ++! ! ++! ++n _ =+_ _ { -+! ++) ) . n . ) ( ) ! ) ) ) ( ( ) 2 (   ( ' : 0 0 , a , ; , ( ( p ) x ( ( ) 2 2 ) ) ) ) .   ' ' ' ' 8 < < 8 < 1 5 q 5 5 X X 5 5 X q 9.5 5 z.} u u ..k.q 5 h G p h : p S.p 8 < < p 6 4 6 6 i u -.+.j ).[ 1 | 1 5 z p ' ( : 2 ) ! ) : ) ++! ! ++! ++n _ =+_ _ { -+! ++) ) . n . ) ( ) ! ) ) ) ( ( ) 2 ",
". ) ) @ ) ) g.) @ ) ! ) ) K ) ! ) ! ) 2 ) % ( ' Z 6 < , ' ( : ) ( x (   x ) ( 2 ( ) % ) ( ( ' ( d 0 8 , 8 < < z G 5 9.5 5 z.z.X h h h 4 5 5 X +.J.@.5 1 d z p G S.p p : p p d < 7 | 1 | k 7 ;+$.C $.$.u X 1 d % ) ) ) ) ! ! ! { n ++n ++n -+! ++++n ++! _ ! =+n . ) ) @ ) ) g.) @ ) ! ) ) K ) ! ) ! ) 2 ) % ( ' Z 6 < , ' ( : ) ( x (   x ) ( 2 ( ) % ) ( ( ' ( d 0 8 , 8 < < z G 5 9.5 5 z.z.X h h h 4 5 5 X +.J.@.5 1 d z p G S.p p : p p d < 7 | 1 | k 7 ;+$.C $.$.u X 1 d % ) ) ) ) ! ! ! { n ++n ++n -+! ++++n ++! _ ! =+n . ) ) @ ) ) g.) @ ) ! ) ) K ) ! ) ! ) 2 ) % ( ' Z 6 < , ' ( : ) ( x (   x ) ( 2 ( ) % ) ( ( ' ( d 0 8 , 8 < < z G 5 9.5 5 z.z.X h h h 4 5 5 X +.J.@.5 1 d z p G S.p p : p p d < 7 | 1 | k 7 ;+$.C $.$.u X 1 d % ) ) ) ) ! ! ! { n ++n ++n -+! ++++n ++! _ ! =+n . ) ) @ ) ) g.) @ ) ! ) ) K ) ! ",
"! ) ) ) ) ( ) ) ) n ! n { n _ c ! ) ! ! ) 2 ( 0 4 6 7 7 d ( 8 x x   2 x ( x ( ) ( ) ) ) &   &   ' 0 , 8 8 p 8 8 < G h h 4 h 4 h p G ` h 6 5 ).H -.>+>.4 < 4 < < p 8 p p < 8 , < < ; ; b [ i D j -.H u B., d ( ) @ @ { ~ ! n c ^ ! n ! n ! ! K n ) ! n n n ! ! ! ! ) ) ) ) ( ) ) ) n ! n { n _ c ! ) ! ! ) 2 ( 0 4 6 7 7 d ( 8 x x   2 x ( x ( ) ( ) ) ) &   &   ' 0 , 8 8 p 8 8 < G h h 4 h 4 h p G ` h 6 5 ).H -.>+>.4 < 4 < < p 8 p p < 8 , < < ; ; b [ i D j -.H u B., d ( ) @ @ { ~ ! n c ^ ! n ! n ! ! K n ) ! n n n ! ! ! ! ) ) ) ) ( ) ) ) n ! n { n _ c ! ) ! ! ) 2 ( 0 4 6 7 7 d ( 8 x x   2 x ( x ( ) ( ) ) ) &   &   ' 0 , 8 8 p 8 8 < G h h 4 h 4 h p G ` h 6 5 ).H -.>+>.4 < 4 < < p 8 p p < 8 , < < ; ; b [ i D j -.H u B., d ( ) @ @ { ~ ! n c ^ ! n ! n ! ! K n ) ! n n n ! ! ! ! ) ) ) ) ( ) ) ) n ! n { n _ c ",
"    ) 2   ) ! n ! @ n ] ~ _ ~ _ n _ c ! ! ) ( 7 0 6 6 1 4 , 8 : ' ( x ( x   x ) x 2 2 . ) . ) & ( ' ' , ' E d : 8 < < h < < ` ` p G < < B.6 [ H D.Q ,+H | z 1 < ' 8 < < 4 < 7 < | 4 1 1 7 b C >.[ 4 7 ; . . . . ) ! ~ _ c ~ ! n ) ! n n n ) n ) ) ) n ! ! K ) g.    ) 2   ) ! n ! @ n ] ~ _ ~ _ n _ c ! ! ) ( 7 0 6 6 1 4 , 8 : ' ( x ( x   x ) x 2 2 . ) . ) & ( ' ' , ' E d : 8 < < h < < ` ` p G < < B.6 [ H D.Q ,+H | z 1 < ' 8 < < 4 < 7 < | 4 1 1 7 b C >.[ 4 7 ; . . . . ) ! ~ _ c ~ ! n ) ! n n n ) n ) ) ) n ! ! K ) g.    ) 2   ) ! n ! @ n ] ~ _ ~ _ n _ c ! ! ) ( 7 0 6 6 1 4 , 8 : ' ( x ( x   x ) x 2 2 . ) . ) & ( ' ' , ' E d : 8 < < h < < ` ` p G < < B.6 [ H D.Q ,+H | z 1 < ' 8 < < 4 < 7 < | 4 1 1 7 b C >.[ 4 7 ; . . . . ) ! ~ _ c ~ ! n ) ! n n n ) n ) ) ) n ! ! K ) g.    ) 2   ) ! n ! @ n ] ~ _ ~ _ ",
"x x g.x g.y ! ! n { ] _ ] { _ { n _ ] _ @ @ ) ' b +.u j } < 7 ' : : ( x x 2 ) ) y ) ) ! @ 2 ( ( ( % ( ) ( ( : : ' 8 L < G p < p < < < 8 7 7 6 }.*.U ].C.u [ 7 4 , 4 J 7 1 1 4 Z b 1 6 +.U U } ; ; ; & & ( 9 ! @ @ ! ) @ ] n @ ) n @ ) ) ) ) ( g.) x )   )   x : x x g.x g.y ! ! n { ] _ ] { _ { n _ ] _ @ @ ) ' b +.u j } < 7 ' : : ( x x 2 ) ) y ) ) ! @ 2 ( ( ( % ( ) ( ( : : ' 8 L < G p < p < < < 8 7 7 6 }.*.U ].C.u [ 7 4 , 4 J 7 1 1 4 Z b 1 6 +.U U } ; ; ; & & ( 9 ! @ @ ! ) @ ] n @ ) n @ ) ) ) ) ( g.) x )   )   x : x x g.x g.y ! ! n { ] _ ] { _ { n _ ] _ @ @ ) ' b +.u j } < 7 ' : : ( x x 2 ) ) y ) ) ! @ 2 ( ( ( % ( ) ( ( : : ' 8 L < G p < p < < < 8 7 7 6 }.*.U ].C.u [ 7 4 , 4 J 7 1 1 4 Z b 1 6 +.U U } ; ; ; & & ( 9 ! @ @ ! ) @ ] n @ ) n @ ) ) ) ) ( g.) x )   )   x : x x g.x g.y ! ! n { ] _ ] { _ { ",
"x ) ) ) y ) ) ! n { _ ~ _ n { n ! n _ _ s ] @ 9 6 H }.[ 6 b 7 8 E : x   ( K y 2 ) ) ) ! . )   ( 9 2 . ) 2 x ' E : : p L < < p p p 8 W 7 4 D [ -.=.E.2.'+:.1 6 1 7 1 | 1 [ +.H Y +.H C 5 a 4 1 < d ( . ) 9 ) @ @ ] !   x ) ! ) ) ) ) ) ( ' : : 8 p : : : : :   ( x ) ) ) y ) ) ! n { _ ~ _ n { n ! n _ _ s ] @ 9 6 H }.[ 6 b 7 8 E : x   ( K y 2 ) ) ) ! . )   ( 9 2 . ) 2 x ' E : : p L < < p p p 8 W 7 4 D [ -.=.E.2.'+:.1 6 1 7 1 | 1 [ +.H Y +.H C 5 a 4 1 < d ( . ) 9 ) @ @ ] !   x ) ! ) ) ) ) ) ( ' : : 8 p : : : : :   ( x ) ) ) y ) ) ! n { _ ~ _ n { n ! n _ _ s ] @ 9 6 H }.[ 6 b 7 8 E : x   ( K y 2 ) ) ) ! . )   ( 9 2 . ) 2 x ' E : : p L < < p p p 8 W 7 4 D [ -.=.E.2.'+:.1 6 1 7 1 | 1 [ +.H Y +.H C 5 a 4 1 < d ( . ) 9 ) @ @ ] !   x ) ! ) ) ) ) ) ( ' : : 8 p : : : : :   ( x ) ) ) y ) ) ! n { _ ~ _ n { n ",
"K ! ! K ) ++! ! ! n { _ { _ ~ _ n _ _ _ ] _ @ . 7 $.6 | D b 7 , 8 x ( 2 K 2 K 2 ++2 ! 2 ! ) ( ( 2 ) . 2 2 ( : x ( : 8 p 8 ` < < ' < 1 1 [ j }.)+R.,._.K.o.$.}.D 1 D 6 j Y N U Q H } 6 < 4 < , . , ( 9 . . !   x .   ( : (   ( ( : ' : : : : E p E ' : ' ( (   ) K ! ! K ) ++! ! ! n { _ { _ ~ _ n _ _ _ ] _ @ . 7 $.6 | D b 7 , 8 x ( 2 K 2 K 2 ++2 ! 2 ! ) ( ( 2 ) . 2 2 ( : x ( : 8 p 8 ` < < ' < 1 1 [ j }.)+R.,._.K.o.$.}.D 1 D 6 j Y N U Q H } 6 < 4 < , . , ( 9 . . !   x .   ( : (   ( ( : ' : : : : E p E ' : ' ( (   ) K ! ! K ) ++! ! ! n { _ { _ ~ _ n _ _ _ ] _ @ . 7 $.6 | D b 7 , 8 x ( 2 K 2 K 2 ++2 ! 2 ! ) ( ( 2 ) . 2 2 ( : x ( : 8 p 8 ` < < ' < 1 1 [ j }.)+R.,._.K.o.$.}.D 1 D 6 j Y N U Q H } 6 < 4 < , . , ( 9 . . !   x .   ( : (   ( ( : ' : : : : E p E ' : ' ( (   ) K ! ! K ) ++! ! ! n { _ { _ ~ _ ",
"x K ! ! ! { _ n ! { ! { n { _ ] s 0.s _ s ] ! . ' } D !+i 7 = ' ' x   2 ) 2 g.y 2 K y ) ! ) ) x . . @ ! ) 2 ( 2 x x : p < 8 ` 8 < z X } u j '.2.t.{.d.*.*.t.$.D '.j j C >.>.C 1 < , d < , ' ' d )   x E : ( ( : : x (   : p : : L 8 E : ( x ( 2   2 ( x ) 2 ) ! x K ! ! ! { _ n ! { ! { n { _ ] s 0.s _ s ] ! . ' } D !+i 7 = ' ' x   2 ) 2 g.y 2 K y ) ! ) ) x . . @ ! ) 2 ( 2 x x : p < 8 ` 8 < z X } u j '.2.t.{.d.*.*.t.$.D '.j j C >.>.C 1 < , d < , ' ' d )   x E : ( ( : : x (   : p : : L 8 E : ( x ( 2   2 ( x ) 2 ) ! x K ! ! ! { _ n ! { ! { n { _ ] s 0.s _ s ] ! . ' } D !+i 7 = ' ' x   2 ) 2 g.y 2 K y ) ! ) ) x . . @ ! ) 2 ( 2 x x : p < 8 ` 8 < z X } u j '.2.t.{.d.*.*.t.$.D '.j j C >.>.C 1 < , d < , ' ' d )   x E : ( ( : : x (   : p : : L 8 E : ( x ( 2   2 ( x ) 2 ) ! x K ! ! ! { _ n ! { ! { n { _ ] ",
"! ++{ -+{ n { ! ++! n { _ { _ n _ _ _ _ _ _ !   ; 4 6 D 7 7 = e ( ' x ) y x 2 ! ! ! ! ! @ ! 2 ) ) @ ! . ( g.( ) ( : 8 G 8 < < z ' z 6 1 j.j _.L.~+{._.~+*.8.C D b u N >.C 7 l 0 ; ' ' ' ( ( ) 2 ) 2 ) ) ! ) ) (   ) ) )       ) x ) ! ) ! ) K y ) ! ) ! 2 ! ! 2 ! ++{ -+{ n { ! ++! n { _ { _ n _ _ _ _ _ _ !   ; 4 6 D 7 7 = e ( ' x ) y x 2 ! ! ! ! ! @ ! 2 ) ) @ ! . ( g.( ) ( : 8 G 8 < < z ' z 6 1 j.j _.L.~+{._.~+*.8.C D b u N >.C 7 l 0 ; ' ' ' ( ( ) 2 ) 2 ) ) ! ) ) (   ) ) )       ) x ) ! ) ! ) K y ) ! ) ! 2 ! ! 2 ! ++{ -+{ n { ! ++! n { _ { _ n _ _ _ _ _ _ !   ; 4 6 D 7 7 = e ( ' x ) y x 2 ! ! ! ! ! @ ! 2 ) ) @ ! . ( g.( ) ( : 8 G 8 < < z ' z 6 1 j.j _.L.~+{._.~+*.8.C D b u N >.C 7 l 0 ; ' ' ' ( ( ) 2 ) 2 ) ) ! ) ) (   ) ) )       ) x ) ! ) ! ) K y ) ! ) ! 2 ! ! 2 ! ++{ -+{ n { ! ++! n { _ { _ n ",
"! ++! ! _ { ! _ { n ! ! ! ! _ ^ _ _ {+_ _ ] ] ) 9 , 4 7 = = , & & ) ) . ) y ) K ! ! ! ! ) @ ) 2 2 @ ) ) ) 2 x ( : E G < G < < 4 h 1 7 7 j -._.<._.[.~+R.)+n.-.C >.-.} 6 a ; ; & ' ' ' ( ( 9 ( . ! ! ! ! ) 2 ) ) ) ) ) ! ) ) ) ) ! ! y ! o ! ! ! ! ++! ! ! ++! ! ! ++! ! _ { ! _ { n ! ! ! ! _ ^ _ _ {+_ _ ] ] ) 9 , 4 7 = = , & & ) ) . ) y ) K ! ! ! ! ) @ ) 2 2 @ ) ) ) 2 x ( : E G < G < < 4 h 1 7 7 j -._.<._.[.~+R.)+n.-.C >.-.} 6 a ; ; & ' ' ' ( ( 9 ( . ! ! ! ! ) 2 ) ) ) ) ) ! ) ) ) ) ! ! y ! o ! ! ! ! ++! ! ! ++! ! ! ++! ! _ { ! _ { n ! ! ! ! _ ^ _ _ {+_ _ ] ] ) 9 , 4 7 = = , & & ) ) . ) y ) K ! ! ! ! ) @ ) 2 2 @ ) ) ) 2 x ( : E G < G < < 4 h 1 7 7 j -._.<._.[.~+R.)+n.-.C >.-.} 6 a ; ; & ' ' ' ( ( 9 ( . ! ! ! ! ) 2 ) ) ) ) ) ! ) ) ) ) ! ! y ! o ! ! ! ! ++! ! ! ++! ! ! ++! ! _ { ! _ { n ! ! ! ! _ ^ ",
"++n { _ { n ! ! _ ! K K ) ! { ] _ _ _ _ s _ ] ! . d d l ; 0 & & ) @ @ ! ) ! ! 2 ! ! ! @ ! ! ( ( ) ) @ ! 2   x ( 8 p 8 < < < < , 7 4 1 1 '.$._.R.[.~+_._.,.8.]+*.U i d * ' ' & @ 9 (   2   ) ! . ! ~ ! ! ) ! ) ! ) @ c n ! n n _ ! ++! ++! ! _ { { ! { ! ! ! ! ++++n { _ { n ! ! _ ! K K ) ! { ] _ _ _ _ s _ ] ! . d d l ; 0 & & ) @ @ ! ) ! ! 2 ! ! ! @ ! ! ( ( ) ) @ ! 2   x ( 8 p 8 < < < < , 7 4 1 1 '.$._.R.[.~+_._.,.8.]+*.U i d * ' ' & @ 9 (   2   ) ! . ! ~ ! ! ) ! ) ! ) @ c n ! n n _ ! ++! ++! ! _ { { ! { ! ! ! ! ++++n { _ { n ! ! _ ! K K ) ! { ] _ _ _ _ s _ ] ! . d d l ; 0 & & ) @ @ ! ) ! ! 2 ! ! ! @ ! ! ( ( ) ) @ ! 2   x ( 8 p 8 < < < < , 7 4 1 1 '.$._.R.[.~+_._.,.8.]+*.U i d * ' ' & @ 9 (   2   ) ! . ! ~ ! ! ) ! ) ! ) @ c n ! n n _ ! ++! ++! ! _ { { ! { ! ! ! ! ++++n { _ { n ! ! _ ! K K ) ! { ] ",
"{ -+{ _ _ { n ! ++! ! { ! ! n ! ~ _ ] _ _ _ ] ) @ 9 9 & 9 & & @ ( ) @ ) @ @ ] ! ~ { ] { @ ) ) ( ) 2 ) . ) 2 x : : 8 G < < < ` , p 1 6 [ j -.*.,.^+[.-.d.C '+@.Y 7 ' ' , ' ( ( . . . ) ) ) ! @ n ] { ! ! ) ! @ c @ _ c ] ] ] ] ] n ++! ! -+{ _ _ _ _ ! _ ++{ -+! { -+{ _ _ { n ! ++! ! { ! ! n ! ~ _ ] _ _ _ ] ) @ 9 9 & 9 & & @ ( ) @ ) @ @ ] ! ~ { ] { @ ) ) ( ) 2 ) . ) 2 x : : 8 G < < < ` , p 1 6 [ j -.*.,.^+[.-.d.C '+@.Y 7 ' ' , ' ( ( . . . ) ) ) ! @ n ] { ! ! ) ! @ c @ _ c ] ] ] ] ] n ++! ! -+{ _ _ _ _ ! _ ++{ -+! { -+{ _ _ { n ! ++! ! { ! ! n ! ~ _ ] _ _ _ ] ) @ 9 9 & 9 & & @ ( ) @ ) @ @ ] ! ~ { ] { @ ) ) ( ) 2 ) . ) 2 x : : 8 G < < < ` , p 1 6 [ j -.*.,.^+[.-.d.C '+@.Y 7 ' ' , ' ( ( . . . ) ) ) ! @ n ] { ! ! ) ! @ c @ _ c ] ] ] ] ] n ++! ! -+{ _ _ _ _ ! _ ++{ -+! { -+{ _ _ { n ! ++! ! { ! ! n ! ",
"! { _ ! _ { ! ! ! n ! _ ] c ! n ] ] s ^ _ ^ ^.] c c . . . % . @ & @ c @ @ ] ~ c ! @ ] @ @ ! ) (   . ) . ) ( ' : 8 8 4 z < 7 < < 6 5 6 j u *.d.-.'.7.D =.o.'+6 7 0 ( ( ' @ c . ! ) @ ) ! @ n c { ] _ ! ! ) n ! ] c ] ] _ ] _ ] _ ! n n n _ n { n ! n ! -+! n ! n ! { _ ! _ { ! ! ! n ! _ ] c ! n ] ] s ^ _ ^ ^.] c c . . . % . @ & @ c @ @ ] ~ c ! @ ] @ @ ! ) (   . ) . ) ( ' : 8 8 4 z < 7 < < 6 5 6 j u *.d.-.'.7.D =.o.'+6 7 0 ( ( ' @ c . ! ) @ ) ! @ n c { ] _ ! ! ) n ! ] c ] ] _ ] _ ] _ ! n n n _ n { n ! n ! -+! n ! n ! { _ ! _ { ! ! ! n ! _ ] c ! n ] ] s ^ _ ^ ^.] c c . . . % . @ & @ c @ @ ] ~ c ! @ ] @ @ ! ) (   . ) . ) ( ' : 8 8 4 z < 7 < < 6 5 6 j u *.d.-.'.7.D =.o.'+6 7 0 ( ( ' @ c . ! ) @ ) ! @ n c { ] _ ! ! ) n ! ] c ] ] _ ] _ ] _ ! n n n _ n { n ! n ! -+! n ! n ! { _ ! _ { ! ! ! n ! _ ] c ! n ",
"n ! ! _ ! ! n ! _ ! ! ! ) ! ! ] { ] ] { _ _ _ n n c c c . . ! @ c @ @ @ . ) ) @ ) ! @ _ ~ ) 2 ) ( ( . 2 ) ( : E p < 5 z 4 7 < 1 4 1 X j $.*.,.)+*.<.t.C.C 6 , ' : ( ) ) c @ ! @ c ! @ ) c ! @ _ ! ! n ! ! ! @ ] ] c _ ] ] ^ _ _ n { n { n { n n ! n ! K ) K n ! n ! ! _ ! ! n ! _ ! ! ! ) ! ! ] { ] ] { _ _ _ n n c c c . . ! @ c @ @ @ . ) ) @ ) ! @ _ ~ ) 2 ) ( ( . 2 ) ( : E p < 5 z 4 7 < 1 4 1 X j $.*.,.)+*.<.t.C.C 6 , ' : ( ) ) c @ ! @ c ! @ ) c ! @ _ ! ! n ! ! ! @ ] ] c _ ] ] ^ _ _ n { n { n { n n ! n ! K ) K n ! n ! ! _ ! ! n ! _ ! ! ! ) ! ! ] { ] ] { _ _ _ n n c c c . . ! @ c @ @ @ . ) ) @ ) ! @ _ ~ ) 2 ) ( ( . 2 ) ( : E p < 5 z 4 7 < 1 4 1 X j $.*.,.)+*.<.t.C.C 6 , ' : ( ) ) c @ ! @ c ! @ ) c ! @ _ ! ! n ! ! ! @ ] ] c _ ] ] ^ _ _ n { n { n { n n ! n ! K ) K n ! n ! ! _ ! ! n ! _ ! ! ! ) ! ! ] ",
"! ! ! ++! ! ! n @ n ) ) ) ! c @ ! ~ { n K ! n ) n c . c @ ! ! ) @ 9 ( . ) : ( ) 2 ) ! @ ) ) ) ( .   ( . ) ( ' p 8 < z 4 1 < | 4 d 1 u u $.,.8.].m./+'.k , i , & ) ! n ) ! ! ) ] ! n ! ! ! n ! ] ! ! ! ! n c ] ] ] ] ] _ ^._ _ _ ] n ! n ! ) ) ! ) K ) ) ) ! ) n ! ! ! ++! ! ! n @ n ) ) ) ! c @ ! ~ { n K ! n ) n c . c @ ! ! ) @ 9 ( . ) : ( ) 2 ) ! @ ) ) ) ( .   ( . ) ( ' p 8 < z 4 1 < | 4 d 1 u u $.,.8.].m./+'.k , i , & ) ! n ) ! ! ) ] ! n ! ! ! n ! ] ! ! ! ! n c ] ] ] ] ] _ ^._ _ _ ] n ! n ! ) ) ! ) K ) ) ) ! ) n ! ! ! ++! ! ! n @ n ) ) ) ! c @ ! ~ { n K ! n ) n c . c @ ! ! ) @ 9 ( . ) : ( ) 2 ) ! @ ) ) ) ( .   ( . ) ( ' p 8 < z 4 1 < | 4 d 1 u u $.,.8.].m./+'.k , i , & ) ! n ) ! ! ) ] ! n ! ! ! n ! ] ! ! ! ! n c ] ] ] ] ] _ ^._ _ _ ] n ! n ! ) ) ! ) K ) ) ) ! ) n ! ! ! ++! ! ! n @ n ) ) ) ! c @ ",
"! ++) K ! ! n ! _ ~ _ ] _ _ n ~ n ~ ] ! ! ! n ! c ! c ! ! ~ ! ! ( ' p ( ' 8 8 2 : ( ) @ ) . 2   ) ( 9 (   ( ' 8 8 < < h < 4 < , [ 4 6 u =.8.(+5.'.6 = 1 d & . ) ) ! K n ^ 0.! ! ! ) c ) @ ! c ! n ! n ! n ~ _ ] 0.] ] _ ^ ] _ ! _ c ! ) g.  K ) ) ) K ) K ) ! n ! ++) K ! ! n ! _ ~ _ ] _ _ n ~ n ~ ] ! ! ! n ! c ! c ! ! ~ ! ! ( ' p ( ' 8 8 2 : ( ) @ ) . 2   ) ( 9 (   ( ' 8 8 < < h < 4 < , [ 4 6 u =.8.(+5.'.6 = 1 d & . ) ) ! K n ^ 0.! ! ! ) c ) @ ! c ! n ! n ! n ~ _ ] 0.] ] _ ^ ] _ ! _ c ! ) g.  K ) ) ) K ) K ) ! n ! ++) K ! ! n ! _ ~ _ ] _ _ n ~ n ~ ] ! ! ! n ! c ! c ! ! ~ ! ! ( ' p ( ' 8 8 2 : ( ) @ ) . 2   ) ( 9 (   ( ' 8 8 < < h < 4 < , [ 4 6 u =.8.(+5.'.6 = 1 d & . ) ) ! K n ^ 0.! ! ! ) c ) @ ! c ! n ! n ! n ~ _ ] 0.] ] _ ^ ] _ ! _ c ! ) g.  K ) ) ) K ) K ) ! n ! ++) K ! ! n ! _ ~ _ ] _ _ n ~ ",
") ! ! n ! n { ] ! _ ! { ] ^ { ! { @ ! ! { n ! ) ) ) ) ! c n ! ! @ ] % : ' ' E ( % 2 ( ( 2 . ) % & . ( ( &   ' p 8 < z q.p p 5 < 5 D i $.>.:.+.Q 5 4 d ' (   ) c ! ! ! { _ ] ] _ @ @ ! ) . . @ ! ! _ ! ! _ _ ] ^ ^ ^ s ] ^ _ ^ _ ) ) g.( K ) ) ) ) ) ) ) ) )     ) ! ! n ! n { ] ! _ ! { ] ^ { ! { @ ! ! { n ! ) ) ) ) ! c n ! ! @ ] % : ' ' E ( % 2 ( ( 2 . ) % & . ( ( &   ' p 8 < z q.p p 5 < 5 D i $.>.:.+.Q 5 4 d ' (   ) c ! ! ! { _ ] ] _ @ @ ! ) . . @ ! ! _ ! ! _ _ ] ^ ^ ^ s ] ^ _ ^ _ ) ) g.( K ) ) ) ) ) ) ) ) )     ) ! ! n ! n { ] ! _ ! { ] ^ { ! { @ ! ! { n ! ) ) ) ) ! c n ! ! @ ] % : ' ' E ( % 2 ( ( 2 . ) % & . ( ( &   ' p 8 < z q.p p 5 < 5 D i $.>.:.+.Q 5 4 d ' (   ) c ! ! ! { _ ] ] _ @ @ ! ) . . @ ! ! _ ! ! _ _ ] ^ ^ ^ s ] ^ _ ^ _ ) ) g.( K ) ) ) ) ) ) ) ) )     ) ! ! n ! n { ] ! _ ! { ] ^ { ! ",
") ) ) ! ! ! ! ! ] _ ] { _ s s ] ! @ ! @ @ ! ) ) ( ) ! ! { c ! ) @ # @ ( & ( 0 % ( % % 2 % . o   ( ( ' ' : ' 8 < h ` 8 q.9.h 5 p 6 j '.N _+U H B 1 < ' ( g.) n ! n ! n { _ ] { ] ) ) 9 ( ' ) . . ) ! ! ] ! ] { ] ] _ ] _ ] _ ] ! ) 2 g.x : x x x x )   )   ) ) ) ) ) ) ! ! ! ! ! ] _ ] { _ s s ] ! @ ! @ @ ! ) ) ( ) ! ! { c ! ) @ # @ ( & ( 0 % ( % % 2 % . o   ( ( ' ' : ' 8 < h ` 8 q.9.h 5 p 6 j '.N _+U H B 1 < ' ( g.) n ! n ! n { _ ] { ] ) ) 9 ( ' ) . . ) ! ! ] ! ] { ] ] _ ] _ ] _ ] ! ) 2 g.x : x x x x )   )   ) ) ) ) ) ) ! ! ! ! ! ] _ ] { _ s s ] ! @ ! @ @ ! ) ) ( ) ! ! { c ! ) @ # @ ( & ( 0 % ( % % 2 % . o   ( ( ' ' : ' 8 < h ` 8 q.9.h 5 p 6 j '.N _+U H B 1 < ' ( g.) n ! n ! n { _ ] { ] ) ) 9 ( ' ) . . ) ! ! ] ! ] { ] ] _ ] _ ] _ ] ! ) 2 g.x : x x x x )   )   ) ) ) ) ) ) ! ! ! ! ! ] _ ] { _ s s ] ",
"2 ) ! ! ! @ _ ~ { { ] { ~ { ] s ! ! ! ! ! ) 2 x x ( ) @ ] ] ! ) ) + ] % ( ( 0 % % . % . ) @ ) ( ( ( ' ' , : 8 < 5 9.5 X X G 5 5 '.'.:+Z.#.H u 7 < '   (   ) n ! _ { _ ] ] ] _ @ ) 2 ( ' ' ( . ) ) ) ! ) n ] ] ^ ] ] { ] ] { c ! ) ) x : x : ' : : x ( x   ) . ) 2 ) ! ! ! @ _ ~ { { ] { ~ { ] s ! ! ! ! ! ) 2 x x ( ) @ ] ] ! ) ) + ] % ( ( 0 % % . % . ) @ ) ( ( ( ' ' , : 8 < 5 9.5 X X G 5 5 '.'.:+Z.#.H u 7 < '   (   ) n ! _ { _ ] ] ] _ @ ) 2 ( ' ' ( . ) ) ) ! ) n ] ] ^ ] ] { ] ] { c ! ) ) x : x : ' : : x ( x   ) . ) 2 ) ! ! ! @ _ ~ { { ] { ~ { ] s ! ! ! ! ! ) 2 x x ( ) @ ] ] ! ) ) + ] % ( ( 0 % % . % . ) @ ) ( ( ( ' ' , : 8 < 5 9.5 X X G 5 5 '.'.:+Z.#.H u 7 < '   (   ) n ! _ { _ ] ] ] _ @ ) 2 ( ' ' ( . ) ) ) ! ) n ] ] ^ ] ] { ] ] { c ! ) ) x : x : ' : : x ( x   ) . ) 2 ) ! ! ! @ _ ~ { { ] { ~ { ] s ",
"( ) ) @ c ! { ] ! ] { ] _ ! ! ~ { @ ! ! ! ) ( : x ( ) ! n @ ) ) ( @ @ % ( & ( ( % % @ . f @ )   ( 9 ' E ' ' 8 < < r B r X 4 X u i D m.C.H +.$.` , '   ) ) ! n ! _ _ ] s ^ { c ! ! ) ) ' : ( . . @ ! n ! ~ _ ^ ] ] _ c ~ n ] ! n ! )   x   K ( g.( ) g.( : ( ( : ( ) ) @ c ! { ] ! ] { ] _ ! ! ~ { @ ! ! ! ) ( : x ( ) ! n @ ) ) ( @ @ % ( & ( ( % % @ . f @ )   ( 9 ' E ' ' 8 < < r B r X 4 X u i D m.C.H +.$.` , '   ) ) ! n ! _ _ ] s ^ { c ! ! ) ) ' : ( . . @ ! n ! ~ _ ^ ] ] _ c ~ n ] ! n ! )   x   K ( g.( ) g.( : ( ( : ( ) ) @ c ! { ] ! ] { ] _ ! ! ~ { @ ! ! ! ) ( : x ( ) ! n @ ) ) ( @ @ % ( & ( ( % % @ . f @ )   ( 9 ' E ' ' 8 < < r B r X 4 X u i D m.C.H +.$.` , '   ) ) ! n ! _ _ ] s ^ { c ! ! ) ) ' : ( . . @ ! n ! ~ _ ^ ] ] _ c ~ n ] ! n ! )   x   K ( g.( ) g.( : ( ( : ( ) ) @ c ! { ] ! ] { ] _ ! ! ~ ",
"( ) ) ! ! @ @ ! @ ! ] ^ ~ ! ! { { { @ { ! ! x : ( 2 ) 2 . ) @ . . % & 2 & & % & % . f ) . ) ) 2 (   ( ' 8 ' , 8 , [ } H H '.[ j *.'+m.-.C u , < ' ' ) ) ) _ ] _ ] ^ ^ ] _ ] { c ~ ~ ) ( ' ( ) ) ! n @ ] n ] ] ] _ ] { c ] ! c ! ) ) K ) x ) g.2 g.( ( : : : : : ( ) ) ! ! @ @ ! @ ! ] ^ ~ ! ! { { { @ { ! ! x : ( 2 ) 2 . ) @ . . % & 2 & & % & % . f ) . ) ) 2 (   ( ' 8 ' , 8 , [ } H H '.[ j *.'+m.-.C u , < ' ' ) ) ) _ ] _ ] ^ ^ ] _ ] { c ~ ~ ) ( ' ( ) ) ! n @ ] n ] ] ] _ ] { c ] ! c ! ) ) K ) x ) g.2 g.( ( : : : : : ( ) ) ! ! @ @ ! @ ! ] ^ ~ ! ! { { { @ { ! ! x : ( 2 ) 2 . ) @ . . % & 2 & & % & % . f ) . ) ) 2 (   ( ' 8 ' , 8 , [ } H H '.[ j *.'+m.-.C u , < ' ' ) ) ) _ ] _ ] ^ ^ ] _ ] { c ~ ~ ) ( ' ( ) ) ! n @ ] n ] ] ] _ ] { c ] ! c ! ) ) K ) x ) g.2 g.( ( : : : : : ( ) ) ! ! @ @ ! @ ! ] ^ ~ ! ! { ",
": ( 2 ( ) ( ) ) ! ) @ ] ] ! @ _ ~ ] { ] ~ ! ( x   2 ) . ) ) ) @ . . ( % & $ $ % & % . . ( . . . ) ) ( ( ' ( ' d 4 7 6 *.Q j -.3.w. +*.Q 6 6 ; ' ' ( ( K n _ ] _ s _ ^ _ ] _ @ n ] ] @ ( : '   2 c ! c { ] ] _ ] ~ ] ! n ~ n ! ! ! ) 2 K   y   ( : g.x : : ( T.' : ( 2 ( ) ( ) ) ! ) @ ] ] ! @ _ ~ ] { ] ~ ! ( x   2 ) . ) ) ) @ . . ( % & $ $ % & % . . ( . . . ) ) ( ( ' ( ' d 4 7 6 *.Q j -.3.w. +*.Q 6 6 ; ' ' ( ( K n _ ] _ s _ ^ _ ] _ @ n ] ] @ ( : '   2 c ! c { ] ] _ ] ~ ] ! n ~ n ! ! ! ) 2 K   y   ( : g.x : : ( T.' : ( 2 ( ) ( ) ) ! ) @ ] ] ! @ _ ~ ] { ] ~ ! ( x   2 ) . ) ) ) @ . . ( % & $ $ % & % . . ( . . . ) ) ( ( ' ( ' d 4 7 6 *.Q j -.3.w. +*.Q 6 6 ; ' ' ( ( K n _ ] _ s _ ^ _ ] _ @ n ] ] @ ( : '   2 c ! c { ] ] _ ] ~ ] ! n ~ n ! ! ! ) 2 K   y   ( : g.x : : ( T.' : ( 2 ( ) ( ) ) ! ) @ ] ] ! @ _ ",
"( (   2 ( ( x ( ( E x ) @ ! @ @ ! { ~ { ] ! x E ( ) ) ) . . . . . e & & 0 % V @ & 2 . ( . ) @ c @ @ @ 2   & ; , | b C *.2._.E.m.8.3.*.'.j l r , ' ( ) ) ) { _ ~ ] ] { ] ! ! ] _ ~ ] @ x d E ' ( @ ! { ] ~ ] m ] ^ _ ~ ] { ] ! ! n ! ) ) K ( x x : ( : : :   (   ( (   2 ( ( x ( ( E x ) @ ! @ @ ! { ~ { ] ! x E ( ) ) ) . . . . . e & & 0 % V @ & 2 . ( . ) @ c @ @ @ 2   & ; , | b C *.2._.E.m.8.3.*.'.j l r , ' ( ) ) ) { _ ~ ] ] { ] ! ! ] _ ~ ] @ x d E ' ( @ ! { ] ~ ] m ] ^ _ ~ ] { ] ! ! n ! ) ) K ( x x : ( : : :   (   ( (   2 ( ( x ( ( E x ) @ ! @ @ ! { ~ { ] ! x E ( ) ) ) . . . . . e & & 0 % V @ & 2 . ( . ) @ c @ @ @ 2   & ; , | b C *.2._.E.m.8.3.*.'.j l r , ' ( ) ) ) { _ ~ ] ] { ] ! ! ] _ ~ ] @ x d E ' ( @ ! { ] ~ ] m ] ^ _ ~ ] { ] ! ! n ! ) ) K ( x x : ( : : :   (   ( (   2 ( ( x ( ( E x ) @ ! @ @ ",
"( ( 2   2 ( E : E L 8 : 2 2 ) ~ ! ! ! ! ! 2 x p ( ) @ @ . )   ( ( ' * ( , & / $ & & . 9 ( . c c c @ . ( ' ' , 7 = ;+2.N h.o.<+L.n.].3.$.k 6 & h ( (   K ! c _ { ] s ] _ @ n ! ] c ~ c ( : ' ( 2 ) ! ! _ m _ ^ ] ^ ^ ^ ^ ^ ^ ^ ] ] n ! ) ) x   : x     : : ( )   ( ( 2   2 ( E : E L 8 : 2 2 ) ~ ! ! ! ! ! 2 x p ( ) @ @ . )   ( ( ' * ( , & / $ & & . 9 ( . c c c @ . ( ' ' , 7 = ;+2.N h.o.<+L.n.].3.$.k 6 & h ( (   K ! c _ { ] s ] _ @ n ! ] c ~ c ( : ' ( 2 ) ! ! _ m _ ^ ] ^ ^ ^ ^ ^ ^ ^ ] ] n ! ) ) x   : x     : : ( )   ( ( 2   2 ( E : E L 8 : 2 2 ) ~ ! ! ! ! ! 2 x p ( ) @ @ . )   ( ( ' * ( , & / $ & & . 9 ( . c c c @ . ( ' ' , 7 = ;+2.N h.o.<+L.n.].3.$.k 6 & h ( (   K ! c _ { ] s ] _ @ n ! ] c ~ c ( : ' ( 2 ) ! ! _ m _ ^ ] ^ ^ ^ ^ ^ ^ ^ ] ] n ! ) ) x   : x     : : ( )   ( ( 2   2 ( E : E L 8 : 2 2 ) ~ ",
". . . . ! . 2 ( ( ' ( ' ( ( ( ) ] { @ { ) x ' ) 2   . ) . ) 9 ( d , 0 , , 0 3 [+& }+9 . 9 . . . @ g @ & ' ; ; 7 b [ '.|+L.M.e.d.-.2._.$.u 7 4 ( ' x 2 ) ! { _ ] _ ~ n ] ^ ] ] ~ ! @ ! ) ' : (   ) ! @ { ] ~ ^ ^ ~ ] ^ ] ~ ] ~ ^ ! ] ! n ) ) ) ) ( ) ) (   )   ( . . . . ! . 2 ( ( ' ( ' ( ( ( ) ] { @ { ) x ' ) 2   . ) . ) 9 ( d , 0 , , 0 3 [+& }+9 . 9 . . . @ g @ & ' ; ; 7 b [ '.|+L.M.e.d.-.2._.$.u 7 4 ( ' x 2 ) ! { _ ] _ ~ n ] ^ ] ] ~ ! @ ! ) ' : (   ) ! @ { ] ~ ^ ^ ~ ] ^ ] ~ ] ~ ^ ! ] ! n ) ) ) ) ( ) ) (   )   ( . . . . ! . 2 ( ( ' ( ' ( ( ( ) ] { @ { ) x ' ) 2   . ) . ) 9 ( d , 0 , , 0 3 [+& }+9 . 9 . . . @ g @ & ' ; ; 7 b [ '.|+L.M.e.d.-.2._.$.u 7 4 ( ' x 2 ) ! { _ ] _ ~ n ] ^ ] ] ~ ! @ ! ) ' : (   ) ! @ { ] ~ ^ ^ ~ ] ^ ] ~ ] ~ ^ ! ] ! n ) ) ) ) ( ) ) (   )   ( . . . . ! . 2 ( ( ' ( ' ( ( ( ) ",
"! . 2 @ @ . %   ( ( ( 2 ( ) ( ( @ o ) @ . x : y (   2 .     ( ' d 0 ' & , , ; w & 0 ; ; & & g . $ @   ; & & 7 6 6 {.*.M.n.*.[.2.}.-.H -.[ 7 < ( ( 2 ) ! n { ] _ ] _ ] ] ^ ^ ] ] ] ] @ . ) (   2 @ { ! @ { ] ^ ^ ^ ^ ^ ^ ^ s ] ^ ] ] ] ! ! ) ! ) ) ) ! )   ) ) ) ! . 2 @ @ . %   ( ( ( 2 ( ) ( ( @ o ) @ . x : y (   2 .     ( ' d 0 ' & , , ; w & 0 ; ; & & g . $ @   ; & & 7 6 6 {.*.M.n.*.[.2.}.-.H -.[ 7 < ( ( 2 ) ! n { ] _ ] _ ] ] ^ ^ ] ] ] ] @ . ) (   2 @ { ! @ { ] ^ ^ ^ ^ ^ ^ ^ s ] ^ ] ] ] ! ! ) ! ) ) ) ! )   ) ) ) ! . 2 @ @ . %   ( ( ( 2 ( ) ( ( @ o ) @ . x : y (   2 .     ( ' d 0 ' & , , ; w & 0 ; ; & & g . $ @   ; & & 7 6 6 {.*.M.n.*.[.2.}.-.H -.[ 7 < ( ( 2 ) ! n { ] _ ] _ ] ] ^ ^ ] ] ] ] @ . ) (   2 @ { ! @ { ] ^ ^ ^ ^ ^ ^ ^ s ] ^ ] ] ] ! ! ) ! ) ) ) ! )   ) ) ) ! . 2 @ @ . %   ( ( ( 2 ( ) ( ( ",
". ! ) . ) . )   . ) . . . .   ) 2 ) 2 ! 2 : ' ( : ( ( x ( ' : : ' ' & & 0 7 , * 7 = & 9 A . 3 . g 3 % & ' 7 b b -.>.N *.'.}.1+2+[ {.(.H 6 7 p (   ) 2 ! ~ @ ] ~ ^ ] ^ ^ ^.^ ] ] ] ~ ^ ! ) 2   2 n @ ] ~ ] ~ ] ~ ] ^ # ^ ] ~ ] ^ ] ^ ] ] n ! @ c ! ! ) ! @ ) ) ) . ! ) . ) . )   . ) . . . .   ) 2 ) 2 ! 2 : ' ( : ( ( x ( ' : : ' ' & & 0 7 , * 7 = & 9 A . 3 . g 3 % & ' 7 b b -.>.N *.'.}.1+2+[ {.(.H 6 7 p (   ) 2 ! ~ @ ] ~ ^ ] ^ ^ ^.^ ] ] ] ~ ^ ! ) 2   2 n @ ] ~ ] ~ ] ~ ] ^ # ^ ] ~ ] ^ ] ^ ] ] n ! @ c ! ! ) ! @ ) ) ) . ! ) . ) . )   . ) . . . .   ) 2 ) 2 ! 2 : ' ( : ( ( x ( ' : : ' ' & & 0 7 , * 7 = & 9 A . 3 . g 3 % & ' 7 b b -.>.N *.'.}.1+2+[ {.(.H 6 7 p (   ) 2 ! ~ @ ] ~ ^ ] ^ ^ ^.^ ] ] ] ~ ^ ! ) 2   2 n @ ] ~ ] ~ ] ~ ] ^ # ^ ] ~ ] ^ ] ^ ] ] n ! @ c ! ! ) ! @ ) ) ) . ! ) . ) . )   . ) . . . .   ) ",
"2 ) ) @ ) . . 2 . %   (   % . .   2 ( )   : E : : : : p : : ( : ( ( ( ' d , , , , ; ; ; & > & 9 A , < l 0 [ Y >.U Q D k D b 7 D [ }.u Q 1 d ( ( ( 2 ) ! ! c ! ~ ] ^ ^ ] ^ a.^ # ^ ] ] ~ ) ) ( ) ~ @ { c ~ ] ] ] ~ ] ^ # ^ # ~ ] ^ ] ] _ @ n ! ] ] . ! @ c (   . 2 ) ) @ ) . . 2 . %   (   % . .   2 ( )   : E : : : : p : : ( : ( ( ( ' d , , , , ; ; ; & > & 9 A , < l 0 [ Y >.U Q D k D b 7 D [ }.u Q 1 d ( ( ( 2 ) ! ! c ! ~ ] ^ ^ ] ^ a.^ # ^ ] ] ~ ) ) ( ) ~ @ { c ~ ] ] ] ~ ] ^ # ^ # ~ ] ^ ] ] _ @ n ! ] ] . ! @ c (   . 2 ) ) @ ) . . 2 . %   (   % . .   2 ( )   : E : : : : p : : ( : ( ( ( ' d , , , , ; ; ; & > & 9 A , < l 0 [ Y >.U Q D k D b 7 D [ }.u Q 1 d ( ( ( 2 ) ! ! c ! ~ ] ^ ^ ] ^ a.^ # ^ ] ] ~ ) ) ( ) ~ @ { c ~ ] ] ] ~ ] ^ # ^ # ~ ] ^ ] ] _ @ n ! ] ] . ! @ c (   . 2 ) ) @ ) . . 2 . %   (   % . . ",
") @ ) ! . 2 ) )   ) & ) &   ( ( ( ' ' ( ' 0 p < 8 8 : E x   g.)   (   ( ' , , a > > = b = l ; > 7 l ; 7 =.3+U 6 7 | 7 , 7 , l 6 D u ).Q 1 ' ( ( ) 2 ) ) @ @ c @ ^ ] ^.^ # ] a.^ ] # ] ~ ) 2 ) ) ~ ] ] ~ ] ~ ~ ] ~ # ] ~ ] ~ ] ] ] ] ] { n ! @ n ] ! c n @ ) ) ) ) @ ) ! . 2 ) )   ) & ) &   ( ( ( ' ' ( ' 0 p < 8 8 : E x   g.)   (   ( ' , , a > > = b = l ; > 7 l ; 7 =.3+U 6 7 | 7 , 7 , l 6 D u ).Q 1 ' ( ( ) 2 ) ) @ @ c @ ^ ] ^.^ # ] a.^ ] # ] ~ ) 2 ) ) ~ ] ] ~ ] ~ ~ ] ~ # ] ~ ] ~ ] ] ] ] ] { n ! @ n ] ! c n @ ) ) ) ) @ ) ! . 2 ) )   ) & ) &   ( ( ( ' ' ( ' 0 p < 8 8 : E x   g.)   (   ( ' , , a > > = b = l ; > 7 l ; 7 =.3+U 6 7 | 7 , 7 , l 6 D u ).Q 1 ' ( ( ) 2 ) ) @ @ c @ ^ ] ^.^ # ] a.^ ] # ] ~ ) 2 ) ) ~ ] ] ~ ] ~ ~ ] ~ # ] ~ ] ~ ] ] ] ] ] { n ! @ n ] ! c n @ ) ) ) ) @ ) ! . 2 ) )   ) & ) &   ( ( ",
") ! @ 2 ) ) ) . ( ( ) . ) ' : , 8 ' 8 0 p 8 < G ( : x ( ) ) ) ! (   . 9 & ' 7 6 6 , b 1 l > = l M j Q :+$.[ 7 & 3 7 4 9 ' 7 4 d 6 [ } ..5 d ( 2 ( 2 ) @ ! ] @ ] ] ^ # ] ^.] ^ ^ # ^ ] ] @ ) ! @ ~ ] ~ ] ^ ] ] ~ ] ~ ^ # ] ] ~ ] { ] _ @ c ! ! @ ] c ! ~ c ) ) @ ) ! @ 2 ) ) ) . ( ( ) . ) ' : , 8 ' 8 0 p 8 < G ( : x ( ) ) ) ! (   . 9 & ' 7 6 6 , b 1 l > = l M j Q :+$.[ 7 & 3 7 4 9 ' 7 4 d 6 [ } ..5 d ( 2 ( 2 ) @ ! ] @ ] ] ^ # ] ^.] ^ ^ # ^ ] ] @ ) ! @ ~ ] ~ ] ^ ] ] ~ ] ~ ^ # ] ] ~ ] { ] _ @ c ! ! @ ] c ! ~ c ) ) @ ) ! @ 2 ) ) ) . ( ( ) . ) ' : , 8 ' 8 0 p 8 < G ( : x ( ) ) ) ! (   . 9 & ' 7 6 6 , b 1 l > = l M j Q :+$.[ 7 & 3 7 4 9 ' 7 4 d 6 [ } ..5 d ( 2 ( 2 ) @ ! ] @ ] ] ^ # ] ^.] ^ ^ # ^ ] ] @ ) ! @ ~ ] ~ ] ^ ] ] ~ ] ~ ^ # ] ] ~ ] { ] _ @ c ! ! @ ] c ! ~ c ) ) @ ) ! @ 2 ) ) ) . ( ( ) . ) ' : , ",
") ) ! ) ) 2   ) '   ( ' ( ' d p ' , p ' ' ' : 8 (   2 ) ! ! ! c ) ) 9 ( ( ; 7 j u D '.C 2+b '.C *.=.-.D 7 = 7 W b . $ d ' ( ' < B.6 u ..+.' : 2   y ) ) @ @ g ] ] a.^ # ] # ^.# ] ^ ~ @ ) ! @ c ~ ] ~ ^ / ^ ~ ] ~ ^ + m ] ~ ] m c ] ] ] _ @ c ! c ~ ] ) ! c . ) ) ) ! ) ) 2   ) '   ( ' ( ' d p ' , p ' ' ' : 8 (   2 ) ! ! ! c ) ) 9 ( ( ; 7 j u D '.C 2+b '.C *.=.-.D 7 = 7 W b . $ d ' ( ' < B.6 u ..+.' : 2   y ) ) @ @ g ] ] a.^ # ] # ^.# ] ^ ~ @ ) ! @ c ~ ] ~ ^ / ^ ~ ] ~ ^ + m ] ~ ] m c ] ] ] _ @ c ! c ~ ] ) ! c . ) ) ) ! ) ) 2   ) '   ( ' ( ' d p ' , p ' ' ' : 8 (   2 ) ! ! ! c ) ) 9 ( ( ; 7 j u D '.C 2+b '.C *.=.-.D 7 = 7 W b . $ d ' ( ' < B.6 u ..+.' : 2   y ) ) @ @ g ] ] a.^ # ] # ^.# ] ^ ~ @ ) ! @ c ~ ] ~ ^ / ^ ~ ] ~ ^ + m ] ~ ] m c ] ] ] _ @ c ! c ~ ] ) ! c . ) ) ) ! ) ) 2   ) '   ( ' ( ' d p ",
"2 ( ) ( : ' ' ( ( ' p ` p d (   ' ( ( ' ) ) ) ) ) ) ) ! ) ! _ ! .+) x ' ' ' 7 1 D b _.4+*.)+n.!.'.j.7 = = d ; ; ' ( ( d . ' p ' | 7 u Y .., , ( ' ( ( . ) @ @ c + ^ ^ a.^ ] # 5+] ] @ ! 2 ( ! @ ] ~ ^ + ^ ^ ] ~ ] # ^ ^ + m ] ^ ~ _ ^ ^ ] ] n @ ! @ ! . ) ) . ) 2 ( ) ( : ' ' ( ( ' p ` p d (   ' ( ( ' ) ) ) ) ) ) ) ! ) ! _ ! .+) x ' ' ' 7 1 D b _.4+*.)+n.!.'.j.7 = = d ; ; ' ( ( d . ' p ' | 7 u Y .., , ( ' ( ( . ) @ @ c + ^ ^ a.^ ] # 5+] ] @ ! 2 ( ! @ ] ~ ^ + ^ ^ ] ~ ] # ^ ^ + m ] ^ ~ _ ^ ^ ] ] n @ ! @ ! . ) ) . ) 2 ( ) ( : ' ' ( ( ' p ` p d (   ' ( ( ' ) ) ) ) ) ) ) ! ) ! _ ! .+) x ' ' ' 7 1 D b _.4+*.)+n.!.'.j.7 = = d ; ; ' ( ( d . ' p ' | 7 u Y .., , ( ' ( ( . ) @ @ c + ^ ^ a.^ ] # 5+] ] @ ! 2 ( ! @ ] ~ ^ + ^ ^ ] ~ ] # ^ ^ + m ] ^ ~ _ ^ ^ ] ] n @ ! @ ! . ) ) . ) 2 ( ) ( : ' ' ( ( ' p ` p d (   ",
"' ' ' 0 ' 0 0 d < , 8 ' ' (   9 . ) ! n ! -+n ++n n n ) ) _ 0.! K 2 ' ( d & b b j '._.t.v.p.5.7.i b b , & ' 0 2 ' ( ( ( ( |.( ' ' 7 1 [ +.=.6 3 , ; ( @ . ! ! _ ^ 6+] ^ ] # ] ] ^ ] ~ @ ) . . @ ~ ] ~ ] m + ~ ^ ^ ~ ] ~ ] ^ ~ ^ ^ ] { _ ! { @ ~ c ! @ 2 ( % ( 2 ' ' ' 0 ' 0 0 d < , 8 ' ' (   9 . ) ! n ! -+n ++n n n ) ) _ 0.! K 2 ' ( d & b b j '._.t.v.p.5.7.i b b , & ' 0 2 ' ( ( ( ( |.( ' ' 7 1 [ +.=.6 3 , ; ( @ . ! ! _ ^ 6+] ^ ] # ] ] ^ ] ~ @ ) . . @ ~ ] ~ ] m + ~ ^ ^ ~ ] ~ ] ^ ~ ^ ^ ] { _ ! { @ ~ c ! @ 2 ( % ( 2 ' ' ' 0 ' 0 0 d < , 8 ' ' (   9 . ) ! n ! -+n ++n n n ) ) _ 0.! K 2 ' ( d & b b j '._.t.v.p.5.7.i b b , & ' 0 2 ' ( ( ( ( |.( ' ' 7 1 [ +.=.6 3 , ; ( @ . ! ! _ ^ 6+] ^ ] # ] ] ^ ] ~ @ ) . . @ ~ ] ~ ] m + ~ ^ ^ ~ ] ~ ] ^ ~ ^ ^ ] { _ ! { @ ~ c ! @ 2 ( % ( 2 ' ' ' 0 ' 0 0 d < , 8 ' ' (   9 ",
"' e ' 0 , , , 0 0 ' ' ' & ) . . ! n n { -+=+-+=+-+-+n n _ n ) x ) ( @ < 0 7 b '.K.M.7+t.7.[.8+[.j 1 , 0 ' ( & ( ( (   (   ( 9 ( ' , 4 } C Q C b = & 3 ( 2 ! ^ ^ ] 6+^ + ^.] ^ ] + ~ ] ! % ) @ ~ ] ~ ^ ] # ^ ^ ] # ] ~ ] ~ ^ ^ ^ ] { ] ~ ! ~ ! @ ! f ) % % 2 ( ( ' e ' 0 , , , 0 0 ' ' ' & ) . . ! n n { -+=+-+=+-+-+n n _ n ) x ) ( @ < 0 7 b '.K.M.7+t.7.[.8+[.j 1 , 0 ' ( & ( ( (   (   ( 9 ( ' , 4 } C Q C b = & 3 ( 2 ! ^ ^ ] 6+^ + ^.] ^ ] + ~ ] ! % ) @ ~ ] ~ ^ ] # ^ ^ ] # ] ~ ] ~ ^ ^ ^ ] { ] ~ ! ~ ! @ ! f ) % % 2 ( ( ' e ' 0 , , , 0 0 ' ' ' & ) . . ! n n { -+=+-+=+-+-+n n _ n ) x ) ( @ < 0 7 b '.K.M.7+t.7.[.8+[.j 1 , 0 ' ( & ( ( (   (   ( 9 ( ' , 4 } C Q C b = & 3 ( 2 ! ^ ^ ] 6+^ + ^.] ^ ] + ~ ] ! % ) @ ~ ] ~ ^ ] # ^ ^ ] # ] ~ ] ~ ^ ^ ^ ] { ] ~ ! ~ ! @ ! f ) % % 2 ( ( ' e ' 0 , , , 0 0 ' ' ' & ) . . ",
", p , < 8 8 , ' ' ( ( . ! @ n ! @ ! ! n =+++_ -+n K   g.) ! n ] . ' 6 6 [ }.n.v.9+M.n.7.- - k 0+u '.a 0 7 ( . ( x ( ) 2 ) @ ) . ' ' , < 6 u u C j = . ( ' ) ^ ^ ] ] ] + ^ ] ^ ] ^ ] ~ @ . @ @ ] + ^ ^ ^ ^ ^ # ^ ^ ^ ^ ] ^ ^ ~ ] ~ ] { ] ~ c @ { . ! @ 2 2 ( 0 0 , p , < 8 8 , ' ' ( ( . ! @ n ! @ ! ! n =+++_ -+n K   g.) ! n ] . ' 6 6 [ }.n.v.9+M.n.7.- - k 0+u '.a 0 7 ( . ( x ( ) 2 ) @ ) . ' ' , < 6 u u C j = . ( ' ) ^ ^ ] ] ] + ^ ] ^ ] ^ ] ~ @ . @ @ ] + ^ ^ ^ ^ ^ # ^ ^ ^ ^ ] ^ ^ ~ ] ~ ] { ] ~ c @ { . ! @ 2 2 ( 0 0 , p , < 8 8 , ' ' ( ( . ! @ n ! @ ! ! n =+++_ -+n K   g.) ! n ] . ' 6 6 [ }.n.v.9+M.n.7.- - k 0+u '.a 0 7 ( . ( x ( ) 2 ) @ ) . ' ' , < 6 u u C j = . ( ' ) ^ ^ ] ] ] + ^ ] ^ ] ^ ] ~ @ . @ @ ] + ^ ^ ^ ^ ^ # ^ ^ ^ ^ ] ^ ^ ~ ] ~ ] { ] ~ c @ { . ! @ 2 2 ( 0 0 , p , < 8 8 , ' ' ( ( . ! @ n ! ",
"4 < < < < 8 ' 0 ( ( 2 ! ! ! ! n @ ! ! ++! ++n ++! ) ) @ c ) ( ( b l b [.D y.,.M.F.~+a+[.'.- > 7 j +.6 ; 7 ' % ( ( 2 ) ) @ ) @ . ( 2 9 ' , 7 6 C H 6 * ; 2 . ~ @ ] ] + ] ] ^ ] ^ # ] ] @ ! @ g ~ ^ ^ ^ ^ # ^ ^ ^ ^ ^ ~ _ ~ ^ ] ~ s ~ ] ] ~ @ ! @ ! . ) ) ' E 8 8 4 < < < < 8 ' 0 ( ( 2 ! ! ! ! n @ ! ! ++! ++n ++! ) ) @ c ) ( ( b l b [.D y.,.M.F.~+a+[.'.- > 7 j +.6 ; 7 ' % ( ( 2 ) ) @ ) @ . ( 2 9 ' , 7 6 C H 6 * ; 2 . ~ @ ] ] + ] ] ^ ] ^ # ] ] @ ! @ g ~ ^ ^ ^ ^ # ^ ^ ^ ^ ^ ~ _ ~ ^ ] ~ s ~ ] ] ~ @ ! @ ! . ) ) ' E 8 8 4 < < < < 8 ' 0 ( ( 2 ! ! ! ! n @ ! ! ++! ++n ++! ) ) @ c ) ( ( b l b [.D y.,.M.F.~+a+[.'.- > 7 j +.6 ; 7 ' % ( ( 2 ) ) @ ) @ . ( 2 9 ' , 7 6 C H 6 * ; 2 . ~ @ ] ] + ] ] ^ ] ^ # ] ] @ ! @ g ~ ^ ^ ^ ^ # ^ ^ ^ ^ ^ ~ _ ~ ^ ] ~ s ~ ] ] ~ @ ! @ ! . ) ) ' E 8 8 4 < < < < 8 ' 0 ( ( 2 ! ! ! ! n ",
"< p ' ( ' ( ( 2 ( 2 ! ! ! { { ! ! . ) ! ! ! ! ) )     . & ( ( & > {.7.u.G.F.b+_.1+2+b ;+b * }+= , C j 0 0 , & ' ) . . ~ @ @ ! !   . . ' ; ; 1 u Q C 4 ; 3 @ . ] g + ] a.^ # ^ ~ ^ ^ @ ! @ @ ] ^ ^ ^ ^ ^ ^ ^ ^ ^ ^ ] ^ m ^ _ ~ _ ~ ] ~ @ ! ! ) ( ( ( : E 8 8 G 8 < p ' ( ' ( ( 2 ( 2 ! ! ! { { ! ! . ) ! ! ! ! ) )     . & ( ( & > {.7.u.G.F.b+_.1+2+b ;+b * }+= , C j 0 0 , & ' ) . . ~ @ @ ! !   . . ' ; ; 1 u Q C 4 ; 3 @ . ] g + ] a.^ # ^ ~ ^ ^ @ ! @ @ ] ^ ^ ^ ^ ^ ^ ^ ^ ^ ^ ] ^ m ^ _ ~ _ ~ ] ~ @ ! ! ) ( ( ( : E 8 8 G 8 < p ' ( ' ( ( 2 ( 2 ! ! ! { { ! ! . ) ! ! ! ! ) )     . & ( ( & > {.7.u.G.F.b+_.1+2+b ;+b * }+= , C j 0 0 , & ' ) . . ~ @ @ ! !   . . ' ; ; 1 u Q C 4 ; 3 @ . ] g + ] a.^ # ^ ~ ^ ^ @ ! @ @ ] ^ ^ ^ ^ ^ ^ ^ ^ ^ ^ ] ^ m ^ _ ~ _ ~ ] ~ @ ! ! ) ( ( ( : E 8 8 G 8 < p ' ( ' ( ( 2 ( 2 ! ! ! { { ! ",
"'     . . 9 ) % ) o ) o ) ++! ! ) . ( ) ) !   ( < , , , 7 , , , *.5.n.9+x.5.1+;+j.b 2+, 7 a , ' = u C | , ' & ( % ) ! ~ n ] @ ! @ ) .   ' ' | [ } C u 7 ; ; % / @ ] + ] # ] ] ^ ^ ~ @ ! @ ] ~ ~ ^ ] ^ ^ ^ ^ ~ ] ^ ^ ] ^ ^ ^ ^ ] @ @ @ ! ) ( ( x ( : : : : : ' x '     . . 9 ) % ) o ) o ) ++! ! ) . ( ) ) !   ( < , , , 7 , , , *.5.n.9+x.5.1+;+j.b 2+, 7 a , ' = u C | , ' & ( % ) ! ~ n ] @ ! @ ) .   ' ' | [ } C u 7 ; ; % / @ ] + ] # ] ] ^ ^ ~ @ ! @ ] ~ ~ ^ ] ^ ^ ^ ^ ~ ] ^ ^ ] ^ ^ ^ ^ ] @ @ @ ! ) ( ( x ( : : : : : ' x '     . . 9 ) % ) o ) o ) ++! ! ) . ( ) ) !   ( < , , , 7 , , , *.5.n.9+x.5.1+;+j.b 2+, 7 a , ' = u C | , ' & ( % ) ! ~ n ] @ ! @ ) .   ' ' | [ } C u 7 ; ; % / @ ] + ] # ] ] ^ ^ ~ @ ! @ ] ~ ~ ^ ] ^ ^ ^ ^ ~ ] ^ ^ ] ^ ^ ^ ^ ] @ @ @ ! ) ( ( x ( : : : : : ' x '     . . 9 ) % ) o ) o ) ++! ! ",
"    ) .   ( 2 9 2 ) 2 2 ) 2 ) 2   ; ' ( ' ' 8 < 6 | b j C c+:+d+*.e+e+e+7.;+1+}.2+7 | 6 1 %.0 & 7 j C u 1 d & ( ( ) @ @ ] { ! n c n ! .   ' , 4 1 [ u j 1 , ; $ . @ c ] ] ~ ] ~ ^ _ @ ! @ ~ ] ] ^ ^ ^ ] ^ _ ^ _ ^ ^ s ] ^ ] _ ! @ ) . 2 & (   ' ' x ( '   )   )     ) .   ( 2 9 2 ) 2 2 ) 2 ) 2   ; ' ( ' ' 8 < 6 | b j C c+:+d+*.e+e+e+7.;+1+}.2+7 | 6 1 %.0 & 7 j C u 1 d & ( ( ) @ @ ] { ! n c n ! .   ' , 4 1 [ u j 1 , ; $ . @ c ] ] ~ ] ~ ^ _ @ ! @ ~ ] ] ^ ^ ^ ] ^ _ ^ _ ^ ^ s ] ^ ] _ ! @ ) . 2 & (   ' ' x ( '   )   )     ) .   ( 2 9 2 ) 2 2 ) 2 ) 2   ; ' ( ' ' 8 < 6 | b j C c+:+d+*.e+e+e+7.;+1+}.2+7 | 6 1 %.0 & 7 j C u 1 d & ( ( ) @ @ ] { ! n c n ! .   ' , 4 1 [ u j 1 , ; $ . @ c ] ] ~ ] ~ ^ _ @ ! @ ~ ] ] ^ ^ ^ ] ^ _ ^ _ ^ ^ s ] ^ ] _ ! @ ) . 2 & (   ' ' x ( '   )   )     ) .   ( 2 9 2 ) 2 2 ) 2 ) 2 ",
"  )   ) 9 ) . . %   & ' ' ( ) 2 ; ' d d , 7 6 } D '.,.m.|+,.f+a b 2+D b 2+D = M b 7 * & * J < 0 ; = j H j , ' 8 & 2 ) @ { ] ~ { ! n ) ) . ' ' d 7 1 6 [ i 7 ; A . @ $ c / ] c ~ ] { @ ! ! ~ # ~ ^ ^ ^ ^ ^ ^ ^ ^ ] _ ] ] _ c ! @ @ % ) % ) ) % ) ' '     (     |.  )   ) 9 ) . . %   & ' ' ( ) 2 ; ' d d , 7 6 } D '.,.m.|+,.f+a b 2+D b 2+D = M b 7 * & * J < 0 ; = j H j , ' 8 & 2 ) @ { ] ~ { ! n ) ) . ' ' d 7 1 6 [ i 7 ; A . @ $ c / ] c ~ ] { @ ! ! ~ # ~ ^ ^ ^ ^ ^ ^ ^ ^ ] _ ] ] _ c ! @ @ % ) % ) ) % ) ' '     (     |.  )   ) 9 ) . . %   & ' ' ( ) 2 ; ' d d , 7 6 } D '.,.m.|+,.f+a b 2+D b 2+D = M b 7 * & * J < 0 ; = j H j , ' 8 & 2 ) @ { ] ~ { ! n ) ) . ' ' d 7 1 6 [ i 7 ; A . @ $ c / ] c ~ ] { @ ! ! ~ # ~ ^ ^ ^ ^ ^ ^ ^ ^ ] _ ] ] _ c ! @ @ % ) % ) ) % ) ' '     (     |.  )   ) 9 ) . . %   & ' ' ( ) 2 ",
"g.) n ) ' ' ( . . & ; ; ; ; l , W | b 1 X :+,.,.o.v.o.n.4+C b a = 0 , = , = ; ; w ; , ; & ( , 8 7 ; i 1 +.} ; & ) @ @ ) _ ~ ! ! n ] ] c ) 9 ( ' ; 7 1 b 6 '.i ; ' . 9 ~ . # ~ ! @ ~ @ @ @ ! ] ~ ] ^ ^ ] { n { ] { ~ ] ~ @ ! @ @ . @ % ( ;   &   ( ( p (   . )   g.) n ) ' ' ( . . & ; ; ; ; l , W | b 1 X :+,.,.o.v.o.n.4+C b a = 0 , = , = ; ; w ; , ; & ( , 8 7 ; i 1 +.} ; & ) @ @ ) _ ~ ! ! n ] ] c ) 9 ( ' ; 7 1 b 6 '.i ; ' . 9 ~ . # ~ ! @ ~ @ @ @ ! ] ~ ] ^ ^ ] { n { ] { ~ ] ~ @ ! @ @ . @ % ( ;   &   ( ( p (   . )   g.) n ) ' ' ( . . & ; ; ; ; l , W | b 1 X :+,.,.o.v.o.n.4+C b a = 0 , = , = ; ; w ; , ; & ( , 8 7 ; i 1 +.} ; & ) @ @ ) _ ~ ! ! n ] ] c ) 9 ( ' ; 7 1 b 6 '.i ; ' . 9 ~ . # ~ ! @ ~ @ @ @ ! ] ~ ] ^ ^ ] { n { ] { ~ ] ~ @ ! @ @ . @ % ( ;   &   ( ( p (   . )   g.) n ) ' ' ( . . & ; ; ; ; l , ",
"g.g.    ) . & , 7 , l ; l l W k D (.1.].@.].K.=.7.~+g+h+<.i+a+0 ; e ( ( & 2 & & . & ' & . & ' , = = 7 7 u b < ' & @ c @ ~ _ ! ^ ! _ ] _ @ )   & . 9 l , b u +.C 6 , 9 $ . @ . c ~ ] ] ] ] ~ + ^ { ] ^ ~ c @ ~ ] # ^ ] c @ @ ) . ( ( . % . & ' , < < , '   9   ' g.g.    ) . & , 7 , l ; l l W k D (.1.].@.].K.=.7.~+g+h+<.i+a+0 ; e ( ( & 2 & & . & ' & . & ' , = = 7 7 u b < ' & @ c @ ~ _ ! ^ ! _ ] _ @ )   & . 9 l , b u +.C 6 , 9 $ . @ . c ~ ] ] ] ] ~ + ^ { ] ^ ~ c @ ~ ] # ^ ] c @ @ ) . ( ( . % . & ' , < < , '   9   ' g.g.    ) . & , 7 , l ; l l W k D (.1.].@.].K.=.7.~+g+h+<.i+a+0 ; e ( ( & 2 & & . & ' & . & ' , = = 7 7 u b < ' & @ c @ ~ _ ! ^ ! _ ] _ @ )   & . 9 l , b u +.C 6 , 9 $ . @ . c ~ ] ] ] ] ~ + ^ { ] ^ ~ c @ ~ ] # ^ ] c @ @ ) . ( ( . % . & ' , < < , '   9   ' g.g.    ) . & , 7 , l ; l l W k ",
"( ( ' : ' . 9 ; 3 i+M b (.*.K.D.#.;.H B.k l k !+1+{.b+L.k k = $ 2 ! 2 2 ) f . @ @ ( ' & . 9 & ' ; a ; 7 1 ; < , 9 @ @ n ^ { ! ^ ! ] ] ] c ! @ . ' ( ' ; d , b 1 $.Z ' & $ % @ + ~ ] ~ ~ ] ] ~ + ] ^ ~ ] ~ ~ ] ] @ @ @ + + @ . ' % & ' < < < , < , d ' ' & 9 & 9 ( ( ' : ' . 9 ; 3 i+M b (.*.K.D.#.;.H B.k l k !+1+{.b+L.k k = $ 2 ! 2 2 ) f . @ @ ( ' & . 9 & ' ; a ; 7 1 ; < , 9 @ @ n ^ { ! ^ ! ] ] ] c ! @ . ' ( ' ; d , b 1 $.Z ' & $ % @ + ~ ] ~ ~ ] ] ~ + ] ^ ~ ] ~ ~ ] ] @ @ @ + + @ . ' % & ' < < < , < , d ' ' & 9 & 9 ( ( ' : ' . 9 ; 3 i+M b (.*.K.D.#.;.H B.k l k !+1+{.b+L.k k = $ 2 ! 2 2 ) f . @ @ ( ' & . 9 & ' ; a ; 7 1 ; < , 9 @ @ n ^ { ! ^ ! ] ] ] c ! @ . ' ( ' ; d , b 1 $.Z ' & $ % @ + ~ ] ~ ~ ] ] ~ + ] ^ ~ ] ~ ~ ] ] @ @ @ + + @ . ' % & ' < < < , < , d ' ' & 9 & 9 ( ( ' : ' . 9 ; 3 i+M b (.*.K.D.",
": p < < 7 1 b D 6 Q 8.8.N ).7 l A ; ; l , k a !+]+R.w.j M = S ( ! ! ) ! ! ! ! ! . ) ( & . . & ( = < = = , 9 0 , $ @ @ @ ] @ ! ^ { ] ] _ ] @ c n c . . ' ; & ; 7 j u 6 7 $ @ g @ g @ / ] ~ ] @ ] ~ ~ ] @ @ @ @ $ @ . . % 9 . % 9 ( , 1 } Z 1 , d d 0 l , 7 7 d 0 : p < < 7 1 b D 6 Q 8.8.N ).7 l A ; ; l , k a !+]+R.w.j M = S ( ! ! ) ! ! ! ! ! . ) ( & . . & ( = < = = , 9 0 , $ @ @ @ ] @ ! ^ { ] ] _ ] @ c n c . . ' ; & ; 7 j u 6 7 $ @ g @ g @ / ] ~ ] @ ] ~ ~ ] @ @ @ @ $ @ . . % 9 . % 9 ( , 1 } Z 1 , d d 0 l , 7 7 d 0 : p < < 7 1 b D 6 Q 8.8.N ).7 l A ; ; l , k a !+]+R.w.j M = S ( ! ! ) ! ! ! ! ! . ) ( & . . & ( = < = = , 9 0 , $ @ @ @ ] @ ! ^ { ] ] _ ] @ c n c . . ' ; & ; 7 j u 6 7 $ @ g @ g @ / ] ~ ] @ ] ~ ~ ] @ @ @ @ $ @ . . % 9 . % 9 ( , 1 } Z 1 , d d 0 l , 7 7 d 0 : p < < 7 1 b D 6 Q 8.8.N ).7 l ",
"4 } } 6 } =.U N H 1 3 g A ' ; 3 d d ; & & l | ;+[ t.'.l , # . ( ! ! ! ! ) ! c @ @ . ( ) . . & % , , 7 0 , , ; 1 + ] . ) ~ _ ! ~ _ ~ ] ~ _ ! n ~ ] c ) ' ' & ' a | u u u ; & @ & @ @ ] ~ g @ c @ @ . f . . . . % . % . % & , 7 < } X 6 1 7 ; d , , 7 | 1 [ } j [ 4 } } 6 } =.U N H 1 3 g A ' ; 3 d d ; & & l | ;+[ t.'.l , # . ( ! ! ! ! ) ! c @ @ . ( ) . . & % , , 7 0 , , ; 1 + ] . ) ~ _ ! ~ _ ~ ] ~ _ ! n ~ ] c ) ' ' & ' a | u u u ; & @ & @ @ ] ~ g @ c @ @ . f . . . . % . % . % & , 7 < } X 6 1 7 ; d , , 7 | 1 [ } j [ 4 } } 6 } =.U N H 1 3 g A ' ; 3 d d ; & & l | ;+[ t.'.l , # . ( ! ! ! ! ) ! c @ @ . ( ) . . & % , , 7 0 , , ; 1 + ] . ) ~ _ ! ~ _ ~ ] ~ _ ! n ~ ] c ) ' ' & ' a | u u u ; & @ & @ @ ] ~ g @ c @ @ . f . . . . % . % . % & , 7 < } X 6 1 7 ; d , , 7 | 1 [ } j [ 4 } } 6 } =.U N H 1 3 g A ' ; 3 ",
"'.u j C U !.U i * , , * . . . ( c . ( ' d , < i ;.U l ; & ) : j+n n n ) n ) ! ! c ) ( . . .   . , & , 0 , 5 , u @ g . 2 c ~ ! ! @ ] ~ { c { n n ) ) )   . . 9 = , b D j 1 l & . @ @ @ g ~ c @ . % . . f . % % & ' & ; , 4 Z u u } 1 8 , l , , b 1 b b 6 j 8+$.v '.u j C U !.U i * , , * . . . ( c . ( ' d , < i ;.U l ; & ) : j+n n n ) n ) ! ! c ) ( . . .   . , & , 0 , 5 , u @ g . 2 c ~ ! ! @ ] ~ { c { n n ) ) )   . . 9 = , b D j 1 l & . @ @ @ g ~ c @ . % . . f . % % & ' & ; , 4 Z u u } 1 8 , l , , b 1 b b 6 j 8+$.v '.u j C U !.U i * , , * . . . ( c . ( ' d , < i ;.U l ; & ) : j+n n n ) n ) ! ! c ) ( . . .   . , & , 0 , 5 , u @ g . 2 c ~ ! ! @ ] ~ { c { n n ) ) )   . . 9 = , b D j 1 l & . @ @ @ g ~ c @ . % . . f . % % & ' & ; , 4 Z u u } 1 8 , l , , b 1 b b 6 j 8+$.v '.u j C U !.U i * , , * . . . ( ",
"{.j '.=.N =.b t * 0 ( ( o @ ! !   ) ( : ' 8 1 u *+; . < : K j+++c .+) ) ) .+) .+!   (   2 & ( & : , & 0 d 1 < } < % .   ) @ ! ! @ { @ ~ ! _ ] _ ] _ c ~ . ) ( , = l b 6 j , & . . . @ @ c @ . ( & 2 & & & ( 0 , 0 J } C H u b , l ; ; , 1 | b b b b b ;+i j '.8+{.j '.=.N =.b t * 0 ( ( o @ ! !   ) ( : ' 8 1 u *+; . < : K j+++c .+) ) ) .+) .+!   (   2 & ( & : , & 0 d 1 < } < % .   ) @ ! ! @ { @ ~ ! _ ] _ ] _ c ~ . ) ( , = l b 6 j , & . . . @ @ c @ . ( & 2 & & & ( 0 , 0 J } C H u b , l ; ; , 1 | b b b b b ;+i j '.8+{.j '.=.N =.b t * 0 ( ( o @ ! !   ) ( : ' 8 1 u *+; . < : K j+++c .+) ) ) .+) .+!   (   2 & ( & : , & 0 d 1 < } < % .   ) @ ! ! @ { @ ~ ! _ ] _ ] _ c ~ . ) ( , = l b 6 j , & . . . @ @ c @ . ( & 2 & & & ( 0 , 0 J } C H u b , l ; ; , 1 | b b b b b ;+i j '.8+{.j '.=.N =.b t * 0 ( ( o @ ! ! ",
"'.8+_.*.C = }+7 & % f @ ! K ! ! ) ) ( 8 8 1 } /.k+' & ' ) { K K ) n ) ) )   ) .   ( ' ' ' ' ' ' 8 J $ * ' , 7 1 r d . ' ( . ) 2 ! @ ! ~ _ ~ _ ^ _ ! ! ! ! %   & 7 M b [ u ' ; ; & & 9 . 3 . & ' , 7 , , , 7 1 6 :+H u 6 , * ; = ' ; ; , b 1 1 1 b b j j {.8+{.8+'.8+_.*.C = }+7 & % f @ ! K ! ! ) ) ( 8 8 1 } /.k+' & ' ) { K K ) n ) ) )   ) .   ( ' ' ' ' ' ' 8 J $ * ' , 7 1 r d . ' ( . ) 2 ! @ ! ~ _ ~ _ ^ _ ! ! ! ! %   & 7 M b [ u ' ; ; & & 9 . 3 . & ' , 7 , , , 7 1 6 :+H u 6 , * ; = ' ; ; , b 1 1 1 b b j j {.8+{.8+'.8+_.*.C = }+7 & % f @ ! K ! ! ) ) ( 8 8 1 } /.k+' & ' ) { K K ) n ) ) )   ) .   ( ' ' ' ' ' ' 8 J $ * ' , 7 1 r d . ' ( . ) 2 ! @ ! ~ _ ~ _ ^ _ ! ! ! ! %   & 7 M b [ u ' ; ; & & 9 . 3 . & ' , 7 , , , 7 1 6 :+H u 6 , * ; = ' ; ; , b 1 1 1 b b j j {.8+{.8+'.8+_.*.C = }+7 & % f @ ! K ! ! ",
";+=.d+i * ; , ( ( ! ) ! ! ! _ ! : K ( p 5 I R l+1 < : x   ++! ! n n ) ) )   ' 8 d ' ' , W d d 7 , ' (   ' ' < J 6 8 , J ' 0 0 @ ( n ] _ _ ] _ { ! ) ! c ) ( . ' ; , a 1 v 6 * * ; & > A & l , k D b D j v -.H +.J a 8 0 ; & ( ; 9 ; 4 B.6 u u b i u =.N 4+)+]+^+;+=.d+i * ; , ( ( ! ) ! ! ! _ ! : K ( p 5 I R l+1 < : x   ++! ! n n ) ) )   ' 8 d ' ' , W d d 7 , ' (   ' ' < J 6 8 , J ' 0 0 @ ( n ] _ _ ] _ { ! ) ! c ) ( . ' ; , a 1 v 6 * * ; & > A & l , k D b D j v -.H +.J a 8 0 ; & ( ; 9 ; 4 B.6 u u b i u =.N 4+)+]+^+;+=.d+i * ; , ( ( ! ) ! ! ! _ ! : K ( p 5 I R l+1 < : x   ++! ! n n ) ) )   ' 8 d ' ' , W d d 7 , ' (   ' ' < J 6 8 , J ' 0 0 @ ( n ] _ _ ] _ { ! ) ! c ) ( . ' ; , a 1 v 6 * * ; & > A & l , k D b D j v -.H +.J a 8 0 ; & ( ; 9 ; 4 B.6 u u b i u =.N 4+)+]+^+;+=.d+i * ; , ( ( ! ) ! ! ! _ ! ",
"d+=.} , & 0 2 @ @ ! ] _ ] ] _ _ n :   < 7 H U } 7 8 |.  2 K 2 ! ++) K ) ( x ' 8 8 , 7 < 4 7 7 < d d ' & ' , 7 < , 0 1 6 7 0 , '   ! ! ! ! { ~ ! ~ ) ! @ % ( & & 0 , ; a } } 7 7 , = = * k 7 b b }.-._.2.-.j 7 & , , 0 }+2 & ( & ; d 7 7 7 6 } 1 i i ;+;+'.m+<.4+d+=.} , & 0 2 @ @ ! ] _ ] ] _ _ n :   < 7 H U } 7 8 |.  2 K 2 ! ++) K ) ( x ' 8 8 , 7 < 4 7 7 < d d ' & ' , 7 < , 0 1 6 7 0 , '   ! ! ! ! { ~ ! ~ ) ! @ % ( & & 0 , ; a } } 7 7 , = = * k 7 b b }.-._.2.-.j 7 & , , 0 }+2 & ( & ; d 7 7 7 6 } 1 i i ;+;+'.m+<.4+d+=.} , & 0 2 @ @ ! ] _ ] ] _ _ n :   < 7 H U } 7 8 |.  2 K 2 ! ++) K ) ( x ' 8 8 , 7 < 4 7 7 < d d ' & ' , 7 < , 0 1 6 7 0 , '   ! ! ! ! { ~ ! ~ ) ! @ % ( & & 0 , ; a } } 7 7 , = = * k 7 b b }.-._.2.-.j 7 & , , 0 }+2 & ( & ; d 7 7 7 6 } 1 i i ;+;+'.m+<.4+d+=.} , & 0 2 @ @ ! ] _ ] ] _ _ ",
"U i * & ' & . @ c ] ] ] _ ^ ] n 0.: ' 8 = U U ; , ' |.  ) ) ! 2 ) ) 2 x ( ' 8 < < < < 1 B.4 < < ' ' : ' p 8 8 < 4 . 3 d 6 [ 4 & . ) c ) . ) @ )   ( ( ( ' & & ; & , 7 i H v 7 > | b | 6 '.C -.-.2.-.[ b l ; , , & &   % . % 2 & 7 W 7 d ; 7 4 a 7 a a a+a+;+{.)+U i * & ' & . @ c ] ] ] _ ^ ] n 0.: ' 8 = U U ; , ' |.  ) ) ! 2 ) ) 2 x ( ' 8 < < < < 1 B.4 < < ' ' : ' p 8 8 < 4 . 3 d 6 [ 4 & . ) c ) . ) @ )   ( ( ( ' & & ; & , 7 i H v 7 > | b | 6 '.C -.-.2.-.[ b l ; , , & &   % . % 2 & 7 W 7 d ; 7 4 a 7 a a a+a+;+{.)+U i * & ' & . @ c ] ] ] _ ^ ] n 0.: ' 8 = U U ; , ' |.  ) ) ! 2 ) ) 2 x ( ' 8 < < < < 1 B.4 < < ' ' : ' p 8 8 < 4 . 3 d 6 [ 4 & . ) c ) . ) @ )   ( ( ( ' & & ; & , 7 i H v 7 > | b | 6 '.C -.-.2.-.[ b l ; , , & &   % . % 2 & 7 W 7 d ; 7 4 a 7 a a a+a+;+{.)+U i * & ' & . @ c ] ] ] _ ^ ] n ",
"7 ; . & & 2 @ ) ! m ] _ _ ] _ n ) ) d ; 7 =.N | d '   . ) o ) ! )     ( ' p , 8 < J 4 z z G < <   ( p d 8 8 < 4 < ; ' 7 4 7 7 4 ' . . . &   &   & & 9 ; , = W b 7 a 7 | j H C u -.C C C C u j j k 7 = d * ; d 0 . . % 2 . % ( ' 7 l ; ; & d 7 l & * 7 b k k a+= 7 ; . & & 2 @ ) ! m ] _ _ ] _ n ) ) d ; 7 =.N | d '   . ) o ) ! )     ( ' p , 8 < J 4 z z G < <   ( p d 8 8 < 4 < ; ' 7 4 7 7 4 ' . . . &   &   & & 9 ; , = W b 7 a 7 | j H C u -.C C C C u j j k 7 = d * ; d 0 . . % 2 . % ( ' 7 l ; ; & d 7 l & * 7 b k k a+= 7 ; . & & 2 @ ) ! m ] _ _ ] _ n ) ) d ; 7 =.N | d '   . ) o ) ! )     ( ' p , 8 < J 4 z z G < <   ( p d 8 8 < 4 < ; ' 7 4 7 7 4 ' . . . &   &   & & 9 ; , = W b 7 a 7 | j H C u -.C C C C u j j k 7 = d * ; d 0 . . % 2 . % ( ' 7 l ; ; & d 7 l & * 7 b k k a+= 7 ; . & & 2 @ ) ! m ] _ _ ] _ n ",
"$ 9 ( ( . @ c ~ ] ] ] ! c ! n .   9 ' ; 6 !.,.b = ' 9 . @ . ! . .   9 ' ' , 8 7 8 J z 1 F < L E ' d p < < ` 4 < 6 4 7 6 B.7 | '.7 d & . ; ' d ; , , ; ; l ; - k 7 7 b D '.D.N ;.u u j T j | 7 d l d d 7 , ' . / . ) . ) %   ( ' 7 ' ; l d 7 , % ; ; 0 = , * - M $ 9 ( ( . @ c ~ ] ] ] ! c ! n .   9 ' ; 6 !.,.b = ' 9 . @ . ! . .   9 ' ' , 8 7 8 J z 1 F < L E ' d p < < ` 4 < 6 4 7 6 B.7 | '.7 d & . ; ' d ; , , ; ; l ; - k 7 7 b D '.D.N ;.u u j T j | 7 d l d d 7 , ' . / . ) . ) %   ( ' 7 ' ; l d 7 , % ; ; 0 = , * - M $ 9 ( ( . @ c ~ ] ] ] ! c ! n .   9 ' ; 6 !.,.b = ' 9 . @ . ! . .   9 ' ' , 8 7 8 J z 1 F < L E ' d p < < ` 4 < 6 4 7 6 B.7 | '.7 d & . ; ' d ; , , ; ; l ; - k 7 7 b D '.D.N ;.u u j T j | 7 d l d d 7 , ' . / . ) . ) %   ( ' 7 ' ; l d 7 , % ; ; 0 = , * - M $ 9 ( ( . @ c ~ ] ] ] ! c ! n . ",
". ( 9 . c ) @ ^ @ _ ] ] ! ] ! ) c d 9 6 }.n+*.; d ; . @ ! @ @ . ) 9 . |.' , < 7 8 < J h J F 8 8 p 8 < < < 4 4 6 X 6 | | u '.| | [ 1 k ; ; l = * | 7 k k b 2+| j j.j $.H $.+.C [ b 7 7 1 1 b 7 7 1 , '   ( ( ) @ @ % ) & ) 2 ( ' d ; ; 7 < < , . ' ; ' * , ; ; & . ( 9 . c ) @ ^ @ _ ] ] ! ] ! ) c d 9 6 }.n+*.; d ; . @ ! @ @ . ) 9 . |.' , < 7 8 < J h J F 8 8 p 8 < < < 4 4 6 X 6 | | u '.| | [ 1 k ; ; l = * | 7 k k b 2+| j j.j $.H $.+.C [ b 7 7 1 1 b 7 7 1 , '   ( ( ) @ @ % ) & ) 2 ( ' d ; ; 7 < < , . ' ; ' * , ; ; & . ( 9 . c ) @ ^ @ _ ] ] ! ] ! ) c d 9 6 }.n+*.; d ; . @ ! @ @ . ) 9 . |.' , < 7 8 < J h J F 8 8 p 8 < < < 4 4 6 X 6 | | u '.| | [ 1 k ; ; l = * | 7 k k b 2+| j j.j $.H $.+.C [ b 7 7 1 1 b 7 7 1 , '   ( ( ) @ @ % ) & ) 2 ( ' d ; ; 7 < < , . ' ; ' * , ; ; & . ( 9 . c ) @ ^ @ _ ] ] ! ] ! ) ",
"c ) c ~ n ! ! _ _ ] ] _ ~ c @ ! . W ; u -.(+;+; ; & . c @ ! o . ( 9   ' ' , , , J J 1 J J z < 8 , < 4 < | 6 } $.u C $.'.$.$.'.$.'.C u b k 7 b 6 D b 6 '.-.H _.,.;.$.j 6 = , 7 , 1 7 < 6 1 8 ' , ' ( ( ' ( (   ) @ ! ) . . . ) & ' ; , < a 7 ' . & ' , 7 d ; . $ c ) c ~ n ! ! _ _ ] ] _ ~ c @ ! . W ; u -.(+;+; ; & . c @ ! o . ( 9   ' ' , , , J J 1 J J z < 8 , < 4 < | 6 } $.u C $.'.$.$.'.$.'.C u b k 7 b 6 D b 6 '.-.H _.,.;.$.j 6 = , 7 , 1 7 < 6 1 8 ' , ' ( ( ' ( (   ) @ ! ) . . . ) & ' ; , < a 7 ' . & ' , 7 d ; . $ c ) c ~ n ! ! _ _ ] ] _ ~ c @ ! . W ; u -.(+;+; ; & . c @ ! o . ( 9   ' ' , , , J J 1 J J z < 8 , < 4 < | 6 } $.u C $.'.$.$.'.$.'.C u b k 7 b 6 D b 6 '.-.H _.,.;.$.j 6 = , 7 , 1 7 < 6 1 8 ' , ' ( ( ' ( (   ) @ ! ) . . . ) & ' ; , < a 7 ' . & ' , 7 d ; . $ c ) c ~ n ! ! _ _ ] ] _ ~ c @ ! ",
"c c ) n ] 0.^ @ _ ^ ] ~ c ] n . ' d 7 } =.:+M a & 9 @ @ @ @ ) 2     ( ' ' 8 d 0 , J 1 < J J < 7 , 7 7 7 6 } H U #.,.C }.3.L.3._.H *.;.H j j C Q N U =.*.U -.u -.u 7 l , ; l , ; ' & & 8 8 , 0 E ' ( : ( ) ! ! ! @ ! @ ! @ . @ . ( & , 7 , ' ; % . & ' ' & % . . c c ) n ] 0.^ @ _ ^ ] ~ c ] n . ' d 7 } =.:+M a & 9 @ @ @ @ ) 2     ( ' ' 8 d 0 , J 1 < J J < 7 , 7 7 7 6 } H U #.,.C }.3.L.3._.H *.;.H j j C Q N U =.*.U -.u -.u 7 l , ; l , ; ' & & 8 8 , 0 E ' ( : ( ) ! ! ! @ ! @ ! @ . @ . ( & , 7 , ' ; % . & ' ' & % . . c c ) n ] 0.^ @ _ ^ ] ~ c ] n . ' d 7 } =.:+M a & 9 @ @ @ @ ) 2     ( ' ' 8 d 0 , J 1 < J J < 7 , 7 7 7 6 } H U #.,.C }.3.L.3._.H *.;.H j j C Q N U =.*.U -.u -.u 7 l , ; l , ; ' & & 8 8 , 0 E ' ( : ( ) ! ! ! @ ! @ ! @ . @ . ( & , 7 , ' ; % . & ' ' & % . . c c ) n ] 0.^ @ _ ^ ] ~ c ] n . ",
"c ] c _ c _ ] _ { ] ^ ^ ~ { . ( d . 4 D o+i } * , . ) ) @ ! 2 f ) ( ( : , E , , 6 1 b b 1 6 a 7 7 a a 6 C #.'+'+8.o.8.].<.<.5.t.].U =.,.#.U -.u b 6 i 6 b b b 1 , , 0 ' ' & ( ( ( 0 E ' E E E : : x   y g.2 ) c ! n @ ! . ) ) ( & ' , ' 0 d 0 & 9 & ' ' ( . . . c ] c _ c _ ] _ { ] ^ ^ ~ { . ( d . 4 D o+i } * , . ) ) @ ! 2 f ) ( ( : , E , , 6 1 b b 1 6 a 7 7 a a 6 C #.'+'+8.o.8.].<.<.5.t.].U =.,.#.U -.u b 6 i 6 b b b 1 , , 0 ' ' & ( ( ( 0 E ' E E E : : x   y g.2 ) c ! n @ ! . ) ) ( & ' , ' 0 d 0 & 9 & ' ' ( . . . c ] c _ c _ ] _ { ] ^ ^ ~ { . ( d . 4 D o+i } * , . ) ) @ ! 2 f ) ( ( : , E , , 6 1 b b 1 6 a 7 7 a a 6 C #.'+'+8.o.8.].<.<.5.t.].U =.,.#.U -.u b 6 i 6 b b b 1 , , 0 ' ' & ( ( ( 0 E ' E E E : : x   y g.2 ) c ! n @ ! . ) ) ( & ' , ' 0 d 0 & 9 & ' ' ( . . . c ] c _ c _ ] _ { ] ^ ^ ~ { . ( ",
"c n ] ] ^ ^ ^ ] _ ^ ^ _ @ c @ )   ; < u :+:+* , % . @ ) @ 2 ( 2 ( x ( : ' , , , a b 1 i b D D i b 1 j '.]+,.,.<._.{.{.{.{.{.}.8+'.i 6 } C i b , 7 a 7 a 7 , 7 , , ' 0 ' 0 ( ( ( ( ( x 2 x : P x : : x : x x K ! ) ! c ) ) .   ' ' , 0 ' & ; ( 9 & ( ' &   . . . c n ] ] ^ ^ ^ ] _ ^ ^ _ @ c @ )   ; < u :+:+* , % . @ ) @ 2 ( 2 ( x ( : ' , , , a b 1 i b D D i b 1 j '.]+,.,.<._.{.{.{.{.{.}.8+'.i 6 } C i b , 7 a 7 a 7 , 7 , , ' 0 ' 0 ( ( ( ( ( x 2 x : P x : : x : x x K ! ) ! c ) ) .   ' ' , 0 ' & ; ( 9 & ( ' &   . . . c n ] ] ^ ^ ^ ] _ ^ ^ _ @ c @ )   ; < u :+:+* , % . @ ) @ 2 ( 2 ( x ( : ' , , , a b 1 i b D D i b 1 j '.]+,.,.<._.{.{.{.{.{.}.8+'.i 6 } C i b , 7 a 7 a 7 , 7 , , ' 0 ' 0 ( ( ( ( ( x 2 x : P x : : x : x x K ! ) ! c ) ) .   ' ' , 0 ' & ; ( 9 & ( ' &   . . . c n ] ] ^ ^ ^ ] _ ^ ^ _ @ c @ ) ",
"! @ ] ^ ] ^ ] ^ ~ ^ ] ~ { c @ . ' ' ; } p+o+w * & . & ( ( ( 0 ( ( ( ( ' 7 1 i i j i [ '.-.Q $.j '.C C p+-.p+v ;+j b 2+;+[.8+[.2+a a b 1 6 1 7 = * , l 0 ' 0 ' 0 ' : ' ' ( ( ( ( ) ( ( y 2 x x Y.: x x x x K 2 ) ) ! ! ! ) ) . ( 0 0 ' ( & ( & & ( & . ( . 2 . @ ! @ ] ^ ] ^ ] ^ ~ ^ ] ~ { c @ . ' ' ; } p+o+w * & . & ( ( ( 0 ( ( ( ( ' 7 1 i i j i [ '.-.Q $.j '.C C p+-.p+v ;+j b 2+;+[.8+[.2+a a b 1 6 1 7 = * , l 0 ' 0 ' 0 ' : ' ' ( ( ( ( ) ( ( y 2 x x Y.: x x x x K 2 ) ) ! ! ! ) ) . ( 0 0 ' ( & ( & & ( & . ( . 2 . @ ! @ ] ^ ] ^ ] ^ ~ ^ ] ~ { c @ . ' ' ; } p+o+w * & . & ( ( ( 0 ( ( ( ( ' 7 1 i i j i [ '.-.Q $.j '.C C p+-.p+v ;+j b 2+;+[.8+[.2+a a b 1 6 1 7 = * , l 0 ' 0 ' 0 ' : ' ' ( ( ( ( ) ( ( y 2 x x Y.: x x x x K 2 ) ) ! ! ! ) ) . ( 0 0 ' ( & ( & & ( & . ( . 2 . @ ! @ ] ^ ] ^ ] ^ ~ ^ ] ~ { c @ . ",
". ! _ ] ] ^ _ ] { ] ^ ~ c @ @ ) d ' * } >.q+= * * & ' : ' , , }+J , * 0 , a 1 6 6 ;+j H ,.,.*.2.v C C } i D b k 2+a 2+a a+a+b b , , 7 I , J a , ; ; ; ( ' ( ' 0 p , 8 0 ' ' ' ( 2 ( x ( ) 2 x x x x x x ( y ) ++2 ! ) @ ) . ) ( ' ' e 2 & ; 0 ' ' & & % ( & ) @ . ! _ ] ] ^ _ ] { ] ^ ~ c @ @ ) d ' * } >.q+= * * & ' : ' , , }+J , * 0 , a 1 6 6 ;+j H ,.,.*.2.v C C } i D b k 2+a 2+a a+a+b b , , 7 I , J a , ; ; ; ( ' ( ' 0 p , 8 0 ' ' ' ( 2 ( x ( ) 2 x x x x x x ( y ) ++2 ! ) @ ) . ) ( ' ' e 2 & ; 0 ' ' & & % ( & ) @ . ! _ ] ] ^ _ ] { ] ^ ~ c @ @ ) d ' * } >.q+= * * & ' : ' , , }+J , * 0 , a 1 6 6 ;+j H ,.,.*.2.v C C } i D b k 2+a 2+a a+a+b b , , 7 I , J a , ; ; ; ( ' ( ' 0 p , 8 0 ' ' ' ( 2 ( x ( ) 2 x x x x x x ( y ) ++2 ! ) @ ) . ) ( ' ' e 2 & ; 0 ' ' & & % ( & ) @ . ! _ ] ] ^ _ ] { ] ^ ~ c @ @ ) ",
"! @ @ @ ] ~ ^ ] { ~ ] ] ~ c ! ( ( 7 6 =.4+]+a b 0 & ; ' * < b , = * , a D f+C ]+N ,.,.=.'.| , W 1 6 1 a 7 7 7 a , 7 I = * * 7 0+, a , * = | 1 7 * ; ( & ' ' 0 : 0 d ' 8 ' E : E ' x : ( ( 2 ( x : : : x x x y 2 x ) ) 2 ) . 2 ( ( ( e ; 0 ( * 0 ; ( ; e ' ( % f ! @ @ @ ] ~ ^ ] { ~ ] ] ~ c ! ( ( 7 6 =.4+]+a b 0 & ; ' * < b , = * , a D f+C ]+N ,.,.=.'.| , W 1 6 1 a 7 7 7 a , 7 I = * * 7 0+, a , * = | 1 7 * ; ( & ' ' 0 : 0 d ' 8 ' E : E ' x : ( ( 2 ( x : : : x x x y 2 x ) ) 2 ) . 2 ( ( ( e ; 0 ( * 0 ; ( ; e ' ( % f ! @ @ @ ] ~ ^ ] { ~ ] ] ~ c ! ( ( 7 6 =.4+]+a b 0 & ; ' * < b , = * , a D f+C ]+N ,.,.=.'.| , W 1 6 1 a 7 7 7 a , 7 I = * * 7 0+, a , * = | 1 7 * ; ( & ' ' 0 : 0 d ' 8 ' E : E ' x : ( ( 2 ( x : : : x x x y 2 x ) ) 2 ) . 2 ( ( ( e ; 0 ( * 0 ; ( ; e ' ( % f ! @ @ @ ] ~ ^ ] { ~ ] ] ~ c ! ( ",
"@ @ @ ! ~ ] ~ ^ ! { ] ~ @ ! ) ' d } [ r+=.C a+a+= = = , | j C [.D [.{.-._.)+,.4+=.]+u 6 7 d , | d , d , d , , d , , , d , , 7 < 7 J 7 , , 6 6 6 d ; ; & ( ( ' ' ' ' , ' d 8 , 8 p 0 ' 0 : x ( ' ( ' E x ' y ( g.x y 2 ) % ) 9 ( ( 2 ( 0 0 * ( ; 0 * 0 , 0 e & f @ @ @ ! ~ ] ~ ^ ! { ] ~ @ ! ) ' d } [ r+=.C a+a+= = = , | j C [.D [.{.-._.)+,.4+=.]+u 6 7 d , | d , d , d , , d , , , d , , 7 < 7 J 7 , , 6 6 6 d ; ; & ( ( ' ' ' ' , ' d 8 , 8 p 0 ' 0 : x ( ' ( ' E x ' y ( g.x y 2 ) % ) 9 ( ( 2 ( 0 0 * ( ; 0 * 0 , 0 e & f @ @ @ ! ~ ] ~ ^ ! { ] ~ @ ! ) ' d } [ r+=.C a+a+= = = , | j C [.D [.{.-._.)+,.4+=.]+u 6 7 d , | d , d , d , , d , , , d , , 7 < 7 J 7 , , 6 6 6 d ; ; & ( ( ' ' ' ' , ' d 8 , 8 p 0 ' 0 : x ( ' ( ' E x ' y ( g.x y 2 ) % ) 9 ( ( 2 ( 0 0 * ( ; 0 * 0 , 0 e & f @ @ @ ! ~ ] ~ ^ ! { ] ~ @ ! ) ' ",
". @ @ ~ ~ ~ ~ c ! @ @ ! ) ) ( ' < [ '.N ^+)+1+= k k | D j 2.K.]+d.<.R.<.d.6.]+_.-.j b = d , d ' d d , 7 d d ( ( '   ( ' ' : 0 ' 7 a 7 7 7 7 6 j 7 , ' 9 ( ( ( ( & ( ; ' ' d , p , ' : , < d ' ' ( x ' x ( ( x 2 ( ( ) 2 . . % ) & 2 % e ' ' * 0 * , , 0 0 & % % . @ @ ~ ~ ~ ~ c ! @ @ ! ) ) ( ' < [ '.N ^+)+1+= k k | D j 2.K.]+d.<.R.<.d.6.]+_.-.j b = d , d ' d d , 7 d d ( ( '   ( ' ' : 0 ' 7 a 7 7 7 7 6 j 7 , ' 9 ( ( ( ( & ( ; ' ' d , p , ' : , < d ' ' ( x ' x ( ( x 2 ( ( ) 2 . . % ) & 2 % e ' ' * 0 * , , 0 0 & % % . @ @ ~ ~ ~ ~ c ! @ @ ! ) ) ( ' < [ '.N ^+)+1+= k k | D j 2.K.]+d.<.R.<.d.6.]+_.-.j b = d , d ' d d , 7 d d ( ( '   ( ' ' : 0 ' 7 a 7 7 7 7 6 j 7 , ' 9 ( ( ( ( & ( ; ' ' d , p , ' : , < d ' ' ( x ' x ( ( x 2 ( ( ) 2 . . % ) & 2 % e ' ' * 0 * , , 0 0 & % % . @ @ ~ ~ ~ ~ c ! @ @ ! ) ) ( ' ",
"2 . @ @ @ ! @ ! @ ] @ ) 9 ( ' ' ; k N _.1+d.{.[.2+!+D j }.)+R.d.f.m+d.s+{.[.D ;+| b | < 8 d p d 0 ' d p < , d ' ' , 8 ' ( ( : < J 6 j j i D u H 1 7 d ' 9 ( 9   . . 9 ( ( ' ' d , ' ' , < , d 0 ' : E E : x ' x ( ) ) . ) @ c % ) f % ( 0 ' 0 , , , , 0 & t+2 % 2 . @ @ @ ! @ ! @ ] @ ) 9 ( ' ' ; k N _.1+d.{.[.2+!+D j }.)+R.d.f.m+d.s+{.[.D ;+| b | < 8 d p d 0 ' d p < , d ' ' , 8 ' ( ( : < J 6 j j i D u H 1 7 d ' 9 ( 9   . . 9 ( ( ' ' d , ' ' , < , d 0 ' : E E : x ' x ( ) ) . ) @ c % ) f % ( 0 ' 0 , , , , 0 & t+2 % 2 . @ @ @ ! @ ! @ ] @ ) 9 ( ' ' ; k N _.1+d.{.[.2+!+D j }.)+R.d.f.m+d.s+{.[.D ;+| b | < 8 d p d 0 ' d p < , d ' ' , 8 ' ( ( : < J 6 j j i D u H 1 7 d ' 9 ( 9   . . 9 ( ( ' ' d , ' ' , < , d 0 ' : E E : x ' x ( ) ) . ) @ c % ) f % ( 0 ' 0 , , , , 0 & t+2 % 2 . @ @ @ ! @ ! @ ] @ ) 9 ( ' ' ",
"9 ) . . ) 9 ) . . ( ( ) ( ( ( ; l a+2.s+'.u+{.u+[.7.1+~+m.o.]+~+C _.-.{.i D 1 6 J < 4 < , p ' p < 1 4 1 < < 7 < 4 1 4 J 7 , 4 1 D i j 1 a b 1 b u 1 ; , @ ' ( @ ' x e ( ( ( 0 0 ' , , < 1 7 0 7 8 ( 8 < : ' 8 : 8 ( ) ! ) ) ) ( . % 2 }+0 * * ; 0 = 0 , 0 0 & 2 9 ) . . ) 9 ) . . ( ( ) ( ( ( ; l a+2.s+'.u+{.u+[.7.1+~+m.o.]+~+C _.-.{.i D 1 6 J < 4 < , p ' p < 1 4 1 < < 7 < 4 1 4 J 7 , 4 1 D i j 1 a b 1 b u 1 ; , @ ' ( @ ' x e ( ( ( 0 0 ' , , < 1 7 0 7 8 ( 8 < : ' 8 : 8 ( ) ! ) ) ) ( . % 2 }+0 * * ; 0 = 0 , 0 0 & 2 9 ) . . ) 9 ) . . ( ( ) ( ( ( ; l a+2.s+'.u+{.u+[.7.1+~+m.o.]+~+C _.-.{.i D 1 6 J < 4 < , p ' p < 1 4 1 < < 7 < 4 1 4 J 7 , 4 1 D i j 1 a b 1 b u 1 ; , @ ' ( @ ' x e ( ( ( 0 0 ' , , < 1 7 0 7 8 ( 8 < : ' 8 : 8 ( ) ! ) ) ) ( . % 2 }+0 * * ; 0 = 0 , 0 0 & 2 9 ) . . ) 9 ) . . ( ( ) ( ( ( ; ",
". . @ . . @ @ $ ( ' ' 9 & & & * D ;+{.~+[.~+d.}.v+_.d.R.L.,.[.8+j 8+'.[ 1 b 1 J < < < 8 p d : d 7 = , , 7 , = ' = , , l , ' = , 7 b D b 7 a a a b +., & d ' ' 8 ( ( ( ( 0 8 8 8 < 8 < 7 1 | 7 J 1 < 8 J 1 z 1 p ' ( .   . ) . ) o % % & 0 0 0 * * , , 0 & @ @ f . . @ . . @ @ $ ( ' ' 9 & & & * D ;+{.~+[.~+d.}.v+_.d.R.L.,.[.8+j 8+'.[ 1 b 1 J < < < 8 p d : d 7 = , , 7 , = ' = , , l , ' = , 7 b D b 7 a a a b +., & d ' ' 8 ( ( ( ( 0 8 8 8 < 8 < 7 1 | 7 J 1 < 8 J 1 z 1 p ' ( .   . ) . ) o % % & 0 0 0 * * , , 0 & @ @ f . . @ . . @ @ $ ( ' ' 9 & & & * D ;+{.~+[.~+d.}.v+_.d.R.L.,.[.8+j 8+'.[ 1 b 1 J < < < 8 p d : d 7 = , , 7 , = ' = , , l , ' = , 7 b D b 7 a a a b +., & d ' ' 8 ( ( ( ( 0 8 8 8 < 8 < 7 1 | 7 J 1 < 8 J 1 z 1 p ' ( .   . ) . ) o % % & 0 0 0 * * , , 0 & @ @ f . . @ . . @ @ $ ( ' ' 9 & & & * ",
"c @ c @ @ . @ c $ ( 0 ' 0 9 & , = [.*._.]+n.t.s+6.{.[.0+2+a+2+j i D 6 b b 1 1 < < 8 8 d ' ' ' ' ( ; d ; 0 ; ' ; ' 0 d , ' ; ' ; = , 7 b 7 = 7 7 < +.6 , , 9 ( ' , 0 0 , , , , * 7 b 1 i u 6 b 6 6 j 6 1 6 6 < 0 ' &   ( 2 . ) . o 2 f 2 & ' 0 0 ' , , ' f / ~ @ c @ c @ @ . @ c $ ( 0 ' 0 9 & , = [.*._.]+n.t.s+6.{.[.0+2+a+2+j i D 6 b b 1 1 < < 8 8 d ' ' ' ' ( ; d ; 0 ; ' ; ' 0 d , ' ; ' ; = , 7 b 7 = 7 7 < +.6 , , 9 ( ' , 0 0 , , , , * 7 b 1 i u 6 b 6 6 j 6 1 6 6 < 0 ' &   ( 2 . ) . o 2 f 2 & ' 0 0 ' , , ' f / ~ @ c @ c @ @ . @ c $ ( 0 ' 0 9 & , = [.*._.]+n.t.s+6.{.[.0+2+a+2+j i D 6 b b 1 1 < < 8 8 d ' ' ' ' ( ; d ; 0 ; ' ; ' 0 d , ' ; ' ; = , 7 b 7 = 7 7 < +.6 , , 9 ( ' , 0 0 , , , , * 7 b 1 i u 6 b 6 6 j 6 1 6 6 < 0 ' &   ( 2 . ) . o 2 f 2 & ' 0 0 ' , , ' f / ~ @ c @ c @ @ . @ c $ ( 0 ' 0 9 & , ",
"c @ @ @ . ) . % . & ( ' , 0 ' b a j !.w+o._.7.8+j 2+a+k a+= a k D [ ;+6 6 6 1 1 p , ' (       . & & ; ( ; ; ' & ; ; ' ; 0 ; ' ; ; & = , 7 ; = , * & u 5 , , 6 ; J 7 7 b < a 7 b , 6 j '.C '.i j.2+C {.j [.i b 6 7 0 0 e ( 2 @ 2 ! f ! % 2 }+' , , , 8 e . f @ o c @ @ @ . ) . % . & ( ' , 0 ' b a j !.w+o._.7.8+j 2+a+k a+= a k D [ ;+6 6 6 1 1 p , ' (       . & & ; ( ; ; ' & ; ; ' ; 0 ; ' ; ; & = , 7 ; = , * & u 5 , , 6 ; J 7 7 b < a 7 b , 6 j '.C '.i j.2+C {.j [.i b 6 7 0 0 e ( 2 @ 2 ! f ! % 2 }+' , , , 8 e . f @ o c @ @ @ . ) . % . & ( ' , 0 ' b a j !.w+o._.7.8+j 2+a+k a+= a k D [ ;+6 6 6 1 1 p , ' (       . & & ; ( ; ; ' & ; ; ' ; 0 ; ' ; ; & = , 7 ; = , * & u 5 , , 6 ; J 7 7 b < a 7 b , 6 j '.C '.i j.2+C {.j [.i b 6 7 0 0 e ( 2 @ 2 ! f ! % 2 }+' , , , 8 e . f @ o c @ @ @ . ) . % . & ( ' , 0 ' b ",
"@ @ . . 2 % ( & 8 0 & & , J 1 } -.o+].j M j C a+1+k b [.D b b = D j '.u 6 6 1 < , : ' ( ( . 2 .   % & ( & ( & ( & 2 & . % % & & ; & ; = , ; & d 7 3 Y } 7 1 a , ; = k b | b j '.-.=.*.*.N *.Q d._.n.n._.~+'.0+;+1 a , 0 e % % 2 @ ! f ) % ( ' 0 7 J , ( ( 2 ) f @ @ . . 2 % ( & 8 0 & & , J 1 } -.o+].j M j C a+1+k b [.D b b = D j '.u 6 6 1 < , : ' ( ( . 2 .   % & ( & ( & ( & 2 & . % % & & ; & ; = , ; & d 7 3 Y } 7 1 a , ; = k b | b j '.-.=.*.*.N *.Q d._.n.n._.~+'.0+;+1 a , 0 e % % 2 @ ! f ) % ( ' 0 7 J , ( ( 2 ) f @ @ . . 2 % ( & 8 0 & & , J 1 } -.o+].j M j C a+1+k b [.D b b = D j '.u 6 6 1 < , : ' ( ( . 2 .   % & ( & ( & ( & 2 & . % % & & ; & ; = , ; & d 7 3 Y } 7 1 a , ; = k b | b j '.-.=.*.*.N *.Q d._.n.n._.~+'.0+;+1 a , 0 e % % 2 @ ! f ) % ( ' 0 7 J , ( ( 2 ) f @ @ . . 2 % ( & 8 0 & & , J 1 } ",
"% . % . % . & ( & , 7 a } u u u j i b i D 2+k b b b D b = a j 8+6 '.v u 6 1 < , 8 8 ' (   ( 9 ) % ) % . % 2 & 2 & % @ @ . ) % ( & & & ; ' ; ; ; 1 J =.j } j 7 j [.j.'.}.-.{.2.*.<.,.<.*.*.*.*.<.x+n.x+<.)+_.}.;+j i J I 0 }+2 e ! 2 2 ) & ( ; d 1 1 < ' & ( % @ % . % . % . & ( & , 7 a } u u u j i b i D 2+k b b b D b = a j 8+6 '.v u 6 1 < , 8 8 ' (   ( 9 ) % ) % . % 2 & 2 & % @ @ . ) % ( & & & ; ' ; ; ; 1 J =.j } j 7 j [.j.'.}.-.{.2.*.<.,.<.*.*.*.*.<.x+n.x+<.)+_.}.;+j i J I 0 }+2 e ! 2 2 ) & ( ; d 1 1 < ' & ( % @ % . % . % . & ( & , 7 a } u u u j i b i D 2+k b b b D b = a j 8+6 '.v u 6 1 < , 8 8 ' (   ( 9 ) % ) % . % 2 & 2 & % @ @ . ) % ( & & & ; ' ; ; ; 1 J =.j } j 7 j [.j.'.}.-.{.2.*.<.,.<.*.*.*.*.<.x+n.x+<.)+_.}.;+j i J I 0 }+2 e ! 2 2 ) & ( ; d 1 1 < ' & ( % @ % . % . % . & ( & , 7 a } u u u ",
"& ( & ( * ' , b , i } j C :+8+i 6 7 = k 7 a k 7 b [.u {.u '.v -.[ j [ 6 6 1 , p 8 ' ( ) . ) ) . @ . . ! . . . ) . @ . . % (   % 9   & 9 ( ; ' & & l 1 C u j C *.N <.<.,.R.*.=.*.j {.j D b D ;+j ^+7.{.6._.s+=.C j i b 1 , e & 0 2 ) ( & ( & ' , a 6 1 , ' ' ( ( & ( & ( * ' , b , i } j C :+8+i 6 7 = k 7 a k 7 b [.u {.u '.v -.[ j [ 6 6 1 , p 8 ' ( ) . ) ) . @ . . ! . . . ) . @ . . % (   % 9   & 9 ( ; ' & & l 1 C u j C *.N <.<.,.R.*.=.*.j {.j D b D ;+j ^+7.{.6._.s+=.C j i b 1 , e & 0 2 ) ( & ( & ' , a 6 1 , ' ' ( ( & ( & ( * ' , b , i } j C :+8+i 6 7 = k 7 a k 7 b [.u {.u '.v -.[ j [ 6 6 1 , p 8 ' ( ) . ) ) . @ . . ! . . . ) . @ . . % (   % 9   & 9 ( ; ' & & l 1 C u j C *.N <.<.,.R.*.=.*.j {.j D b D ;+j ^+7.{.6._.s+=.C j i b 1 , e & 0 2 ) ( & ( & ' , a 6 1 , ' ' ( ( & ( & ( * ' , b , i } j C :+8+i ",
"; 0 = , , b i '.:+N *.j j j D | - 7 7 7 b k 7 D j '.$.C -.-.'.u [ 6 6 b 1 1 < ' ' ( . . ! @ @ ~ . o . @ . @ ) @ @ @ ~ . ) . 2 ) . 9 ( . 9 ' ' ; 9 ; , N b * ]+8+2.{.}.{.-.'.1+a+k D D 7 a+a 7 b ;+D {.]+i 2+D a D i 1  .7 , * ' & ( ' ' ' ; l , 7 6 [ 7 , , , 0 ; 0 = , , b i '.:+N *.j j j D | - 7 7 7 b k 7 D j '.$.C -.-.'.u [ 6 6 b 1 1 < ' ' ( . . ! @ @ ~ . o . @ . @ ) @ @ @ ~ . ) . 2 ) . 9 ( . 9 ' ' ; 9 ; , N b * ]+8+2.{.}.{.-.'.1+a+k D D 7 a+a 7 b ;+D {.]+i 2+D a D i 1  .7 , * ' & ( ' ' ' ; l , 7 6 [ 7 , , , 0 ; 0 = , , b i '.:+N *.j j j D | - 7 7 7 b k 7 D j '.$.C -.-.'.u [ 6 6 b 1 1 < ' ' ( . . ! @ @ ~ . o . @ . @ ) @ @ @ ~ . ) . 2 ) . 9 ( . 9 ' ' ; 9 ; , N b * ]+8+2.{.}.{.-.'.1+a+k D D 7 a+a 7 b ;+D {.]+i 2+D a D i 1  .7 , * ' & ( ' ' ' ; l , 7 6 [ 7 , , , 0 ; 0 = , , b i '.:+N *.j j j D | ",
"a+a b b j =.'+,+].)+{.'.j [.'.8+[ i [.6 j j j '.-.*.N *.=.=.}.i D 6 | , , 7 , ' ' 2 . ! @ ) ! @ ) @ @ { @ ! @ ~ ! @ ~ @ ) 2 ( . ( ) . . . . . $ ' * ; '.u a+D ;+j.[.'.j.b b b | , = * = , , 7 , | 7 7 7 7 7 , k a 7 7 b 1 1 7 ; ' ' ' , 7 7 k !+| D j D a 7 b | a+a b b j =.'+,+].)+{.'.j [.'.8+[ i [.6 j j j '.-.*.N *.=.=.}.i D 6 | , , 7 , ' ' 2 . ! @ ) ! @ ) @ @ { @ ! @ ~ ! @ ~ @ ) 2 ( . ( ) . . . . . $ ' * ; '.u a+D ;+j.[.'.j.b b b | , = * = , , 7 , | 7 7 7 7 7 , k a 7 7 b 1 1 7 ; ' ' ' , 7 7 k !+| D j D a 7 b | a+a b b j =.'+,+].)+{.'.j [.'.8+[ i [.6 j j j '.-.*.N *.=.=.}.i D 6 | , , 7 , ' ' 2 . ! @ ) ! @ ) @ @ { @ ! @ ~ ! @ ~ @ ) 2 ( . ( ) . . . . . $ ' * ; '.u a+D ;+j.[.'.j.b b b | , = * = , , 7 , | 7 7 7 7 7 , k a 7 7 b 1 1 7 ; ' ' ' , 7 7 k !+| D j D a 7 b | a+a b b j =.'+,+].)+{.'.j [.'.8+",
"}.C C -.=.d+5.].]+'.D D ;+D D [.b D b b D 6 i 6 j $.C =.2.=.2.-.u '.1 7 , < 8 ' ( 2 ! @ ! @ @ ] ! ~ ] ~ ] ~ ~ ] ~ ] @ @ 2 ) ! ] @ @ @ c @ c @ g 9 ' ; 6 C j ;+2+b D D b b k 7 = = 0 ; & & ' 0 0 ' ' ' ( ; & ; ( ; ; , 7 | | 7 , 7 7 , l l = y+e+| [.'.'.j.j j v }.C C -.=.d+5.].]+'.D D ;+D D [.b D b b D 6 i 6 j $.C =.2.=.2.-.u '.1 7 , < 8 ' ( 2 ! @ ! @ @ ] ! ~ ] ~ ] ~ ~ ] ~ ] @ @ 2 ) ! ] @ @ @ c @ c @ g 9 ' ; 6 C j ;+2+b D D b b k 7 = = 0 ; & & ' 0 0 ' ' ' ( ; & ; ( ; ; , 7 | | 7 , 7 7 , l l = y+e+| [.'.'.j.j j v }.C C -.=.d+5.].]+'.D D ;+D D [.b D b b D 6 i 6 j $.C =.2.=.2.-.u '.1 7 , < 8 ' ( 2 ! @ ! @ @ ] ! ~ ] ~ ] ~ ~ ] ~ ] @ @ 2 ) ! ] @ @ @ c @ c @ g 9 ' ; 6 C j ;+2+b D D b b k 7 = = 0 ; & & ' 0 0 ' ' ' ( ; & ; ( ; ; , 7 | | 7 , 7 7 , l l = y+e+| [.'.'.j.j j v }.C C -.=.d+5.].]+'.D D ;+D D [.",
"=._.{.j [.2+k k b k k k !+k k 7 k 7 7 , 7 7 7 | b b [ '.$.-.2.=.D.H u 6 < 7 d ' ( ) @ ! @ ! ~ ^ ~ ] ^ + ~ ] ~ ] ] ~ ~ ! @ @ ~ ] ~ ] ~ ] ] ] + @ @ . ; a C ]+2+= k 7 | 7 = , , ; ' & & 2 & & ( ( ) 2 . ) . ) 9   9 & d l ; ; l l , 7 7 7 | j.j.j.D {.*.*._.]+-.-.=._.{.j [.2+k k b k k k !+k k 7 k 7 7 , 7 7 7 | b b [ '.$.-.2.=.D.H u 6 < 7 d ' ( ) @ ! @ ! ~ ^ ~ ] ^ + ~ ] ~ ] ] ~ ~ ! @ @ ~ ] ~ ] ~ ] ] ] + @ @ . ; a C ]+2+= k 7 | 7 = , , ; ' & & 2 & & ( ( ) 2 . ) . ) 9   9 & d l ; ; l l , 7 7 7 | j.j.j.D {.*.*._.]+-.-.=._.{.j [.2+k k b k k k !+k k 7 k 7 7 , 7 7 7 | b b [ '.$.-.2.=.D.H u 6 < 7 d ' ( ) @ ! @ ! ~ ^ ~ ] ^ + ~ ] ~ ] ] ~ ~ ! @ @ ~ ] ~ ] ~ ] ] ] + @ @ . ; a C ]+2+= k 7 | 7 = , , ; ' & & 2 & & ( ( ) 2 . ) . ) 9   9 & d l ; ; l l , 7 7 7 | j.j.j.D {.*.*._.]+-.-.=._.{.j [.2+k k b k k k !+k k 7 ",
"{.6 2+= k !+a k = = = = = ; * ; ; ; ; & ; ; * ; 7 7 7 [ '.[ '.'.H &.u } 5 4 8 ( ( 2 ) ~ @ ~ ] ~ ] + ~ ^ ] ~ ] ~ @ ! @ c { ] @ @ ~ ] @ ] + ^ ] c + . ' ; +.*.a = = , = , d , ; ' ; ( . . % ) % ) @ ) ! c ) ) 9 ( . ' ' ' & A 9 ' ; 7 6 j '.-.-.~+7.6.K.s+-.{.{.{.{.6 2+= k !+a k = = = = = ; * ; ; ; ; & ; ; * ; 7 7 7 [ '.[ '.'.H &.u } 5 4 8 ( ( 2 ) ~ @ ~ ] ~ ] + ~ ^ ] ~ ] ~ @ ! @ c { ] @ @ ~ ] @ ] + ^ ] c + . ' ; +.*.a = = , = , d , ; ' ; ( . . % ) % ) @ ) ! c ) ) 9 ( . ' ' ' & A 9 ' ; 7 6 j '.-.-.~+7.6.K.s+-.{.{.{.{.6 2+= k !+a k = = = = = ; * ; ; ; ; & ; ; * ; 7 7 7 [ '.[ '.'.H &.u } 5 4 8 ( ( 2 ) ~ @ ~ ] ~ ] + ~ ^ ] ~ ] ~ @ ! @ c { ] @ @ ~ ] @ ] + ^ ] c + . ' ; +.*.a = = , = , d , ; ' ; ( . . % ) % ) @ ) ! c ) ) 9 ( . ' ' ' & A 9 ' ; 7 6 j '.-.-.~+7.6.K.s+-.{.{.{.{.6 2+= k !+a k = = = = = ; * ; ",
"*.C D = * l ; > = d 0 ' ; & & & & . & . %   & ( ' ; , 1 6 6 1 6 6 6 1 6 6 z < 8 ( ) ~ ~ ] ~ ~ ~ ] m ] ] ^ ~ c @ ! @ ! ~ c ~ _ @ ] m ] ^ ^ ^ 0.] ] @ ' ; i =.b a+; ; ; d ' ' ; ' ( % . @ . @ @ @ ! c ! c @ ! . ) . ) & 9 . & & ' ; 7 6 6 j }.{.'.<.N s+C 8+8+C ]+*.C D = * l ; > = d 0 ' ; & & & & . & . %   & ( ' ; , 1 6 6 1 6 6 6 1 6 6 z < 8 ( ) ~ ~ ] ~ ~ ~ ] m ] ] ^ ~ c @ ! @ ! ~ c ~ _ @ ] m ] ^ ^ ^ 0.] ] @ ' ; i =.b a+; ; ; d ' ' ; ' ( % . @ . @ @ @ ! c ! c @ ! . ) . ) & 9 . & & ' ; 7 6 6 j }.{.'.<.N s+C 8+8+C ]+*.C D = * l ; > = d 0 ' ; & & & & . & . %   & ( ' ; , 1 6 6 1 6 6 6 1 6 6 z < 8 ( ) ~ ~ ] ~ ~ ~ ] m ] ] ^ ~ c @ ! @ ! ~ c ~ _ @ ] m ] ^ ^ ^ 0.] ] @ ' ; i =.b a+; ; ; d ' ' ; ' ( % . @ . @ @ @ ! c ! c @ ! . ) . ) & 9 . & & ' ; 7 6 6 j }.{.'.<.N s+C 8+8+C ]+*.C D = * l ; > = d 0 ' ; & & & ",
"b , * > ; * * 0 & ; ( & % ( & ( . % @ . @ f @ 2 % 2 0 < 1 1 6 6 [ 6 | < < < 8 8 2 ) @ ~ ^ m ~ ~ ~ ] ] ] ~ ] ~ ! ] @ ! ) ! ! ~ ] ~ ~ ~ ] ^ ^ ] ] ] .+( ( 7 '.i = ; 9 9 ; ; ' & ( 9 . @ @ @ @ @ c @ @ c @ . . . . ( 2 ) % . 2 . ( & ' * , k b [.'.<.)+d.]+]+-.]+8+b , * > ; * * 0 & ; ( & % ( & ( . % @ . @ f @ 2 % 2 0 < 1 1 6 6 [ 6 | < < < 8 8 2 ) @ ~ ^ m ~ ~ ~ ] ] ] ~ ] ~ ! ] @ ! ) ! ! ~ ] ~ ~ ~ ] ^ ^ ] ] ] .+( ( 7 '.i = ; 9 9 ; ; ' & ( 9 . @ @ @ @ @ c @ @ c @ . . . . ( 2 ) % . 2 . ( & ' * , k b [.'.<.)+d.]+]+-.]+8+b , * > ; * * 0 & ; ( & % ( & ( . % @ . @ f @ 2 % 2 0 < 1 1 6 6 [ 6 | < < < 8 8 2 ) @ ~ ^ m ~ ~ ~ ] ] ] ~ ] ~ ! ] @ ! ) ! ! ~ ] ~ ~ ~ ] ^ ^ ] ] ] .+( ( 7 '.i = ; 9 9 ; ; ' & ( 9 . @ @ @ @ @ c @ @ c @ . . . . ( 2 ) % . 2 . ( & ' * , k b [.'.<.)+d.]+]+-.]+8+b , * > ; * * 0 & ; ( & % ( & ( ",
"b a , ; ; & . $ % 2 . ! ) ) ) @ ! @ @ @ ! @ ! @ ! )   ( ' 4 5 5 u 6 4 7 7 d ' : ( 2 ! ! ~ ~ { ! ] @ @ @ ~ c ! ! ! ! . ) 2 ) @ ] o ! ~ m _ ] _ n @ ] . ' ; a j ; ; 9 . & ' 9 & ' 9 . . c @ c @ @ @ . .   . ) . % ) & 2 @ ! @ @ f & % & ; * 7 b {.j 7.f+8+{.v 0+- b a , ; ; & . $ % 2 . ! ) ) ) @ ! @ @ @ ! @ ! @ ! )   ( ' 4 5 5 u 6 4 7 7 d ' : ( 2 ! ! ~ ~ { ! ] @ @ @ ~ c ! ! ! ! . ) 2 ) @ ] o ! ~ m _ ] _ n @ ] . ' ; a j ; ; 9 . & ' 9 & ' 9 . . c @ c @ @ @ . .   . ) . % ) & 2 @ ! @ @ f & % & ; * 7 b {.j 7.f+8+{.v 0+- b a , ; ; & . $ % 2 . ! ) ) ) @ ! @ @ @ ! @ ! @ ! )   ( ' 4 5 5 u 6 4 7 7 d ' : ( 2 ! ! ~ ~ { ! ] @ @ @ ~ c ! ! ! ! . ) 2 ) @ ] o ! ~ m _ ] _ n @ ] . ' ; a j ; ; 9 . & ' 9 & ' 9 . . c @ c @ @ @ . .   . ) . % ) & 2 @ ! @ @ f & % & ; * 7 b {.j 7.f+8+{.v 0+- b a , ; ; & . $ % 2 . ! ) ) ) @ ",
"* * ; 0 & & e ' @ ! @ ! @ o ! ~ ! @ ! ~ ~ _ ! ! ) 2 @ @ % 8 1 5 1 7 d , 8 ( ( 2 ( x ( 2 ) ! @ ~ @ ) o ) ! @ ) ( ( 2 ! ) 2 ) 2 ) ! ~ ~ ^ ^ { ] ^ ! ] c ( & ' } > ' & 9 9 ;   ; ' ( ( @ . @ . . @ . . . % 9 % . . ~ @ ! @ ~ z+! 2 ( @ . 0 = * a f+v [.b D f+v ;+= * * ; 0 & & e ' @ ! @ ! @ o ! ~ ! @ ! ~ ~ _ ! ! ) 2 @ @ % 8 1 5 1 7 d , 8 ( ( 2 ( x ( 2 ) ! @ ~ @ ) o ) ! @ ) ( ( 2 ! ) 2 ) 2 ) ! ~ ~ ^ ^ { ] ^ ! ] c ( & ' } > ' & 9 9 ;   ; ' ( ( @ . @ . . @ . . . % 9 % . . ~ @ ! @ ~ z+! 2 ( @ . 0 = * a f+v [.b D f+v ;+= * * ; 0 & & e ' @ ! @ ! @ o ! ~ ! @ ! ~ ~ _ ! ! ) 2 @ @ % 8 1 5 1 7 d , 8 ( ( 2 ( x ( 2 ) ! @ ~ @ ) o ) ! @ ) ( ( 2 ! ) 2 ) 2 ) ! ~ ~ ^ ^ { ] ^ ! ] c ( & ' } > ' & 9 9 ;   ; ' ( ( @ . @ . . @ . . . % 9 % . . ~ @ ! @ ~ z+! 2 ( @ . 0 = * a f+v [.b D f+v ;+= * * ; 0 & & e ' @ ! @ ! @ o ! ~ ",
"7 0 , , ( 0 8 x 2 2 ) @ ! @ ) @ ! @ c ! ] + ^ c ] @ @ ] . < 1 J < < < p d : ( @ ) ) 2 2 2 ) ( ) ( % ( % 2 ) ( ( ) ( y ) ! n ! ! @ @ ! ! { ~ ^ ^ ^ ^ @ %   1 5 , ' . . 2   % . ( ' % . . % @ % % . % . . 2 . % ~ @ @ @ @ @ @ @ @ % % % & ' 7 b } [ b a = I 1  .a 7 0 , , ( 0 8 x 2 2 ) @ ! @ ) @ ! @ c ! ] + ^ c ] @ @ ] . < 1 J < < < p d : ( @ ) ) 2 2 2 ) ( ) ( % ( % 2 ) ( ( ) ( y ) ! n ! ! @ @ ! ! { ~ ^ ^ ^ ^ @ %   1 5 , ' . . 2   % . ( ' % . . % @ % % . % . . 2 . % ~ @ @ @ @ @ @ @ @ % % % & ' 7 b } [ b a = I 1  .a 7 0 , , ( 0 8 x 2 2 ) @ ! @ ) @ ! @ c ! ] + ^ c ] @ @ ] . < 1 J < < < p d : ( @ ) ) 2 2 2 ) ( ) ( % ( % 2 ) ( ( ) ( y ) ! n ! ! @ @ ! ! { ~ ^ ^ ^ ^ @ %   1 5 , ' . . 2   % . ( ' % . . % @ % % . % . . 2 . % ~ @ @ @ @ @ @ @ @ % % % & ' 7 b } [ b a = I 1  .a 7 0 , , ( 0 8 x 2 2 ) @ ! @ ) @ ",
"I ' & & . ( ( 2 ) ) @ ! @ @ c . . ! @ @ ] ^.] _ c ! c $ 2 , J J < < 8 0 : ( ! ! @ ! @ ! . ) . . ( ( e ' 0 ' 0 : ( ( ) ! ! n @ ! ) % ) @ { ~ _ m ] ~ @ ) & < 6 , ' ( @ ( ( ' ( % 0 ( % % % % % % f ) % @ @ . @ $ @ @ @ @ @ ! . . ) . . ( , 7 1 [ 1 b 7 , 7 b 1 7 I ' & & . ( ( 2 ) ) @ ! @ @ c . . ! @ @ ] ^.] _ c ! c $ 2 , J J < < 8 0 : ( ! ! @ ! @ ! . ) . . ( ( e ' 0 ' 0 : ( ( ) ! ! n @ ! ) % ) @ { ~ _ m ] ~ @ ) & < 6 , ' ( @ ( ( ' ( % 0 ( % % % % % % f ) % @ @ . @ $ @ @ @ @ @ ! . . ) . . ( , 7 1 [ 1 b 7 , 7 b 1 7 I ' & & . ( ( 2 ) ) @ ! @ @ c . . ! @ @ ] ^.] _ c ! c $ 2 , J J < < 8 0 : ( ! ! @ ! @ ! . ) . . ( ( e ' 0 ' 0 : ( ( ) ! ! n @ ! ) % ) @ { ~ _ m ] ~ @ ) & < 6 , ' ( @ ( ( ' ( % 0 ( % % % % % % f ) % @ @ . @ $ @ @ @ @ @ ! . . ) . . ( , 7 1 [ 1 b 7 , 7 b 1 7 I ' & & . ( ( 2 ) ) @ ! @ @ c . ",
"7 0 % . @ % ) @ ) @ ! ] ] ~ c ! ! @ ] ] ] # ^ ] @ ] @ @ ( ' < , 4 E ' : ' ) @ ! ] ~ c { @ ! . @ ( ( ' 8 8 8 8 8 x ( 2 ) 2 @ ) ! 2 ) @ ! @ { ] { @ ] ! %   0 4 1 ' ( ( ( ' ( ( ( , ( & 2 % % % ( & ( % . % 2 . @ @ @ @ @ . . 2 2 % . % ( , < 1 } 7 7 , = 7 a 7 , 7 0 % . @ % ) @ ) @ ! ] ] ~ c ! ! @ ] ] ] # ^ ] @ ] @ @ ( ' < , 4 E ' : ' ) @ ! ] ~ c { @ ! . @ ( ( ' 8 8 8 8 8 x ( 2 ) 2 @ ) ! 2 ) @ ! @ { ] { @ ] ! %   0 4 1 ' ( ( ( ' ( ( ( , ( & 2 % % % ( & ( % . % 2 . @ @ @ @ @ . . 2 2 % . % ( , < 1 } 7 7 , = 7 a 7 , 7 0 % . @ % ) @ ) @ ! ] ] ~ c ! ! @ ] ] ] # ^ ] @ ] @ @ ( ' < , 4 E ' : ' ) @ ! ] ~ c { @ ! . @ ( ( ' 8 8 8 8 8 x ( 2 ) 2 @ ) ! 2 ) @ ! @ { ] { @ ] ! %   0 4 1 ' ( ( ( ' ( ( ( , ( & 2 % % % ( & ( % . % 2 . @ @ @ @ @ . . 2 2 % . % ( , < 1 } 7 7 , = 7 a 7 , 7 0 % . @ % ) @ ) @ ! ] ] ~ c ! ",
"1 = & & @ . ( @ ! @ ~ ~ ] ] ] ] @ @ ~ @ ] ^ + ] ] # + . ' , , J h ' ' ' x @ ] ! @ ] ~ c @ @ . . . & ( ' 0 8 8 8 8 : ( ( 2 ( 2 2 . . @ ! @ ! o ! ) @ @ ( & ' 4 5 9 ' ' ' & % ( ' 0 0 ( & e % ( t+( e ( 2 . & 2 % @ @ @ . ! % ) . ) % . ' , < | 1 I 7 a , , , 7 a 1 = & & @ . ( @ ! @ ~ ~ ] ] ] ] @ @ ~ @ ] ^ + ] ] # + . ' , , J h ' ' ' x @ ] ! @ ] ~ c @ @ . . . & ( ' 0 8 8 8 8 : ( ( 2 ( 2 2 . . @ ! @ ! o ! ) @ @ ( & ' 4 5 9 ' ' ' & % ( ' 0 0 ( & e % ( t+( e ( 2 . & 2 % @ @ @ . ! % ) . ) % . ' , < | 1 I 7 a , , , 7 a 1 = & & @ . ( @ ! @ ~ ~ ] ] ] ] @ @ ~ @ ] ^ + ] ] # + . ' , , J h ' ' ' x @ ] ! @ ] ~ c @ @ . . . & ( ' 0 8 8 8 8 : ( ( 2 ( 2 2 . . @ ! @ ! o ! ) @ @ ( & ' 4 5 9 ' ' ' & % ( ' 0 0 ( & e % ( t+( e ( 2 . & 2 % @ @ @ . ! % ) . ) % . ' , < | 1 I 7 a , , , 7 a 1 = & & @ . ( @ ! @ ~ ~ ] ] ] ] ",
"1 7 0 & % ( ( @ @ ~ ] ] ^ ^ ] ] ^ ~ n @ ! ] ^ # ] + ~ ( 8 , J 1 < ' ( ' ( @ c ! ] ] ] ^ ] @ ] @ @ . 2 9 ( ' 8 < 8 E ' ( : 0 ( ( ( ) % ! ) 2   ( 2 @ @   ' ' b u 0 ' 0 ( . & ( ' e ( ( % 2 ( % 2 ( ( ( % . % . . 2 . % @ . @ . 2 % . % ( , , 7 1 7 7 , = 0 , 7 J 1 7 0 & % ( ( @ @ ~ ] ] ^ ^ ] ] ^ ~ n @ ! ] ^ # ] + ~ ( 8 , J 1 < ' ( ' ( @ c ! ] ] ] ^ ] @ ] @ @ . 2 9 ( ' 8 < 8 E ' ( : 0 ( ( ( ) % ! ) 2   ( 2 @ @   ' ' b u 0 ' 0 ( . & ( ' e ( ( % 2 ( % 2 ( ( ( % . % . . 2 . % @ . @ . 2 % . % ( , , 7 1 7 7 , = 0 , 7 J 1 7 0 & % ( ( @ @ ~ ] ] ^ ^ ] ] ^ ~ n @ ! ] ^ # ] + ~ ( 8 , J 1 < ' ( ' ( @ c ! ] ] ] ^ ] @ ] @ @ . 2 9 ( ' 8 < 8 E ' ( : 0 ( ( ( ) % ! ) 2   ( 2 @ @   ' ' b u 0 ' 0 ( . & ( ' e ( ( % 2 ( % 2 ( ( ( % . % . . 2 . % @ . @ . 2 % . % ( , , 7 1 7 7 , = 0 , 7 J 1 7 0 & % ( ( @ @ ~ ] ] ^ ^ ] ] ",
"b a , ' & ( 0 ! @ @ ] ^ ~ ^ ^ ~ ^ ] ~ ] ! @ ] # @ ] . d < 1 < 1 8 '   (   ! ~ @ ] ~ ~ ] ~ ] @ ! . . . ) . ( ' 8 , E , 8 0 : 0 ' ' ' ( ( ( 2 x 2 ) 2 . & d , 7 X 1 < ' & ' , 0 ( ( e & 2 % 2 ( 2 & e ( 2 % ) % ) % 2 ) f ) @ @ @ . 2 & ( ' ' , 7 a a , , ; = , a b a , ' & ( 0 ! @ @ ] ^ ~ ^ ^ ~ ^ ] ~ ] ! @ ] # @ ] . d < 1 < 1 8 '   (   ! ~ @ ] ~ ~ ] ~ ] @ ! . . . ) . ( ' 8 , E , 8 0 : 0 ' ' ' ( ( ( 2 x 2 ) 2 . & d , 7 X 1 < ' & ' , 0 ( ( e & 2 % 2 ( 2 & e ( 2 % ) % ) % 2 ) f ) @ @ @ . 2 & ( ' ' , 7 a a , , ; = , a b a , ' & ( 0 ! @ @ ] ^ ~ ^ ^ ~ ^ ] ~ ] ! @ ] # @ ] . d < 1 < 1 8 '   (   ! ~ @ ] ~ ~ ] ~ ] @ ! . . . ) . ( ' 8 , E , 8 0 : 0 ' ' ' ( ( ( 2 x 2 ) 2 . & d , 7 X 1 < ' & ' , 0 ( ( e & 2 % 2 ( 2 & e ( 2 % ) % ) % 2 ) f ) @ @ @ . 2 & ( ' ' , 7 a a , , ; = , a b a , ' & ( 0 ! @ @ ] ^ ~ ^ ^ ~ ",
"7 7 a , & ( ' f @ @ ] ~ ^ ^ ] ^ ^ ~ ~ @ @ ! @ ] @ @ ( , < J 7 , ' ( (   ) . ~ ] ! { c ~ c ! @ @ . . . % ) ( ' d ( ' 0 0 , 0 ' e 0 ( ( & ( ( ( ( . ( 2 % , d 7 6 6 6 a ' , ' , & 2 & 2 % 2 ( 2 % ( e 0 ( % ( ( % 2 . % . @ @ @ @ . . % ( & & , < 1 , * = 0 * 0 7 7 7 a , & ( ' f @ @ ] ~ ^ ^ ] ^ ^ ~ ~ @ @ ! @ ] @ @ ( , < J 7 , ' ( (   ) . ~ ] ! { c ~ c ! @ @ . . . % ) ( ' d ( ' 0 0 , 0 ' e 0 ( ( & ( ( ( ( . ( 2 % , d 7 6 6 6 a ' , ' , & 2 & 2 % 2 ( 2 % ( e 0 ( % ( ( % 2 . % . @ @ @ @ . . % ( & & , < 1 , * = 0 * 0 7 7 7 a , & ( ' f @ @ ] ~ ^ ^ ] ^ ^ ~ ~ @ @ ! @ ] @ @ ( , < J 7 , ' ( (   ) . ~ ] ! { c ~ c ! @ @ . . . % ) ( ' d ( ' 0 0 , 0 ' e 0 ( ( & ( ( ( ( . ( 2 % , d 7 6 6 6 a ' , ' , & 2 & 2 % 2 ( 2 % ( e 0 ( % ( ( % 2 . % . @ @ @ @ . . % ( & & , < 1 , * = 0 * 0 7 7 7 a , & ( ' f @ @ ] ~ ^ ^ ] ^ ",
"= 7 1 7 }+; 0 . @ @ ~ ] ] ^ ^ { ^ ~ ] ] ~ ) ! @ @ . ( d , , ' & 9 (   2 . ! c ^ { ] ~ ] ^ ] ] c @ . ) ) 9 & ( ' % ( 0 , ' 0 & }+) & & % 9 2 & 2 f ' & . d , 0 7 J i X a ; & ' , % 2 2 % o ( e 2 % ( ( % 2 % . % . 2 @ ) f @ @ @ @ @ . & % & ' 1 7 , ; , = ' ; 0 = 7 1 7 }+; 0 . @ @ ~ ] ] ^ ^ { ^ ~ ] ] ~ ) ! @ @ . ( d , , ' & 9 (   2 . ! c ^ { ] ~ ] ^ ] ] c @ . ) ) 9 & ( ' % ( 0 , ' 0 & }+) & & % 9 2 & 2 f ' & . d , 0 7 J i X a ; & ' , % 2 2 % o ( e 2 % ( ( % 2 % . % . 2 @ ) f @ @ @ @ @ . & % & ' 1 7 , ; , = ' ; 0 = 7 1 7 }+; 0 . @ @ ~ ] ] ^ ^ { ^ ~ ] ] ~ ) ! @ @ . ( d , , ' & 9 (   2 . ! c ^ { ] ~ ] ^ ] ] c @ . ) ) 9 & ( ' % ( 0 , ' 0 & }+) & & % 9 2 & 2 f ' & . d , 0 7 J i X a ; & ' , % 2 2 % o ( e 2 % ( ( % 2 % . % . 2 @ ) f @ @ @ @ @ . & % & ' 1 7 , ; , = ' ; 0 = 7 1 7 }+; 0 . @ @ ~ ] ] ^ ^ { ",
", , I a , ( % ( . @ ^ ] m ~ ] ^ ^ ^ ~ m ] / @ % . ( ' ( 9 ( 9 . @ ) &   ) @ ~ ^ ^ ^ ^ ^ ~ @ @ ! . ( & &   ' , ' ' ' * ( }+( 0 e & . ( ( & 2 9 %   & ( ( 0 ' , 7 1 7 } & $ , w < % 9 2 . 2 ( 2 2 e e ( ( % ( 2 % 2 2 . @ @ @ @ % ) f . . % 9 0 7 a , , , 0 0 * , , , I a , ( % ( . @ ^ ] m ~ ] ^ ^ ^ ~ m ] / @ % . ( ' ( 9 ( 9 . @ ) &   ) @ ~ ^ ^ ^ ^ ^ ~ @ @ ! . ( & &   ' , ' ' ' * ( }+( 0 e & . ( ( & 2 9 %   & ( ( 0 ' , 7 1 7 } & $ , w < % 9 2 . 2 ( 2 2 e e ( ( % ( 2 % 2 2 . @ @ @ @ % ) f . . % 9 0 7 a , , , 0 0 * , , , I a , ( % ( . @ ^ ] m ~ ] ^ ^ ^ ~ m ] / @ % . ( ' ( 9 ( 9 . @ ) &   ) @ ~ ^ ^ ^ ^ ^ ~ @ @ ! . ( & &   ' , ' ' ' * ( }+( 0 e & . ( ( & 2 9 %   & ( ( 0 ' , 7 1 7 } & $ , w < % 9 2 . 2 ( 2 2 e e ( ( % ( 2 % 2 2 . @ @ @ @ % ) f . . % 9 0 7 a , , , 0 0 * , , , I a , ( % ( . @ ^ ] m ~ ] ^ ",
"I , , J J , ( & . @ @ @ ] @ ~ ] ~ ] ~ + ~ @ % ( % ( ' ( 9 . 2 . @ . ) @ ! ~ ] ] ^ ^ ^ ~ c ! @ ) . ( ' & ( d 8 0 0 ' 0 ' * 0 * ' & & ( & ( & ( % ( ( 0 ' 0 ' , 7 1 = u '.S & ' 0 ( 2 . f ) 2 2 ( ( e ( e ( 2 % ( % 2 @ f @ @ f @ @ @ @ % . & ' , b , , = , d 0 , I , , J J , ( & . @ @ @ ] @ ~ ] ~ ] ~ + ~ @ % ( % ( ' ( 9 . 2 . @ . ) @ ! ~ ] ] ^ ^ ^ ~ c ! @ ) . ( ' & ( d 8 0 0 ' 0 ' * 0 * ' & & ( & ( & ( % ( ( 0 ' 0 ' , 7 1 = u '.S & ' 0 ( 2 . f ) 2 2 ( ( e ( e ( 2 % ( % 2 @ f @ @ f @ @ @ @ % . & ' , b , , = , d 0 , I , , J J , ( & . @ @ @ ] @ ~ ] ~ ] ~ + ~ @ % ( % ( ' ( 9 . 2 . @ . ) @ ! ~ ] ] ^ ^ ^ ~ c ! @ ) . ( ' & ( d 8 0 0 ' 0 ' * 0 * ' & & ( & ( & ( % ( ( 0 ' 0 ' , 7 1 = u '.S & ' 0 ( 2 . f ) 2 2 ( ( e ( e ( 2 % ( % 2 @ f @ @ f @ @ @ @ % . & ' , b , , = , d 0 , I , , J J , ( & . @ @ @ ] @ ~ ] ",
"J I , J J , ; % . @ @ @ ! @ ] ~ @ @ ~ ~ $ % ( ' ( }+( . @ @ . @ ] @ @ @ c ] { ^ ^ ] ] { @ ! ) . ) ( ( ( ( 0 8 ' 0 ' 0 e ' 0 0 0 ' ( ( ' ( ( ( ( ' 0 ' 0 , ' 8 7 , 6 i v ; 0 w , ' & . @ @ % 2 2 ( }+( t+2 & 2 ( 2 % 2 % @ @ @ @ @ @ @ . % & ' , < , 0 , 0 0 , , J I , J J , ; % . @ @ @ ! @ ] ~ @ @ ~ ~ $ % ( ' ( }+( . @ @ . @ ] @ @ @ c ] { ^ ^ ] ] { @ ! ) . ) ( ( ( ( 0 8 ' 0 ' 0 e ' 0 0 0 ' ( ( ' ( ( ( ( ' 0 ' 0 , ' 8 7 , 6 i v ; 0 w , ' & . @ @ % 2 2 ( }+( t+2 & 2 ( 2 % 2 % @ @ @ @ @ @ @ . % & ' , < , 0 , 0 0 , , J I , J J , ; % . @ @ @ ! @ ] ~ @ @ ~ ~ $ % ( ' ( }+( . @ @ . @ ] @ @ @ c ] { ^ ^ ] ] { @ ! ) . ) ( ( ( ( 0 8 ' 0 ' 0 e ' 0 0 0 ' ( ( ' ( ( ( ( ' 0 ' 0 , ' 8 7 , 6 i v ; 0 w , ' & . @ @ % 2 2 ( }+( t+2 & 2 ( 2 % 2 % @ @ @ @ @ @ @ . % & ' , < , 0 , 0 0 , , J I , J J , ; % . @ @ @ ! @ ] ~ ",
", , 0 , , , & ( % % . @ @ ~ ~ ] @ @ @ @ . % e 0 ( ( . @ / ] ] c + c c @ ! ~ ~ ] m ] { ~ ! @ ! ~ . & & & ( 0 ' & e ( 0 ( 0 E 0 E 0 ' 0 0 0 0 ' 0 ' 0 ' 0 ' , 0 , , j , } } J ' , 0 ( . f @ ! . 2 % 2 e % ( t+( % 2 % 2 % ) % @ @ f @ . % ) % ; , , 0 * ' 0 0 ; 0 , , 0 , , , & ( % % . @ @ ~ ~ ] @ @ @ @ . % e 0 ( ( . @ / ] ] c + c c @ ! ~ ~ ] m ] { ~ ! @ ! ~ . & & & ( 0 ' & e ( 0 ( 0 E 0 E 0 ' 0 0 0 0 ' 0 ' 0 ' 0 ' , 0 , , j , } } J ' , 0 ( . f @ ! . 2 % 2 e % ( t+( % 2 % 2 % ) % @ @ f @ . % ) % ; , , 0 * ' 0 0 ; 0 , , 0 , , , & ( % % . @ @ ~ ~ ] @ @ @ @ . % e 0 ( ( . @ / ] ] c + c c @ ! ~ ~ ] m ] { ~ ! @ ! ~ . & & & ( 0 ' & e ( 0 ( 0 E 0 E 0 ' 0 0 0 0 ' 0 ' 0 ' 0 ' , 0 , , j , } } J ' , 0 ( . f @ ! . 2 % 2 e % ( t+( % 2 % 2 % ) % @ @ f @ . % ) % ; , , 0 * ' 0 0 ; 0 , , 0 , , , & ( % % . @ @ ~ ~ ] ",
"% e e ( }+e , , & ( . @ g ~ c ~ $ @ . % ( 0 0 0 0 & f @ ^ ] ~ ] ] / ) ) ! @ _ ] { ] { c { ] ~ ] f . % & ( 0 ( & ( & ( ( 0 ( ' ' 0 e ' 0 ' 0 0 0 0 0 E 0 E E E , 1 , a C v , } 0 ' & 2 . % . % . 2 % 2 % 2 ( % ( % 2 % 2 f @ @ @ % @ % 2 . % & ' , 0 ; 0 = ' & & % e e ( }+e , , & ( . @ g ~ c ~ $ @ . % ( 0 0 0 0 & f @ ^ ] ~ ] ] / ) ) ! @ _ ] { ] { c { ] ~ ] f . % & ( 0 ( & ( & ( ( 0 ( ' ' 0 e ' 0 ' 0 0 0 0 0 E 0 E E E , 1 , a C v , } 0 ' & 2 . % . % . 2 % 2 % 2 ( % ( % 2 % 2 f @ @ @ % @ % 2 . % & ' , 0 ; 0 = ' & & % e e ( }+e , , & ( . @ g ~ c ~ $ @ . % ( 0 0 0 0 & f @ ^ ] ~ ] ] / ) ) ! @ _ ] { ] { c { ] ~ ] f . % & ( 0 ( & ( & ( ( 0 ( ' ' 0 e ' 0 ' 0 0 0 0 0 E 0 E E E , 1 , a C v , } 0 ' & 2 . % . % . 2 % 2 % 2 ( % ( % 2 % 2 f @ @ @ % @ % 2 . % & ' , 0 ; 0 = ' & & % e e ( }+e , , & ( . @ g ~ c ~ ",
"% ( e % % % ( 0 ' ; ( & . @ . . % . % & ; 0 0 0 0 ( . @ ] ~ _ @ @ @ ) ) ) @ { ~ ] { ] ~ ] ] ^ # . % % & ' e ( % ) % ( 2 ( ( ( ( 2 % 2 2 % ( ( ( 0 ' ( e ' 0 0 E I J 6 Z +.0 1 J ' ; ( &   ( . . 2 t+% ( t+2 % 2 f 2 % 2 % 2 f @ ) 2 . . % . & , , , , < , 0 & & % ( e % % % ( 0 ' ; ( & . @ . . % . % & ; 0 0 0 0 ( . @ ] ~ _ @ @ @ ) ) ) @ { ~ ] { ] ~ ] ] ^ # . % % & ' e ( % ) % ( 2 ( ( ( ( 2 % 2 2 % ( ( ( 0 ' ( e ' 0 0 E I J 6 Z +.0 1 J ' ; ( &   ( . . 2 t+% ( t+2 % 2 f 2 % 2 % 2 f @ ) 2 . . % . & , , , , < , 0 & & % ( e % % % ( 0 ' ; ( & . @ . . % . % & ; 0 0 0 0 ( . @ ] ~ _ @ @ @ ) ) ) @ { ~ ] { ] ~ ] ] ^ # . % % & ' e ( % ) % ( 2 ( ( ( ( 2 % 2 2 % ( ( ( 0 ' ( e ' 0 0 E I J 6 Z +.0 1 J ' ; ( &   ( . . 2 t+% ( t+2 % 2 f 2 % 2 % 2 f @ ) 2 . . % . & , , , , < , 0 & & % ( e % % % ( 0 ' ; ( & . @ . . ",
"% e e % % t % 3 & ' 0 ' ( ( ( ( ( & & e 0 , , 0 0 2 @ ~ @ ] n ! @ . ) @ ! c ] _ ~ ^ ] ^ ^ ^ ] m . t % & e }+% f . @ @ 2 ) o ) 2 @ f . f % 2 & ( ( ( % ( ( Y.' ( }+6 J , k+1 0 1 0 ' ( & ( &   % % 2 % % 2 % % 2 % . f ) % @ 2 f . @ @ % . % ( d J J J 1 J , & % % e e % % t % 3 & ' 0 ' ( ( ( ( ( & & e 0 , , 0 0 2 @ ~ @ ] n ! @ . ) @ ! c ] _ ~ ^ ] ^ ^ ^ ] m . t % & e }+% f . @ @ 2 ) o ) 2 @ f . f % 2 & ( ( ( % ( ( Y.' ( }+6 J , k+1 0 1 0 ' ( & ( &   % % 2 % % 2 % % 2 % . f ) % @ 2 f . @ @ % . % ( d J J J 1 J , & % % e e % % t % 3 & ' 0 ' ( ( ( ( ( & & e 0 , , 0 0 2 @ ~ @ ] n ! @ . ) @ ! c ] _ ~ ^ ] ^ ^ ^ ] m . t % & e }+% f . @ @ 2 ) o ) 2 @ f . f % 2 & ( ( ( % ( ( Y.' ( }+6 J , k+1 0 1 0 ' ( & ( &   % % 2 % % 2 % % 2 % . f ) % @ 2 f . @ @ % . % ( d J J J 1 J , & % % e e % % t % 3 & ' 0 ' ( ( ( ( ",
"m ~ % f % & % $ & & ' , d ' ( ' , ' 0 ; * 0 0 0 * % @ ~ ~ ] { c ) ) @ @ ] m ] ~ s ^ ^ ^ ^ ^ ~ ] f $ t & e ( % @ @ @ @ @ @ ! @ @ @ @ f . % % ( e % % f f 2 % ( 2 0 e * J } u z , d 0 & ( ( ( & ( & 2 % 2 t+2 % % 2 % 2 f 2 % . 2 f @ @ @ @ . ' , a 1 1 1 1 , & % m ~ % f % & % $ & & ' , d ' ( ' , ' 0 ; * 0 0 0 * % @ ~ ~ ] { c ) ) @ @ ] m ] ~ s ^ ^ ^ ^ ^ ~ ] f $ t & e ( % @ @ @ @ @ @ ! @ @ @ @ f . % % ( e % % f f 2 % ( 2 0 e * J } u z , d 0 & ( ( ( & ( & 2 % 2 t+2 % % 2 % 2 f 2 % . 2 f @ @ @ @ . ' , a 1 1 1 1 , & % m ~ % f % & % $ & & ' , d ' ( ' , ' 0 ; * 0 0 0 * % @ ~ ~ ] { c ) ) @ @ ] m ] ~ s ^ ^ ^ ^ ^ ~ ] f $ t & e ( % @ @ @ @ @ @ ! @ @ @ @ f . % % ( e % % f f 2 % ( 2 0 e * J } u z , d 0 & ( ( ( & ( & 2 % 2 t+2 % % 2 % 2 f 2 % . 2 f @ @ @ @ . ' , a 1 1 1 1 , & % m ~ % f % & % $ & & ' , d ' ( ' ",
"  . . + @ # @ $ $ % & * * = = - = ; > & ; ; , ' ' . @ @ @ @ @ ) ! ) @ ~ ~ @ { ] ^ ^ ^ ^ ^ ^ ^ ^ ~ / @ & ( & . @ . @ @ @ _ ~ { { ] { ! ! ~ ! ! ) ) @ ) . ) (   . : ' ' ' < [ } | 1 , & & & ( ( ( 2 ( 2 % 2 % % % % % % % % % . % $ $ . 3 . . & ; 4 5 6 7 < 7 & .   . . + @ # @ $ $ % & * * = = - = ; > & ; ; , ' ' . @ @ @ @ @ ) ! ) @ ~ ~ @ { ] ^ ^ ^ ^ ^ ^ ^ ^ ~ / @ & ( & . @ . @ @ @ _ ~ { { ] { ! ! ~ ! ! ) ) @ ) . ) (   . : ' ' ' < [ } | 1 , & & & ( ( ( 2 ( 2 % 2 % % % % % % % % % . % $ $ . 3 . . & ; 4 5 6 7 < 7 & .   . . + @ # @ $ $ % & * * = = - = ; > & ; ; , ' ' . @ @ @ @ @ ) ! ) @ ~ ~ @ { ] ^ ^ ^ ^ ^ ^ ^ ^ ~ / @ & ( & . @ . @ @ @ _ ~ { { ] { ! ! ~ ! ! ) ) @ ) . ) (   . : ' ' ' < [ } | 1 , & & & ( ( ( 2 ( 2 % 2 % % % % % % % % % . % $ $ . 3 . . & ; 4 5 6 7 < 7 & .   . . + @ # @ $ $ % & * * = = - ",
"< 8 . ' ~ 9 / ( % ; 0 , a b 6 1 b 7 = ; ; 0 ; 0 & . . @ . c @ ! . 2 ) ! ] ! @ { ~ ^ ^ ^ ^ ^ _ ~ ~ @ @ ( ( ( % % . @ c ~ ! { ! { ] ] ~ _ ! ! @ ! . ) @ ) . (   ( & ( ' d 1 6 7 ; 7 ; & & % e 2 2 % f % f . f @ @ % . % . % 3 % $ g c $ . . ; ' , < } } 4 , ' ' d < 8 . ' ~ 9 / ( % ; 0 , a b 6 1 b 7 = ; ; 0 ; 0 & . . @ . c @ ! . 2 ) ! ] ! @ { ~ ^ ^ ^ ^ ^ _ ~ ~ @ @ ( ( ( % % . @ c ~ ! { ! { ] ] ~ _ ! ! @ ! . ) @ ) . (   ( & ( ' d 1 6 7 ; 7 ; & & % e 2 2 % f % f . f @ @ % . % . % 3 % $ g c $ . . ; ' , < } } 4 , ' ' d < 8 . ' ~ 9 / ( % ; 0 , a b 6 1 b 7 = ; ; 0 ; 0 & . . @ . c @ ! . 2 ) ! ] ! @ { ~ ^ ^ ^ ^ ^ _ ~ ~ @ @ ( ( ( % % . @ c ~ ! { ! { ] ] ~ _ ! ! @ ! . ) @ ) . (   ( & ( ' d 1 6 7 ; 7 ; & & % e 2 2 % f % f . f @ @ % . % . % 3 % $ g c $ . . ; ' , < } } 4 , ' ' d < 8 . ' ~ 9 / ( % ; 0 , a b 6 1 ",
"5 h 8 ( 9 . & ( ; ( * ; , 1 i j | a 7 k * l ' , & . . . . @ @ ) 2 ) @ @ ~ ~ c ~ ] ^ ~ ^ _ m _ ~ ~ ~ @ & ( . . . @ @ ! @ ! n ! ! { ] ] @ ) 2 ) ! ) ! . 2   ( 2 ) ( ' ( ; < 1 1 ; & & & % % . % 2 @ % ! % @ 2 % 2 % o . f @ @ $ f @ @ @ @ 9 ' p 8 < q r < ' ; ' 7 5 h 8 ( 9 . & ( ; ( * ; , 1 i j | a 7 k * l ' , & . . . . @ @ ) 2 ) @ @ ~ ~ c ~ ] ^ ~ ^ _ m _ ~ ~ ~ @ & ( . . . @ @ ! @ ! n ! ! { ] ] @ ) 2 ) ! ) ! . 2   ( 2 ) ( ' ( ; < 1 1 ; & & & % % . % 2 @ % ! % @ 2 % 2 % o . f @ @ $ f @ @ @ @ 9 ' p 8 < q r < ' ; ' 7 5 h 8 ( 9 . & ( ; ( * ; , 1 i j | a 7 k * l ' , & . . . . @ @ ) 2 ) @ @ ~ ~ c ~ ] ^ ~ ^ _ m _ ~ ~ ~ @ & ( . . . @ @ ! @ ! n ! ! { ] ] @ ) 2 ) ! ) ! . 2   ( 2 ) ( ' ( ; < 1 1 ; & & & % % . % 2 @ % ! % @ 2 % 2 % o . f @ @ $ f @ @ @ @ 9 ' p 8 < q r < ' ; ' 7 5 h 8 ( 9 . & ( ; ( * ; , 1 i j ",
", 6 r & ; $ d & d * ' * 0 , 7 b 7 b 6 6 7 * ; 9 & % & & . @ . % ) 2 . ~ ] ] ~ ] ~ s ] ^ ^ ^ ~ ] ] $ @ . ( 2 . . @ @ @ { @ ! ! ! @ @ @ ! ) 2   2 ( ) 2   2   (   ( ( (   , 4 1 7 & & & % @ @ @ f o . f @ % 2 % 2 % % @ % . t @ @ ) @ @ @ 2 ( 0 ' 5 5 < , ' ' ( ' , 6 r & ; $ d & d * ' * 0 , 7 b 7 b 6 6 7 * ; 9 & % & & . @ . % ) 2 . ~ ] ] ~ ] ~ s ] ^ ^ ^ ~ ] ] $ @ . ( 2 . . @ @ @ { @ ! ! ! @ @ @ ! ) 2   2 ( ) 2   2   (   ( ( (   , 4 1 7 & & & % @ @ @ f o . f @ % 2 % 2 % % @ % . t @ @ ) @ @ @ 2 ( 0 ' 5 5 < , ' ' ( ' , 6 r & ; $ d & d * ' * 0 , 7 b 7 b 6 6 7 * ; 9 & % & & . @ . % ) 2 . ~ ] ] ~ ] ~ s ] ^ ^ ^ ~ ] ] $ @ . ( 2 . . @ @ @ { @ ! ! ! @ @ @ ! ) 2   2 ( ) 2   2   (   ( ( (   , 4 1 7 & & & % @ @ @ f o . f @ % 2 % 2 % % @ % . t @ @ ) @ @ @ 2 ( 0 ' 5 5 < , ' ' ( ' , 6 r & ; $ d & d * ' * 0 , 7 b ",
"9 6 } u & , & , , d 0 ; ' & ' * a i v v 6 , & w & & . . @ @ . ( & 2 . @ ~ @ @ ] @ ~ ] ~ ] ] ~ ~ ~ @ ) ( ( % ) @ @ @ @ @ ! ! ! ! ! ) 2 ) 2 ( x : ( x ( 2 ( y ) 2 @ ) ' 0 < 4 , & & ( 9 @ ~ ~ f o @ @ ~ ~ @ ~ @ . 2 ) % @ @ @ @ @ % ) ) ) x x : ' z z ' ( ' ' % . 9 6 } u & , & , , d 0 ; ' & ' * a i v v 6 , & w & & . . @ @ . ( & 2 . @ ~ @ @ ] @ ~ ] ~ ] ] ~ ~ ~ @ ) ( ( % ) @ @ @ @ @ ! ! ! ! ! ) 2 ) 2 ( x : ( x ( 2 ( y ) 2 @ ) ' 0 < 4 , & & ( 9 @ ~ ~ f o @ @ ~ ~ @ ~ @ . 2 ) % @ @ @ @ @ % ) ) ) x x : ' z z ' ( ' ' % . 9 6 } u & , & , , d 0 ; ' & ' * a i v v 6 , & w & & . . @ @ . ( & 2 . @ ~ @ @ ] @ ~ ] ~ ] ] ~ ~ ~ @ ) ( ( % ) @ @ @ @ @ ! ! ! ! ! ) 2 ) 2 ( x : ( x ( 2 ( y ) 2 @ ) ' 0 < 4 , & & ( 9 @ ~ ~ f o @ @ ~ ~ @ ~ @ . 2 ) % @ @ @ @ @ % ) ) ) x x : ' z z ' ( ' ' % . 9 6 } u & , & , , d 0 ; ' & ' * ",
"A = 6 B [ , l 1 , ; & ( & % % 9 = 1 C C u D , , ' & % % . $ & ( ' ( ( . @ @ . . ! @ ! ] @ @ ! @ ! . 2 0 ( ( % ) @ @ @ ! ) 2 ! ) 2 ( ( ( ) ( E 8 E ( x ( x ( 2 ) ( ' ' ' < < 8 & ' ( ( f ~ ~ @ o @ ! @ ~ @ ! f ) % 2 . % @ . % @ ) ! 2 y ( E E 8 F G 8 ( ( (   ( A = 6 B [ , l 1 , ; & ( & % % 9 = 1 C C u D , , ' & % % . $ & ( ' ( ( . @ @ . . ! @ ! ] @ @ ! @ ! . 2 0 ( ( % ) @ @ @ ! ) 2 ! ) 2 ( ( ( ) ( E 8 E ( x ( x ( 2 ) ( ' ' ' < < 8 & ' ( ( f ~ ~ @ o @ ! @ ~ @ ! f ) % 2 . % @ . % @ ) ! 2 y ( E E 8 F G 8 ( ( (   ( A = 6 B [ , l 1 , ; & ( & % % 9 = 1 C C u D , , ' & % % . $ & ( ' ( ( . @ @ . . ! @ ! ] @ @ ! @ ! . 2 0 ( ( % ) @ @ @ ! ) 2 ! ) 2 ( ( ( ) ( E 8 E ( x ( x ( 2 ) ( ' ' ' < < 8 & ' ( ( f ~ ~ @ o @ ! @ ~ @ ! f ) % 2 . % @ . % @ ) ! 2 y ( E E 8 F G 8 ( ( (   ( A = 6 B [ , l 1 , ; & ( & % % 9 ",
"; > 6 D H 1 [ < & 9 3 . . . . 2 & = i } i i 1 1 I * ; * ' * 0 , ' 0 & . . 2 ( . % ) . @ ! @ ! @ ) % ( E ' 2 ) . ) . 2 ) 2 ) 2 2 ( ' ' ' 0 : ' E ' x ( ( x ( x 2 E E 0 ' 0 J < 0 ( & % . ! ~ { @ ! @ @ ! @ ! 2 2 2 ) @ ! @ f @ ! f K x x 8 8 L 8 8 < E ' ' ' & ' ; > 6 D H 1 [ < & 9 3 . . . . 2 & = i } i i 1 1 I * ; * ' * 0 , ' 0 & . . 2 ( . % ) . @ ! @ ! @ ) % ( E ' 2 ) . ) . 2 ) 2 ) 2 2 ( ' ' ' 0 : ' E ' x ( ( x ( x 2 E E 0 ' 0 J < 0 ( & % . ! ~ { @ ! @ @ ! @ ! 2 2 2 ) @ ! @ f @ ! f K x x 8 8 L 8 8 < E ' ' ' & ' ; > 6 D H 1 [ < & 9 3 . . . . 2 & = i } i i 1 1 I * ; * ' * 0 , ' 0 & . . 2 ( . % ) . @ ! @ ! @ ) % ( E ' 2 ) . ) . 2 ) 2 ) 2 2 ( ' ' ' 0 : ' E ' x ( ( x ( x 2 E E 0 ' 0 J < 0 ( & % . ! ~ { @ ! @ @ ! @ ! 2 2 2 ) @ ! @ f @ ! f K x x 8 8 L 8 8 < E ' ' ' & ' ; > 6 D H 1 [ < & 9 3 . . . . 2 ",
"M | k b [ N H , O . $ . @ @ . ( & , a a a , I a 1 a , , a 7 7 J ; ' ( % . % 9 ( . . . @ c . . ! . 2 ( ' ( . . % ) 2 ( ( ( x (   ' ( ' d < 8 8 ' ' ( ( x ( ( x ( . ( 0 8 < J 8 ( ( . 2 . o @ o @ ~ ~ ~ ~ ~ . 2 2 . 2 @ o @ @ . 2 ) ( E 8 P 8 8 < 8 p ; ( 8 d & ' M | k b [ N H , O . $ . @ @ . ( & , a a a , I a 1 a , , a 7 7 J ; ' ( % . % 9 ( . . . @ c . . ! . 2 ( ' ( . . % ) 2 ( ( ( x (   ' ( ' d < 8 8 ' ' ( ( x ( ( x ( . ( 0 8 < J 8 ( ( . 2 . o @ o @ ~ ~ ~ ~ ~ . 2 2 . 2 @ o @ @ . 2 ) ( E 8 P 8 8 < 8 p ; ( 8 d & ' M | k b [ N H , O . $ . @ @ . ( & , a a a , I a 1 a , , a 7 7 J ; ' ( % . % 9 ( . . . @ c . . ! . 2 ( ' ( . . % ) 2 ( ( ( x (   ' ( ' d < 8 8 ' ' ( ( x ( ( x ( . ( 0 8 < J 8 ( ( . 2 . o @ o @ ~ ~ ~ ~ ~ . 2 2 . 2 @ o @ @ . 2 ) ( E 8 P 8 8 < 8 p ; ( 8 d & ' M | k b [ N H , O . $ . @ @ . ( ",
"[ 6 6 [ u C Q R 7 9 ; . . S c   & & ; , , , a 1 = 0 * , , I a a < , ; ' & ' ( ' ' ( % . 2   2 . ( ( ' x ( 2 @ ] ( @ ( : 8 J E < < ' 7 8 < < ( d ( < 8   ( 8 ' ( 2 ' 8 8 < z < 0 ( ( 2 % 2 2 ! ~ ! % ~ ~ @ 2 2 2 2 @ ! f ! o 2 2 ( x : p 8 < G 8 d 8 7 d 7 < 4 7 [ 6 6 [ u C Q R 7 9 ; . . S c   & & ; , , , a 1 = 0 * , , I a a < , ; ' & ' ( ' ' ( % . 2   2 . ( ( ' x ( 2 @ ] ( @ ( : 8 J E < < ' 7 8 < < ( d ( < 8   ( 8 ' ( 2 ' 8 8 < z < 0 ( ( 2 % 2 2 ! ~ ! % ~ ~ @ 2 2 2 2 @ ! f ! o 2 2 ( x : p 8 < G 8 d 8 7 d 7 < 4 7 [ 6 6 [ u C Q R 7 9 ; . . S c   & & ; , , , a 1 = 0 * , , I a a < , ; ' & ' ( ' ' ( % . 2   2 . ( ( ' x ( 2 @ ] ( @ ( : 8 J E < < ' 7 8 < < ( d ( < 8   ( 8 ' ( 2 ' 8 8 < z < 0 ( ( 2 % 2 2 ! ~ ! % ~ ~ @ 2 2 2 2 @ ! f ! o 2 2 ( x : p 8 < G 8 d 8 7 d 7 < 4 7 [ 6 6 [ u C Q R 7 9 ; . . S c   ",
"b 6 6 i 7 7 T U u 7 V @ $   ] + % & e ; * , 7 1 a a , = = = , 7 a < 7 , 8 , 0 0 '   @ @ . ( ( ' ( ( 2 . 2 . ) % 9 @ . . ' 8 < } u } B } 6 < ' 7 . ' ' ' ' d ( ( , 8 7 , J 1 < , & ( & ( ) 2 2 2 % 2 @ @ @ 2 ( ) 2 f ! . 2 . 2 x ' , p 0 p 8 < 8 d , W < 1 X 5 6 b 6 6 i 7 7 T U u 7 V @ $   ] + % & e ; * , 7 1 a a , = = = , 7 a < 7 , 8 , 0 0 '   @ @ . ( ( ' ( ( 2 . 2 . ) % 9 @ . . ' 8 < } u } B } 6 < ' 7 . ' ' ' ' d ( ( , 8 7 , J 1 < , & ( & ( ) 2 2 2 % 2 @ @ @ 2 ( ) 2 f ! . 2 . 2 x ' , p 0 p 8 < 8 d , W < 1 X 5 6 b 6 6 i 7 7 T U u 7 V @ $   ] + % & e ; * , 7 1 a a , = = = , 7 a < 7 , 8 , 0 0 '   @ @ . ( ( ' ( ( 2 . 2 . ) % 9 @ . . ' 8 < } u } B } 6 < ' 7 . ' ' ' ' d ( ( , 8 7 , J 1 < , & ( & ( ) 2 2 2 % 2 @ @ @ 2 ( ) 2 f ! . 2 . 2 x ' , p 0 p 8 < 8 d , W < 1 X 5 6 b 6 6 i 7 7 T U u 7 V @ $   ] + ",
", 7 < W & A 7 B u 4 3 @ + . ~ ~ . & 9 & ( * , , 1 6 1 a a , = , * 0 , 7 < 1 < < , 0 (   ( ( ' ( .   ( ' ' ( . @ . @ & & 0 , , < a u U Y u Z = , 1 < , 7 J , ' , d , , J 1 < 0 & ( ( 9 ( & ( ' : ( ' ( ) 2 ( ( . ( . ! 2 ) 2 ( : 8 p , p , ` , d d 8 W < 5 X 6 7 , 7 < W & A 7 B u 4 3 @ + . ~ ~ . & 9 & ( * , , 1 6 1 a a , = , * 0 , 7 < 1 < < , 0 (   ( ( ' ( .   ( ' ' ( . @ . @ & & 0 , , < a u U Y u Z = , 1 < , 7 J , ' , d , , J 1 < 0 & ( ( 9 ( & ( ' : ( ' ( ) 2 ( ( . ( . ! 2 ) 2 ( : 8 p , p , ` , d d 8 W < 5 X 6 7 , 7 < W & A 7 B u 4 3 @ + . ~ ~ . & 9 & ( * , , 1 6 1 a a , = , * 0 , 7 < 1 < < , 0 (   ( ( ' ( .   ( ' ' ( . @ . @ & & 0 , , < a u U Y u Z = , 1 < , 7 J , ' , d , , J 1 < 0 & ( ( 9 ( & ( ' : ( ' ( ) 2 ( ( . ( . ! 2 ) 2 ( : 8 p , p , ` , d d 8 W < 5 X 6 7 , 7 < W & A 7 B u 4 3 @ + . ~ ~ ",
"' 9 . 3 . > d b [ 4 , g @ + . . @ . % % ' & 0 0 1  .6 6 b a a , ; ; ' 7 J 4 J J 8 8 < 8 8 ' & ) 9 ( ' ' ( (   % ) . 0 d , 7 , a ..U R +.} u H U C u 1 1 6 < 7 1 a 7 a 1 b 4 7 < = ' ' ' ' ( ( '   ( ' ( ' ( ( ) ( 2 ) 2 ( ( : 8 8 d 8 ' d < < p 7 < 8 p , W ' . ' 9 . 3 . > d b [ 4 , g @ + . . @ . % % ' & 0 0 1  .6 6 b a a , ; ; ' 7 J 4 J J 8 8 < 8 8 ' & ) 9 ( ' ' ( (   % ) . 0 d , 7 , a ..U R +.} u H U C u 1 1 6 < 7 1 a 7 a 1 b 4 7 < = ' ' ' ' ( ( '   ( ' ( ' ( ( ) ( 2 ) 2 ( ( : 8 8 d 8 ' d < < p 7 < 8 p , W ' . ' 9 . 3 . > d b [ 4 , g @ + . . @ . % % ' & 0 0 1  .6 6 b a a , ; ; ' 7 J 4 J J 8 8 < 8 8 ' & ) 9 ( ' ' ( (   % ) . 0 d , 7 , a ..U R +.} u H U C u 1 1 6 < 7 1 a 7 a 1 b 4 7 < = ' ' ' ' ( ( '   ( ' ( ' ( ( ) ( 2 ) 2 ( ( : 8 8 d 8 ' d < < p 7 < 8 p , W ' . ' 9 . 3 . > d b [ 4 , g @ + . . ",
") @ + + . . ; ; 6 6 1 9 ( % ( @ @ . . ) & ( ' ; ; 7 b 1 6 D b , 7 , , , 0 , ' ' ' 0 , 8 < < 8 0 d ' ( ' ' & ( d ' & , ' , 6 j H [ v Q u 6 [ 1 6 @.#.U C $.u D 7 | D j } 6 b , , d 0 ; ' ' 9 ( & & ( ' ' ' p ' ( ( . ( ( ( ( : , p 8 , p 8 < < 8 8 p , ( . . @ g ) @ + + . . ; ; 6 6 1 9 ( % ( @ @ . . ) & ( ' ; ; 7 b 1 6 D b , 7 , , , 0 , ' ' ' 0 , 8 < < 8 0 d ' ( ' ' & ( d ' & , ' , 6 j H [ v Q u 6 [ 1 6 @.#.U C $.u D 7 | D j } 6 b , , d 0 ; ' ' 9 ( & & ( ' ' ' p ' ( ( . ( ( ( ( : , p 8 , p 8 < < 8 8 p , ( . . @ g ) @ + + . . ; ; 6 6 1 9 ( % ( @ @ . . ) & ( ' ; ; 7 b 1 6 D b , 7 , , , 0 , ' ' ' 0 , 8 < < 8 0 d ' ( ' ' & ( d ' & , ' , 6 j H [ v Q u 6 [ 1 6 @.#.U C $.u D 7 | D j } 6 b , , d 0 ; ' ' 9 ( & & ( ' ' ' p ' ( ( . ( ( ( ( : , p 8 , p 8 < < 8 8 p , ( . . @ g ) @ + + . . ; ; 6 6 1 9 ( % ( @ ",
"] ] @ c g g g 9 7 X u } & & . ( . @ . . ( ; ( & & 0 < b j } 6 b a %., , ' ' e ( & ( ( ' ' 8 8 < < < 4 z 4 ' ( ( , , 4 b 6 C &.*.=.H +.[ b j u Q =.*.Q -.;.>.N *.,.N -.D = | 6 i 7 ' ' ' ' & & ' 9 ' ' d , 8 , ' (   %   ( ( ( : , p < < < G < 8 ' : ' ) @ c @ @ ] ] @ c g g g 9 7 X u } & & . ( . @ . . ( ; ( & & 0 < b j } 6 b a %., , ' ' e ( & ( ( ' ' 8 8 < < < 4 z 4 ' ( ( , , 4 b 6 C &.*.=.H +.[ b j u Q =.*.Q -.;.>.N *.,.N -.D = | 6 i 7 ' ' ' ' & & ' 9 ' ' d , 8 , ' (   %   ( ( ( : , p < < < G < 8 ' : ' ) @ c @ @ ] ] @ c g g g 9 7 X u } & & . ( . @ . . ( ; ( & & 0 < b j } 6 b a %., , ' ' e ( & ( ( ' ' 8 8 < < < 4 z 4 ' ( ( , , 4 b 6 C &.*.=.H +.[ b j u Q =.*.Q -.;.>.N *.,.N -.D = | 6 i 7 ' ' ' ' & & ' 9 ' ' d , 8 , ' (   %   ( ( ( : , p < < < G < 8 ' : ' ) @ c @ @ ] ] @ c g g g 9 7 X u } & & . ( ",
"] _ n ] + + 3 . A 5 +.+.' ( f ' % ) ) 2 ' ( ' & ' d , b 6 u u 6 a , , 0 0 , ' ( 0 ( ( % ( ( ' : , < 6 r X < d 8 < < Z 6 u -.C C [ 6 '.} ).u [ u !.~.-.$.{.'.D D -.N ].>.,.R C | } b d , 7 ' ' d ' 0 d 8 < 4 < 8 ' ' ( ' ( ( : 8 8 < < 8 < G 8 : ( ( ) ! ] { ! ! ] _ n ] + + 3 . A 5 +.+.' ( f ' % ) ) 2 ' ( ' & ' d , b 6 u u 6 a , , 0 0 , ' ( 0 ( ( % ( ( ' : , < 6 r X < d 8 < < Z 6 u -.C C [ 6 '.} ).u [ u !.~.-.$.{.'.D D -.N ].>.,.R C | } b d , 7 ' ' d ' 0 d 8 < 4 < 8 ' ' ( ' ( ( : 8 8 < < 8 < G 8 : ( ( ) ! ] { ! ! ] _ n ] + + 3 . A 5 +.+.' ( f ' % ) ) 2 ' ( ' & ' d , b 6 u u 6 a , , 0 0 , ' ( 0 ( ( % ( ( ' : , < 6 r X < d 8 < < Z 6 u -.C C [ 6 '.} ).u [ u !.~.-.$.{.'.D D -.N ].>.,.R C | } b d , 7 ' ' d ' 0 d 8 < 4 < 8 ' ' ( ' ( ( : 8 8 < < 8 < G 8 : ( ( ) ! ] { ! ! ] _ n ] + + 3 . A 5 +.+.' ( f ' ",
"^ ] ^.^ + . c 3 & , X [ Z ; ; % . ) .   ( ' ' ( ; 0 , , b u '.b 1 J 7 , ' & % . % ( & ( ) 2 ( ( ' 9 ' < < G } /.6 1 6 b 6 (.-.H $.[ } [ D [ '._.:.<.'.[.).D D [ [ }.'.j -.,.#.Y Q u | | 7 7 d 7 , 7 | < < 1 < < < 8 , E : E d 8 < < G G 8 8 : 2   ( ! { ] { ] ^ ^ ] ^.^ + . c 3 & , X [ Z ; ; % . ) .   ( ' ' ( ; 0 , , b u '.b 1 J 7 , ' & % . % ( & ( ) 2 ( ( ' 9 ' < < G } /.6 1 6 b 6 (.-.H $.[ } [ D [ '._.:.<.'.[.).D D [ [ }.'.j -.,.#.Y Q u | | 7 7 d 7 , 7 | < < 1 < < < 8 , E : E d 8 < < G G 8 8 : 2   ( ! { ] { ] ^ ^ ] ^.^ + . c 3 & , X [ Z ; ; % . ) .   ( ' ' ( ; 0 , , b u '.b 1 J 7 , ' & % . % ( & ( ) 2 ( ( ' 9 ' < < G } /.6 1 6 b 6 (.-.H $.[ } [ D [ '._.:.<.'.[.).D D [ [ }.'.j -.,.#.Y Q u | | 7 7 d 7 , 7 | < < 1 < < < 8 , E : E d 8 < < G G 8 8 : 2   ( ! { ] { ] ^ ^ ] ^.^ + . c 3 & , X [ Z ; ; % "};
