/* XPM */
static char * south_xpm[] = {
"400 400 749 2",
"  	c #663300",
". 	c #CC6633",
"+ 	c #FFAE4C",
"@ 	c #FFCC66",
"# 	c #FFCC33",
"$ 	c #FFC054",
"% 	c #FF9933",
"& 	c #FFCC99",
"* 	c #FFFF66",
"= 	c #FFFF99",
"- 	c #777777",
"; 	c #FF6600",
"> 	c #FF9900",
", 	c #FEBF54",
"' 	c #EEB34E",
") 	c #DAAE82",
"! 	c #C79F4E",
"~ 	c #B99348",
"{ 	c #A88641",
"] 	c #956429",
"^ 	c #7E5D25",
"/ 	c #6A4E1E",
"( 	c #5F3E16",
"_ 	c #53412E",
": 	c #453516",
"< 	c #2E2008",
"[ 	c #0D0802",
"} 	c #262609",
"| 	c #38381D",
"1 	c #422406",
"2 	c #1F1F1F",
"3 	c #1D0A00",
"4 	c #52250F",
"5 	c #7A5120",
"6 	c #896D33",
"7 	c #96771A",
"8 	c #A2813E",
"9 	c #B18D44",
"0 	c #C18337",
"a 	c #CF9B42",
"b 	c #DCA547",
"c 	c #E88B2D",
"d 	c #F5C462",
"e 	c #F1B54F",
"f 	c #DF9841",
"g 	c #CDA37A",
"h 	c #BD9649",
"i 	c #AC8036",
"j 	c #98783A",
"k 	c #868632",
"l 	c #777745",
"m 	c #65390E",
"n 	c #140600",
"o 	c #250D03",
"p 	c #1C0F03",
"q 	c #2A2003",
"r 	c #3B2D11",
"s 	c #473717",
"t 	c #5A3B15",
"u 	c #6E511F",
"v 	c #805F26",
"w 	c #8F5318",
"x 	c #A3813E",
"y 	c #B59046",
"z 	c #C58539",
"A 	c #D7AB55",
"B 	c #E9BA5D",
"C 	c #F9C795",
"D 	c #E8B95C",
"E 	c #C58639",
"F 	c #9F7E3C",
"G 	c #765D12",
"H 	c #322309",
"I 	c #000000",
"J 	c #32250D",
"K 	c #6D481B",
"L 	c #907236",
"M 	c #AA8741",
"N 	c #C19A73",
"O 	c #D8AC2A",
"P 	c #EDBD5E",
"Q 	c #FDCB65",
"R 	c #FBC896",
"S 	c #E0B359",
"T 	c #C39B4C",
"U 	c #764E1E",
"V 	c #2A1D07",
"W 	c #56430A",
"X 	c #8F7136",
"Y 	c #B49046",
"Z 	c #D2A753",
"` 	c #EFBF5F",
" .	c #F19130",
"..	c #C49C4D",
"+.	c #917336",
"@.	c #422F0F",
"#.	c #261C09",
"$.	c #6E5728",
"%.	c #BA7E35",
"&.	c #D7A145",
"*.	c #EFB44E",
"=.	c #FCC965",
"-.	c #DEB12B",
";.	c #B38638",
">.	c #221910",
",.	c #563814",
"'.	c #9B732F",
").	c #CA9841",
"!.	c #F0A447",
"~.	c #F3C261",
"{.	c #C59D4D",
"].	c #826730",
"^.	c #0D0400",
"/.	c #422A0D",
"(.	c #876B32",
"_.	c #B07732",
":.	c #D3A853",
"<.	c #F0C060",
"[.	c #F8BB52",
"}.	c #D0A652",
"|.	c #946428",
"1.	c #382B10",
"2.	c #6D5627",
"3.	c #B67B34",
"4.	c #E7B95C",
"5.	c #A05E1C",
"6.	c #221907",
"7.	c #553713",
"8.	c #977839",
"9.	c #C19A4B",
"0.	c #E3B55A",
"a.	c #FC9732",
"b.	c #FE9833",
"c.	c #DAAE56",
"d.	c #97781A",
"e.	c #685125",
"f.	c #BD8036",
"g.	c #F2C261",
"h.	c #DEB258",
"i.	c #886C33",
"j.	c #35280F",
"k.	c #8B5117",
"l.	c #BD7023",
"m.	c #E2872C",
"n.	c #FCCA65",
"o.	c #F69431",
"p.	c #5C481F",
"q.	c #1C1405",
"r.	c #947638",
"s.	c #DFB258",
"t.	c #EEBF5F",
"u.	c #966529",
"v.	c #735B2A",
"w.	c #F1C160",
"x.	c #AD8A43",
"y.	c #79602C",
"z.	c #D4A953",
"A.	c #FCAC4B",
"B.	c #B69147",
"C.	c #2A200A",
"D.	c #F4C361",
"E.	c #AF8B20",
"F.	c #755C2A",
"G.	c #D9AD56",
"H.	c #EEBE5F",
"I.	c #79511F",
"J.	c #C0994B",
"K.	c #866A32",
"L.	c #EABB2E",
"M.	c #3D2F12",
"N.	c #6D5610",
"O.	c #6C5526",
"P.	c #1C1203",
"Q.	c #AF8337",
"R.	c #FAC864",
"S.	c #BC7F36",
"T.	c #AB7330",
"U.	c #654F23",
"V.	c #E19942",
"W.	c #6D501F",
"X.	c #E6B85B",
"Y.	c #0D0501",
"Z.	c #B48F46",
"`.	c #A57B33",
" +	c #C89F4E",
".+	c #846831",
"++	c #F2C230",
"@+	c #BB7F35",
"#+	c #FCBE53",
"$+	c #A36E2D",
"%+	c #534109",
"&+	c #E5AC4A",
"*+	c #D2A853",
"=+	c #F6B951",
"-+	c #876428",
";+	c #D49F44",
">+	c #2E230C",
",+	c #F3A548",
"'+	c #0D0701",
")+	c #C8A04E",
"!+	c #654218",
"~+	c #BE984A",
"{+	c #5F4A21",
"]+	c #EEBF2F",
"^+	c #695225",
"/+	c #CA893A",
"(+	c #A3821D",
"_+	c #FAC832",
":+	c #775E2B",
"<+	c #D6A045",
"[+	c #EFBF8F",
"}+	c #1C1401",
"|+	c #FECB98",
"1+	c #957619",
"2+	c #35250A",
"3+	c #E7AD4B",
"4+	c #A78462",
"5+	c #B4906B",
"6+	c #5A4218",
"7+	c #F4B750",
"8+	c #F8C763",
"9+	c #322519",
"0+	c #8A6729",
"a+	c #FEAD4C",
"b+	c #CDA451",
"c+	c #221605",
"d+	c #785923",
"e+	c #A06C2C",
"f+	c #BD9670",
"g+	c #CFA551",
"h+	c #DEA748",
"i+	c #EABB5D",
"j+	c #F0F060",
"k+	c #F7F794",
"l+	c #FB9632",
"m+	c #767676",
"n+	c #C96432",
"o+	c #F8A94A",
"p+	c #F0C02F",
"q+	c #DBAF57",
"r+	c #CD8B3B",
"s+	c #BE8F3C",
"t+	c #AD8136",
"u+	c #8E5318",
"v+	c #604B22",
"w+	c #F1A447",
"x+	c #493918",
"y+	c #9F9F3C",
"z+	c #BBBB6F",
"A+	c #D37E28",
"B+	c #6B6B6B",
"C+	c #5F2F00",
"D+	c #C46231",
"E+	c #FBAB4B",
"F+	c #F8C631",
"G+	c #ECBD5E",
"H+	c #DC9640",
"I+	c #C7953F",
"J+	c #834C15",
"K+	c #BB7E35",
"L+	c #8A6D34",
"M+	c #B47933",
"N+	c #E0A849",
"O+	c #FBBD52",
"P+	c #FBC864",
"Q+	c #E9BA5C",
"R+	c #D18E3D",
"S+	c #AF8B43",
"T+	c #81664B",
"U+	c #322503",
"V+	c #895C25",
"W+	c #7E6349",
"X+	c #C79E4E",
"Y+	c #ECB14D",
"Z+	c #F9C763",
"`+	c #A98641",
" @	c #40280C",
".@	c #E5B789",
"+@	c #F4A648",
"@@	c #160F03",
"#@	c #E2B459",
"$@	c #FDCB33",
"%@	c #C69E4D",
"&@	c #967739",
"*@	c #AA7F35",
"=@	c #E99E45",
"-@	c #FAAA4A",
";@	c #CCA350",
">@	c #735B42",
",@	c #705840",
"'@	c #FBC964",
")@	c #D4903D",
"!@	c #705220",
"~@	c #E4AB4A",
"{@	c #FECB65",
"]@	c #E69C43",
"^@	c #C0903D",
"/@	c #836127",
"(@	c #160B02",
"_@	c #F2C160",
":@	c #9D7530",
"<@	c #F0B44E",
"[@	c #CDA427",
"}@	c #5A461F",
"|@	c #B89247",
"1@	c #AD7430",
"2@	c #9A7A1B",
"3@	c #F5A749",
"4@	c #CDA350",
"5@	c #947538",
"6@	c #321E07",
"7@	c #9C7C3B",
"8@	c #E29A42",
"9@	c #AC8942",
"0@	c #754D1E",
"a@	c #FECB33",
"b@	c #D1A652",
"c@	c #8F7153",
"d@	c #9A7A3A",
"e@	c #F7C663",
"f@	c #946E2D",
"g@	c #C49C4C",
"h@	c #7A612D",
"i@	c #624017",
"j@	c #E1B459",
"k@	c #A4823F",
"l@	c #D68029",
"m@	c #C2913E",
"n@	c #F2A548",
"o@	c #D6AB54",
"p@	c #5C3C15",
"q@	c #F7C563",
"r@	c #C4923E",
"s@	c #956F2D",
"t@	c #714111",
"u@	c #C3923E",
"v@	c #F5B850",
"w@	c #654A1C",
"x@	c #DCDC57",
"y@	c #C29B4C",
"z@	c #D9A346",
"A@	c #A7851E",
"B@	c #EBA045",
"C@	c #423315",
"D@	c #898933",
"E@	c #CF8C3C",
"F@	c #866328",
"G@	c #FDCA32",
"H@	c #DCB057",
"I@	c #E7E78A",
"J@	c #9F7F3D",
"K@	c #E8AE4B",
"L@	c #A2A25F",
"M@	c #6A5426",
"N@	c #323219",
"O@	c #F79431",
"P@	c #8D5E26",
"Q@	c #C87726",
"R@	c #825722",
"S@	c #D4903E",
"T@	c #D28E3D",
"U@	c #99672A",
"V@	c #7C4713",
"W@	c #805521",
"X@	c #ECA045",
"Y@	c #6F6F6F",
"Z@	c #664319",
"`@	c #2E1C07",
" #	c #595959",
".#	c #926227",
"+#	c #D8AC55",
"@#	c #383838",
"##	c #9B682B",
"$#	c #DDB057",
"%#	c #815622",
"&#	c #050505",
"*#	c #633100",
"=#	c #AF7631",
"-#	c #836831",
";#	c #58451E",
">#	c #664B1C",
",#	c #D08D3C",
"'#	c #532900",
")#	c #C48438",
"!#	c #EDB24D",
"~#	c #EBBB5D",
"{#	c #BB8C3B",
"]#	c #401E00",
"^#	c #D5913E",
"/#	c #B68839",
"(#	c #F7C594",
"_#	c #CAA14F",
":#	c #E8AE4C",
"<#	c #281000",
"[#	c #382B1D",
"}#	c #AB8842",
"|#	c #E7B85B",
"1#	c #CEA551",
"2#	c #020000",
"3#	c #C56331",
"4#	c #6C471B",
"5#	c #B88A3A",
"6#	c #AD661F",
"7#	c #F6C562",
"8#	c #AF572A",
"9#	c #4B3612",
"0#	c #C69E76",
"a#	c #D57F29",
"b#	c #984A23",
"c#	c #816630",
"d#	c #ADAD43",
"e#	c #CFCF7B",
"f#	c #EA8C2E",
"g#	c #E4B62C",
"h#	c #F39130",
"i#	c #A9641E",
"j#	c #7D3C1B",
"k#	c #131313",
"l#	c #301500",
"m#	c #8A431F",
"n#	c #CAA126",
"o#	c #5F350C",
"p#	c #CF7B27",
"q#	c #562710",
"r#	c #5D4920",
"s#	c #382B04",
"t#	c #EBB14D",
"u#	c #B18D20",
"v#	c #9D5C1B",
"w#	c #ED8E2F",
"x#	c #190702",
"y#	c #B38E45",
"z#	c #402E0E",
"A#	c #8C5217",
"B#	c #F7A849",
"C#	c #947619",
"D#	c #BC9649",
"E#	c #F0A347",
"F#	c #160F08",
"G#	c #765D2B",
"H#	c #DDB084",
"I#	c #FBC832",
"J#	c #705810",
"K#	c #DE9741",
"L#	c #947657",
"M#	c #2E2303",
"N#	c #8C6F34",
"O#	c #C9A04F",
"P#	c #9E7D1C",
"Q#	c #261A06",
"R#	c #99722F",
"S#	c #DB9540",
"T#	c #FECB66",
"U#	c #422400",
"V#	c #F1C130",
"W#	c #C78739",
"X#	c #693C0F",
"Y#	c #9A672A",
"Z#	c #4F3D1A",
"`#	c #BE974A",
" $	c #F9AA4A",
".$	c #DE852B",
"+$	c #8A5C25",
"@$	c #957638",
"#$	c #533612",
"$$	c #E98B2E",
"%$	c #7C5220",
"&$	c #E5B75B",
"*$	c #A5833F",
"=$	c #6A461A",
"-$	c #583914",
";$	c #BA6E22",
">$	c #F6C462",
",$	c #E99F45",
"'$	c #513B15",
")$	c #7E4914",
"!$	c #F29130",
"~$	c #BD974A",
"{$	c #B06820",
"]$	c #4F3311",
"^$	c #BA9448",
"/$	c #FCC932",
"($	c #452C0E",
"_$	c #7F5421",
":$	c #B79247",
"<$	c #382309",
"[$	c #FDAC4B",
"}$	c #E6B72D",
"|$	c #0D0800",
"1$	c #DCAF57",
"2$	c #4D3813",
"3$	c #755622",
"4$	c #B08C20",
"5$	c #4D3210",
"6$	c #ECBC5E",
"7$	c #99793A",
"8$	c #E09942",
"9$	c #A67C34",
"0$	c #684419",
"a$	c #EDA146",
"b$	c #AE8A43",
"c$	c #98712E",
"d$	c #EA9F45",
"e$	c #846227",
"f$	c #D7AC55",
"g$	c #F1B64F",
"h$	c #C1913D",
"i$	c #7C612D",
"j$	c #CE8C3C",
"k$	c #9B7B3B",
"l$	c #DEB158",
"m$	c #453110",
"n$	c #E8B92D",
"o$	c #9B7430",
"p$	c #F8C663",
"q$	c #FABC52",
"r$	c #F0C05F",
"s$	c #F9C731",
"t$	c #E9AF4C",
"u$	c #CB8A3B",
"v$	c #FBBD53",
"w$	c #E3AB4A",
"x$	c #9B7B5B",
"y$	c #D5AA29",
"z$	c #714B1C",
"A$	c #DD9641",
"B$	c #F2B64F",
"C$	c #D5AA54",
"D$	c #B2B245",
"E$	c #83834C",
"F$	c #2A1503",
"G$	c #A1801C",
"H$	c #937419",
"I$	c #BD8E3C",
"J$	c #EFA347",
"K$	c #FB9732",
"L$	c #686868",
"M$	c #492300",
"N$	c #683115",
"O$	c #261705",
"P$	c #5F4A0C",
"Q$	c #9F7631",
"R$	c #EEBE5E",
"S$	c #140501",
"T$	c #FDAD4B",
"U$	c #A2811D",
"V$	c #C9A026",
"W$	c #62481B",
"X$	c #54260F",
"Y$	c #906027",
"Z$	c #DBA447",
"`$	c #E2B52C",
" %	c #7B3B1B",
".%	c #A77C34",
"+%	c #221002",
"@%	c #F8C731",
"#%	c #D6A145",
"$%	c #974A23",
"%%	c #EC8D2E",
"&%	c #665024",
"*%	c #AE562A",
"=%	c #A07F3D",
"-%	c #C56231",
";%	c #775822",
">%	c #260F00",
",%	c #865A24",
"'%	c #63491B",
")%	c #FBC997",
"!%	c #3F1D00",
"~%	c #E79D44",
"{%	c #553E16",
"]%	c #53411C",
"^%	c #D1A77D",
"/%	c #532800",
"(%	c #83684C",
"_%	c #020202",
":%	c #623100",
"<%	c #CBA250",
"[%	c #373737",
"}%	c #2A1906",
"|%	c #A68440",
"1%	c #575757",
"2%	c #261C12",
"3%	c #946328",
"4%	c #A1803D",
"5%	c #584531",
"6%	c #D18E3C",
"7%	c #9B682A",
"8%	c #784512",
"9%	c #725A42",
"0%	c #725421",
"a%	c #FAAB4A",
"b%	c #E4B65A",
"c%	c #C67625",
"d%	c #AD8942",
"e%	c #634E38",
"f%	c #A97E35",
"g%	c #2E2E17",
"h%	c #6E573F",
"i%	c #D4A929",
"j%	c #2E2317",
"k%	c #9F9F5E",
"l%	c #D8AD55",
"m%	c #B48639",
"n%	c #DDB157",
"o%	c #E6E689",
"p%	c #C89640",
"q%	c #D7A246",
"r%	c #AA871F",
"s%	c #5D3D16",
"t%	c #DAA447",
"u%	c #6E3F10",
"v%	c #C5933F",
"w%	c #DBDB56",
"x%	c #F3A648",
"y%	c #715320",
"z%	c #80652F",
"A%	c #8D7035",
"B%	c #D5903E",
"C%	c #513F09",
"D%	c #785F2C",
"E%	c #BB956F",
"F%	c #B37933",
"G%	c #6E491C",
"H%	c #4B3A18",
"I%	c #916C2C",
"J%	c #C09924",
"K%	c #634E23",
"L%	c #E39A43",
"M%	c #715911",
"N%	c #BB9548",
"O%	c #E89E44",
"P%	c #C37424",
"Q%	c #E3B52C",
"R%	c #9F7731",
"S%	c #F0B54F",
"T%	c #CEA527",
"U%	c #B69146",
"V%	c #4B2908",
"W%	c #CA9741",
"X%	c #CB9941",
"Y%	c #684C1D",
"Z%	c #C68639",
"`%	c #755C43",
" &	c #6C553E",
".&	c #D8AD2A",
"+&	c #80654A",
"@&	c #AA7330",
"#&	c #E4B688",
"$&	c #493512",
"%&	c #C8873A",
"&&	c #F6C493",
"*&	c #FBFB64",
"=&	c #F6F693",
"-&	c #EE8E2F",
";&	c #6A6A6A",
">&	c #542900",
",&	c #9A4C24",
"'&	c #E2B55A",
")&	c #9F9F3D",
"!&	c #BDBD70",
"~&	c #D47E29",
"{&	c #602F00",
"]&	c #FBAC4B",
"^&	c #AE8237",
"/&	c #844D15",
"(&	c #B87C34",
"_&	c #B28D69",
":&	c #F3B750",
"<&	c #513F1B",
"[&	c #927319",
"}&	c #E5AC4B",
"|&	c #5D4935",
"1&	c #D8AD81",
"2&	c #55421D",
"3&	c #C59D75",
"4&	c #2E1703",
"5&	c #F6A749",
"6&	c #D29D44",
"7&	c #D07C28",
"8&	c #A07731",
"9&	c #4F3D09",
"0&	c #B17732",
"a&	c #FDCA65",
"b&	c #CE7B27",
"c&	c #5C480C",
"d&	c #F9BC52",
"e&	c #E6B75B",
"f&	c #4D3C2B",
"g&	c #F7C531",
"h&	c #FDCB98",
"i&	c #DBAF2A",
"j&	c #403114",
"k&	c #CEA451",
"l&	c #261C02",
"m&	c #725A29",
"n&	c #A7702E",
"o&	c #B97D34",
"p&	c #F6C431",
"q&	c #BB9549",
"r&	c #5A460B",
"s&	c #936228",
"t&	c #D1A752",
"u&	c #A6702E",
"v&	c #715929",
"w&	c #69451A",
"x&	c #B48739",
"y&	c #937437",
"z&	c #E69D44",
"A&	c #9A722F",
"B&	c #160D02",
"C&	c #473707",
"D&	c #BF984A",
"E&	c #DCB02B",
"F&	c #B18438",
"G&	c #7A5A24",
"H&	c #C8883A",
"I&	c #453506",
"J&	c #845823",
"K&	c #EBBB8C",
"L&	c #C29A4C",
"M&	c #A16C2D",
"N&	c #735521",
"O&	c #55420A",
"P&	c #EEA246",
"Q&	c #EBB04D",
"R&	c #CBA24F",
"S&	c #A37932",
"T&	c #826026",
"U&	c #5F4A35",
"V&	c #0D0D04",
"W&	c #161616",
"X&	c #180700",
"Y&	c #421D0A",
"Z&	c #603F17",
"`&	c #806514",
" *	c #B58739",
".*	c #D29E44",
"+*	c #E6892D",
"@*	c #CBA279",
"#*	c #848431",
"$*	c #757543",
"%*	c #62370D",
"&*	c #1E1E1E",
"**	c #110500",
"=*	c #230C03",
"-*	c #563F17",
";*	c #6C4F1E",
">*	c #C48538",
"  . + @ # @ @ + $ $ % @ @ @ + @ & # @ @ @ @ + $ + @ @ @ + @ @ @ @ @ + @ @ $ & @ @ + @ @ @ # $ $ @ @ @ + $ $ $ + & @ $ @ * = % -   . + @ # @ @ + $ $ % @ @ @ + @ & # @ @ @ @ + $ + @ @ @ + @ @ @ @ @ + @ @ $ & @ @ + @ @ @ # $ $ @ @ @ + $ $ $ + & @ $ @ * = % -   . + @ # @ @ + $ $ % @ @ @ + @ & # @ @ @ @ + $ + @ @ @ + @ @ @ @ @ + @ @ $ & @ @ + @ @ @ # $ $ @ @ @ + $ $ $ + & @ $ @ * = % -   . + @ # @ @ + $ $ % @ @ @ + @ & # @ @ @ @ + $ + @ @ @ + @ @ @ @ @ + @ @ $ & @ @ + @ @ @ # $ $ @ @ @ + $ $ $ + & @ $ @ * = % -   . + @ # @ @ + $ $ % @ @ @ + @ & # @ @ @ @ + $ + @ @ @ + @ @ @ @ @ + @ @ $ & @ @ + @ @ @ # $ $ @ @ @ + $ $ $ + & @ $ @ * = % -   . + @ # @ @ + $ $ % @ @ @ + @ & # @ @ @ @ + $ + @ @ @ + @ @ @ @ @ + @ @ $ & @ @ + @ @ @ # $ $ @ @ @ + $ $ $ + & @ $ @ * = % -   . + @ # @ @ + $ $ % @ @ @ + @ ",
"  . + @ # @ @ + $ $ % @ @ @ + @ & # @ @ @ + $ $ + @ @ @ + @ @ @ @ @ + @ @ $ & @ @ @ + @ @ # $ $ & @ @ + $ $ $ + & @ $ @ * = % -   . + @ # @ @ + $ $ % @ @ @ + @ & # @ @ @ + $ $ + @ @ @ + @ @ @ @ @ + @ @ $ & @ @ @ + @ @ # $ $ & @ @ + $ $ $ + & @ $ @ * = % -   . + @ # @ @ + $ $ % @ @ @ + @ & # @ @ @ + $ $ + @ @ @ + @ @ @ @ @ + @ @ $ & @ @ @ + @ @ # $ $ & @ @ + $ $ $ + & @ $ @ * = % -   . + @ # @ @ + $ $ % @ @ @ + @ & # @ @ @ + $ $ + @ @ @ + @ @ @ @ @ + @ @ $ & @ @ @ + @ @ # $ $ & @ @ + $ $ $ + & @ $ @ * = % -   . + @ # @ @ + $ $ % @ @ @ + @ & # @ @ @ + $ $ + @ @ @ + @ @ @ @ @ + @ @ $ & @ @ @ + @ @ # $ $ & @ @ + $ $ $ + & @ $ @ * = % -   . + @ # @ @ + $ $ % @ @ @ + @ & # @ @ @ + $ $ + @ @ @ + @ @ @ @ @ + @ @ $ & @ @ @ + @ @ # $ $ & @ @ + $ $ $ + & @ $ @ * = % -   . + @ # @ @ + $ $ % @ @ @ + @ ",
"  . + @ # @ @ + $ $ % @ @ @ + @ & # @ @ @ + $ $ + @ @ @ + @ @ @ @ @ + @ @ $ $ @ @ @ + @ @ # $ $ & @ @ + $ $ $ + & @ $ @ * = % -   . + @ # @ @ + $ $ % @ @ @ + @ & # @ @ @ + $ $ + @ @ @ + @ @ @ @ @ + @ @ $ $ @ @ @ + @ @ # $ $ & @ @ + $ $ $ + & @ $ @ * = % -   . + @ # @ @ + $ $ % @ @ @ + @ & # @ @ @ + $ $ + @ @ @ + @ @ @ @ @ + @ @ $ $ @ @ @ + @ @ # $ $ & @ @ + $ $ $ + & @ $ @ * = % -   . + @ # @ @ + $ $ % @ @ @ + @ & # @ @ @ + $ $ + @ @ @ + @ @ @ @ @ + @ @ $ $ @ @ @ + @ @ # $ $ & @ @ + $ $ $ + & @ $ @ * = % -   . + @ # @ @ + $ $ % @ @ @ + @ & # @ @ @ + $ $ + @ @ @ + @ @ @ @ @ + @ @ $ $ @ @ @ + @ @ # $ $ & @ @ + $ $ $ + & @ $ @ * = % -   . + @ # @ @ + $ $ % @ @ @ + @ & # @ @ @ + $ $ + @ @ @ + @ @ @ @ @ + @ @ $ $ @ @ @ + @ @ # $ $ & @ @ + $ $ $ + & @ $ @ * = % -   . + @ # @ @ + $ $ % @ @ @ + @ ",
"  . + @ # @ @ + $ $ % @ @ @ + @ & # @ @ @ + $ $ + @ @ @ + @ @ @ @ + @ @ @ @ $ $ @ @ + @ @ # $ $ & @ @ + $ $ $ + & @ $ @ * = % -   . + @ # @ @ + $ $ % @ @ @ + @ & # @ @ @ + $ $ + @ @ @ + @ @ @ @ + @ @ @ @ $ $ @ @ + @ @ # $ $ & @ @ + $ $ $ + & @ $ @ * = % -   . + @ # @ @ + $ $ % @ @ @ + @ & # @ @ @ + $ $ + @ @ @ + @ @ @ @ + @ @ @ @ $ $ @ @ + @ @ # $ $ & @ @ + $ $ $ + & @ $ @ * = % -   . + @ # @ @ + $ $ % @ @ @ + @ & # @ @ @ + $ $ + @ @ @ + @ @ @ @ + @ @ @ @ $ $ @ @ + @ @ # $ $ & @ @ + $ $ $ + & @ $ @ * = % -   . + @ # @ @ + $ $ % @ @ @ + @ & # @ @ @ + $ $ + @ @ @ + @ @ @ @ + @ @ @ @ $ $ @ @ + @ @ # $ $ & @ @ + $ $ $ + & @ $ @ * = % -   . + @ # @ @ + $ $ % @ @ @ + @ & # @ @ @ + $ $ + @ @ @ + @ @ @ @ + @ @ @ @ $ $ @ @ + @ @ # $ $ & @ @ + $ $ $ + & @ $ @ * = % -   . + @ # @ @ + $ $ % @ @ @ + @ ",
"  . + @ # @ @ + $ $ % @ @ + @ @ & # @ @ @ + $ $ + @ @ @ + @ @ @ + @ @ + @ @ $ $ @ @ + @ @ # $ $ & @ @ + $ $ $ + & @ $ @ * = % -   . + @ # @ @ + $ $ % @ @ + @ @ & # @ @ @ + $ $ + @ @ @ + @ @ @ + @ @ + @ @ $ $ @ @ + @ @ # $ $ & @ @ + $ $ $ + & @ $ @ * = % -   . + @ # @ @ + $ $ % @ @ + @ @ & # @ @ @ + $ $ + @ @ @ + @ @ @ + @ @ + @ @ $ $ @ @ + @ @ # $ $ & @ @ + $ $ $ + & @ $ @ * = % -   . + @ # @ @ + $ $ % @ @ + @ @ & # @ @ @ + $ $ + @ @ @ + @ @ @ + @ @ + @ @ $ $ @ @ + @ @ # $ $ & @ @ + $ $ $ + & @ $ @ * = % -   . + @ # @ @ + $ $ % @ @ + @ @ & # @ @ @ + $ $ + @ @ @ + @ @ @ + @ @ + @ @ $ $ @ @ + @ @ # $ $ & @ @ + $ $ $ + & @ $ @ * = % -   . + @ # @ @ + $ $ % @ @ + @ @ & # @ @ @ + $ $ + @ @ @ + @ @ @ + @ @ + @ @ $ $ @ @ + @ @ # $ $ & @ @ + $ $ $ + & @ $ @ * = % -   . + @ # @ @ + $ $ % @ @ + @ @ ",
"  . + @ # @ @ + $ $ % @ @ + @ @ & # @ @ @ + $ $ + @ @ @ + @ @ @ + @ @ + + @ $ $ @ @ + @ @ # $ $ & @ @ + $ $ $ + & @ $ @ * = % -   . + @ # @ @ + $ $ % @ @ + @ @ & # @ @ @ + $ $ + @ @ @ + @ @ @ + @ @ + + @ $ $ @ @ + @ @ # $ $ & @ @ + $ $ $ + & @ $ @ * = % -   . + @ # @ @ + $ $ % @ @ + @ @ & # @ @ @ + $ $ + @ @ @ + @ @ @ + @ @ + + @ $ $ @ @ + @ @ # $ $ & @ @ + $ $ $ + & @ $ @ * = % -   . + @ # @ @ + $ $ % @ @ + @ @ & # @ @ @ + $ $ + @ @ @ + @ @ @ + @ @ + + @ $ $ @ @ + @ @ # $ $ & @ @ + $ $ $ + & @ $ @ * = % -   . + @ # @ @ + $ $ % @ @ + @ @ & # @ @ @ + $ $ + @ @ @ + @ @ @ + @ @ + + @ $ $ @ @ + @ @ # $ $ & @ @ + $ $ $ + & @ $ @ * = % -   . + @ # @ @ + $ $ % @ @ + @ @ & # @ @ @ + $ $ + @ @ @ + @ @ @ + @ @ + + @ $ $ @ @ + @ @ # $ $ & @ @ + $ $ $ + & @ $ @ * = % -   . + @ # @ @ + $ $ % @ @ + @ @ ",
"  . + @ # @ @ + $ $ % @ @ + @ @ & # @ @ @ + $ $ + @ @ @ + @ @ @ + @ @ + + @ $ $ @ @ + @ @ # $ $ & @ @ + $ $ $ + & @ $ @ * = % -   . + @ # @ @ + $ $ % @ @ + @ @ & # @ @ @ + $ $ + @ @ @ + @ @ @ + @ @ + + @ $ $ @ @ + @ @ # $ $ & @ @ + $ $ $ + & @ $ @ * = % -   . + @ # @ @ + $ $ % @ @ + @ @ & # @ @ @ + $ $ + @ @ @ + @ @ @ + @ @ + + @ $ $ @ @ + @ @ # $ $ & @ @ + $ $ $ + & @ $ @ * = % -   . + @ # @ @ + $ $ % @ @ + @ @ & # @ @ @ + $ $ + @ @ @ + @ @ @ + @ @ + + @ $ $ @ @ + @ @ # $ $ & @ @ + $ $ $ + & @ $ @ * = % -   . + @ # @ @ + $ $ % @ @ + @ @ & # @ @ @ + $ $ + @ @ @ + @ @ @ + @ @ + + @ $ $ @ @ + @ @ # $ $ & @ @ + $ $ $ + & @ $ @ * = % -   . + @ # @ @ + $ $ % @ @ + @ @ & # @ @ @ + $ $ + @ @ @ + @ @ @ + @ @ + + @ $ $ @ @ + @ @ # $ $ & @ @ + $ $ $ + & @ $ @ * = % -   . + @ # @ @ + $ $ % @ @ + @ @ ",
"  . + @ # @ @ + $ $ % @ @ + @ @ & # @ @ @ @ + $ + @ @ @ + @ @ + @ @ + @ + @ $ $ @ @ + @ @ # $ $ & @ @ + $ $ $ + & @ $ @ * = % -   . + @ # @ @ + $ $ % @ @ + @ @ & # @ @ @ @ + $ + @ @ @ + @ @ + @ @ + @ + @ $ $ @ @ + @ @ # $ $ & @ @ + $ $ $ + & @ $ @ * = % -   . + @ # @ @ + $ $ % @ @ + @ @ & # @ @ @ @ + $ + @ @ @ + @ @ + @ @ + @ + @ $ $ @ @ + @ @ # $ $ & @ @ + $ $ $ + & @ $ @ * = % -   . + @ # @ @ + $ $ % @ @ + @ @ & # @ @ @ @ + $ + @ @ @ + @ @ + @ @ + @ + @ $ $ @ @ + @ @ # $ $ & @ @ + $ $ $ + & @ $ @ * = % -   . + @ # @ @ + $ $ % @ @ + @ @ & # @ @ @ @ + $ + @ @ @ + @ @ + @ @ + @ + @ $ $ @ @ + @ @ # $ $ & @ @ + $ $ $ + & @ $ @ * = % -   . + @ # @ @ + $ $ % @ @ + @ @ & # @ @ @ @ + $ + @ @ @ + @ @ + @ @ + @ + @ $ $ @ @ + @ @ # $ $ & @ @ + $ $ $ + & @ $ @ * = % -   . + @ # @ @ + $ $ % @ @ + @ @ ",
"  . + @ # @ @ + $ $ % @ @ + @ @ & # @ @ @ @ + $ + @ @ @ + @ @ + @ @ + @ + @ & $ @ @ + @ @ # $ $ & @ @ + $ $ $ + & @ $ @ * = % -   . + @ # @ @ + $ $ % @ @ + @ @ & # @ @ @ @ + $ + @ @ @ + @ @ + @ @ + @ + @ & $ @ @ + @ @ # $ $ & @ @ + $ $ $ + & @ $ @ * = % -   . + @ # @ @ + $ $ % @ @ + @ @ & # @ @ @ @ + $ + @ @ @ + @ @ + @ @ + @ + @ & $ @ @ + @ @ # $ $ & @ @ + $ $ $ + & @ $ @ * = % -   . + @ # @ @ + $ $ % @ @ + @ @ & # @ @ @ @ + $ + @ @ @ + @ @ + @ @ + @ + @ & $ @ @ + @ @ # $ $ & @ @ + $ $ $ + & @ $ @ * = % -   . + @ # @ @ + $ $ % @ @ + @ @ & # @ @ @ @ + $ + @ @ @ + @ @ + @ @ + @ + @ & $ @ @ + @ @ # $ $ & @ @ + $ $ $ + & @ $ @ * = % -   . + @ # @ @ + $ $ % @ @ + @ @ & # @ @ @ @ + $ + @ @ @ + @ @ + @ @ + @ + @ & $ @ @ + @ @ # $ $ & @ @ + $ $ $ + & @ $ @ * = % -   . + @ # @ @ + $ $ % @ @ + @ @ ",
"  . + @ # @ @ + $ $ % @ @ + @ @ & # @ @ @ @ + $ + @ @ @ + @ + @ @ @ + # + @ @ $ @ @ + @ @ # $ $ & @ @ + $ $ $ + & @ $ @ * = % -   . + @ # @ @ + $ $ % @ @ + @ @ & # @ @ @ @ + $ + @ @ @ + @ + @ @ @ + # + @ @ $ @ @ + @ @ # $ $ & @ @ + $ $ $ + & @ $ @ * = % -   . + @ # @ @ + $ $ % @ @ + @ @ & # @ @ @ @ + $ + @ @ @ + @ + @ @ @ + # + @ @ $ @ @ + @ @ # $ $ & @ @ + $ $ $ + & @ $ @ * = % -   . + @ # @ @ + $ $ % @ @ + @ @ & # @ @ @ @ + $ + @ @ @ + @ + @ @ @ + # + @ @ $ @ @ + @ @ # $ $ & @ @ + $ $ $ + & @ $ @ * = % -   . + @ # @ @ + $ $ % @ @ + @ @ & # @ @ @ @ + $ + @ @ @ + @ + @ @ @ + # + @ @ $ @ @ + @ @ # $ $ & @ @ + $ $ $ + & @ $ @ * = % -   . + @ # @ @ + $ $ % @ @ + @ @ & # @ @ @ @ + $ + @ @ @ + @ + @ @ @ + # + @ @ $ @ @ + @ @ # $ $ & @ @ + $ $ $ + & @ $ @ * = % -   . + @ # @ @ + $ $ % @ @ + @ @ ",
"  . + @ # @ @ + $ $ % @ @ + @ @ & # @ @ @ @ + $ + @ @ @ + @ + @ @ @ + # @ + @ $ & @ + @ @ # $ $ & @ @ + $ $ $ + & @ $ @ * = % -   . + @ # @ @ + $ $ % @ @ + @ @ & # @ @ @ @ + $ + @ @ @ + @ + @ @ @ + # @ + @ $ & @ + @ @ # $ $ & @ @ + $ $ $ + & @ $ @ * = % -   . + @ # @ @ + $ $ % @ @ + @ @ & # @ @ @ @ + $ + @ @ @ + @ + @ @ @ + # @ + @ $ & @ + @ @ # $ $ & @ @ + $ $ $ + & @ $ @ * = % -   . + @ # @ @ + $ $ % @ @ + @ @ & # @ @ @ @ + $ + @ @ @ + @ + @ @ @ + # @ + @ $ & @ + @ @ # $ $ & @ @ + $ $ $ + & @ $ @ * = % -   . + @ # @ @ + $ $ % @ @ + @ @ & # @ @ @ @ + $ + @ @ @ + @ + @ @ @ + # @ + @ $ & @ + @ @ # $ $ & @ @ + $ $ $ + & @ $ @ * = % -   . + @ # @ @ + $ $ % @ @ + @ @ & # @ @ @ @ + $ + @ @ @ + @ + @ @ @ + # @ + @ $ & @ + @ @ # $ $ & @ @ + $ $ $ + & @ $ @ * = % -   . + @ # @ @ + $ $ % @ @ + @ @ ",
"  . + @ # @ @ + $ $ % @ @ + @ @ & # @ @ @ @ + $ + @ @ @ + @ + @ @ % @ # @ + @ $ $ @ + @ @ # $ $ & @ @ + $ $ $ + & @ $ @ * = % -   . + @ # @ @ + $ $ % @ @ + @ @ & # @ @ @ @ + $ + @ @ @ + @ + @ @ % @ # @ + @ $ $ @ + @ @ # $ $ & @ @ + $ $ $ + & @ $ @ * = % -   . + @ # @ @ + $ $ % @ @ + @ @ & # @ @ @ @ + $ + @ @ @ + @ + @ @ % @ # @ + @ $ $ @ + @ @ # $ $ & @ @ + $ $ $ + & @ $ @ * = % -   . + @ # @ @ + $ $ % @ @ + @ @ & # @ @ @ @ + $ + @ @ @ + @ + @ @ % @ # @ + @ $ $ @ + @ @ # $ $ & @ @ + $ $ $ + & @ $ @ * = % -   . + @ # @ @ + $ $ % @ @ + @ @ & # @ @ @ @ + $ + @ @ @ + @ + @ @ % @ # @ + @ $ $ @ + @ @ # $ $ & @ @ + $ $ $ + & @ $ @ * = % -   . + @ # @ @ + $ $ % @ @ + @ @ & # @ @ @ @ + $ + @ @ @ + @ + @ @ % @ # @ + @ $ $ @ + @ @ # $ $ & @ @ + $ $ $ + & @ $ @ * = % -   . + @ # @ @ + $ $ % @ @ + @ @ ",
"  . + @ # @ @ + $ $ % @ @ + @ @ & # @ @ @ @ + $ + @ @ @ + @ + @ @ % @ # @ + @ $ $ @ + @ @ # $ $ & @ @ + $ $ $ + & @ $ @ * = % -   . + @ # @ @ + $ $ % @ @ + @ @ & # @ @ @ @ + $ + @ @ @ + @ + @ @ % @ # @ + @ $ $ @ + @ @ # $ $ & @ @ + $ $ $ + & @ $ @ * = % -   . + @ # @ @ + $ $ % @ @ + @ @ & # @ @ @ @ + $ + @ @ @ + @ + @ @ % @ # @ + @ $ $ @ + @ @ # $ $ & @ @ + $ $ $ + & @ $ @ * = % -   . + @ # @ @ + $ $ % @ @ + @ @ & # @ @ @ @ + $ + @ @ @ + @ + @ @ % @ # @ + @ $ $ @ + @ @ # $ $ & @ @ + $ $ $ + & @ $ @ * = % -   . + @ # @ @ + $ $ % @ @ + @ @ & # @ @ @ @ + $ + @ @ @ + @ + @ @ % @ # @ + @ $ $ @ + @ @ # $ $ & @ @ + $ $ $ + & @ $ @ * = % -   . + @ # @ @ + $ $ % @ @ + @ @ & # @ @ @ @ + $ + @ @ @ + @ + @ @ % @ # @ + @ $ $ @ + @ @ # $ $ & @ @ + $ $ $ + & @ $ @ * = % -   . + @ # @ @ + $ $ % @ @ + @ @ ",
"  . + @ # @ @ + $ $ % @ @ + @ @ & # @ @ @ @ + $ + @ @ @ + @ + @ @ % @ # @ + @ @ $ @ + @ @ # $ $ & @ @ + $ $ $ + & @ $ @ * = % -   . + @ # @ @ + $ $ % @ @ + @ @ & # @ @ @ @ + $ + @ @ @ + @ + @ @ % @ # @ + @ @ $ @ + @ @ # $ $ & @ @ + $ $ $ + & @ $ @ * = % -   . + @ # @ @ + $ $ % @ @ + @ @ & # @ @ @ @ + $ + @ @ @ + @ + @ @ % @ # @ + @ @ $ @ + @ @ # $ $ & @ @ + $ $ $ + & @ $ @ * = % -   . + @ # @ @ + $ $ % @ @ + @ @ & # @ @ @ @ + $ + @ @ @ + @ + @ @ % @ # @ + @ @ $ @ + @ @ # $ $ & @ @ + $ $ $ + & @ $ @ * = % -   . + @ # @ @ + $ $ % @ @ + @ @ & # @ @ @ @ + $ + @ @ @ + @ + @ @ % @ # @ + @ @ $ @ + @ @ # $ $ & @ @ + $ $ $ + & @ $ @ * = % -   . + @ # @ @ + $ $ % @ @ + @ @ & # @ @ @ @ + $ + @ @ @ + @ + @ @ % @ # @ + @ @ $ @ + @ @ # $ $ & @ @ + $ $ $ + & @ $ @ * = % -   . + @ # @ @ + $ $ % @ @ + @ @ ",
"  . + @ # @ @ + $ $ % @ @ + @ @ & # @ @ @ @ + $ + @ @ @ + @ + @ @ % @ @ @ @ % @ $ @ + @ @ # $ $ & @ @ + $ $ $ + & @ $ @ * = % -   . + @ # @ @ + $ $ % @ @ + @ @ & # @ @ @ @ + $ + @ @ @ + @ + @ @ % @ @ @ @ % @ $ @ + @ @ # $ $ & @ @ + $ $ $ + & @ $ @ * = % -   . + @ # @ @ + $ $ % @ @ + @ @ & # @ @ @ @ + $ + @ @ @ + @ + @ @ % @ @ @ @ % @ $ @ + @ @ # $ $ & @ @ + $ $ $ + & @ $ @ * = % -   . + @ # @ @ + $ $ % @ @ + @ @ & # @ @ @ @ + $ + @ @ @ + @ + @ @ % @ @ @ @ % @ $ @ + @ @ # $ $ & @ @ + $ $ $ + & @ $ @ * = % -   . + @ # @ @ + $ $ % @ @ + @ @ & # @ @ @ @ + $ + @ @ @ + @ + @ @ % @ @ @ @ % @ $ @ + @ @ # $ $ & @ @ + $ $ $ + & @ $ @ * = % -   . + @ # @ @ + $ $ % @ @ + @ @ & # @ @ @ @ + $ + @ @ @ + @ + @ @ % @ @ @ @ % @ $ @ + @ @ # $ $ & @ @ + $ $ $ + & @ $ @ * = % -   . + @ # @ @ + $ $ % @ @ + @ @ ",
"  . + @ # @ @ + $ $ % @ @ + @ @ & # @ @ @ @ + $ + @ @ @ + @ + @ @ % @ % # @ % @ $ @ + @ @ # $ $ & @ @ + $ $ $ + & @ $ @ * = % -   . + @ # @ @ + $ $ % @ @ + @ @ & # @ @ @ @ + $ + @ @ @ + @ + @ @ % @ % # @ % @ $ @ + @ @ # $ $ & @ @ + $ $ $ + & @ $ @ * = % -   . + @ # @ @ + $ $ % @ @ + @ @ & # @ @ @ @ + $ + @ @ @ + @ + @ @ % @ % # @ % @ $ @ + @ @ # $ $ & @ @ + $ $ $ + & @ $ @ * = % -   . + @ # @ @ + $ $ % @ @ + @ @ & # @ @ @ @ + $ + @ @ @ + @ + @ @ % @ % # @ % @ $ @ + @ @ # $ $ & @ @ + $ $ $ + & @ $ @ * = % -   . + @ # @ @ + $ $ % @ @ + @ @ & # @ @ @ @ + $ + @ @ @ + @ + @ @ % @ % # @ % @ $ @ + @ @ # $ $ & @ @ + $ $ $ + & @ $ @ * = % -   . + @ # @ @ + $ $ % @ @ + @ @ & # @ @ @ @ + $ + @ @ @ + @ + @ @ % @ % # @ % @ $ @ + @ @ # $ $ & @ @ + $ $ $ + & @ $ @ * = % -   . + @ # @ @ + $ $ % @ @ + @ @ ",
"  . + @ # @ @ + $ $ % @ @ + @ @ & # @ @ @ @ + $ + @ @ @ + @ + @ % # @ % % @ % @ $ @ + @ @ # $ $ & @ @ + $ $ $ + & @ $ @ * = % -   . + @ # @ @ + $ $ % @ @ + @ @ & # @ @ @ @ + $ + @ @ @ + @ + @ % # @ % % @ % @ $ @ + @ @ # $ $ & @ @ + $ $ $ + & @ $ @ * = % -   . + @ # @ @ + $ $ % @ @ + @ @ & # @ @ @ @ + $ + @ @ @ + @ + @ % # @ % % @ % @ $ @ + @ @ # $ $ & @ @ + $ $ $ + & @ $ @ * = % -   . + @ # @ @ + $ $ % @ @ + @ @ & # @ @ @ @ + $ + @ @ @ + @ + @ % # @ % % @ % @ $ @ + @ @ # $ $ & @ @ + $ $ $ + & @ $ @ * = % -   . + @ # @ @ + $ $ % @ @ + @ @ & # @ @ @ @ + $ + @ @ @ + @ + @ % # @ % % @ % @ $ @ + @ @ # $ $ & @ @ + $ $ $ + & @ $ @ * = % -   . + @ # @ @ + $ $ % @ @ + @ @ & # @ @ @ @ + $ + @ @ @ + @ + @ % # @ % % @ % @ $ @ + @ @ # $ $ & @ @ + $ $ $ + & @ $ @ * = % -   . + @ # @ @ + $ $ % @ @ + @ @ ",
"  . + @ # @ @ + $ $ % @ @ + @ @ & # @ @ @ @ + $ + @ @ @ + @ + @ % @ % % ; % @ % @ & + @ @ # $ $ & @ @ + $ $ $ + & @ $ @ * = % -   . + @ # @ @ + $ $ % @ @ + @ @ & # @ @ @ @ + $ + @ @ @ + @ + @ % @ % % ; % @ % @ & + @ @ # $ $ & @ @ + $ $ $ + & @ $ @ * = % -   . + @ # @ @ + $ $ % @ @ + @ @ & # @ @ @ @ + $ + @ @ @ + @ + @ % @ % % ; % @ % @ & + @ @ # $ $ & @ @ + $ $ $ + & @ $ @ * = % -   . + @ # @ @ + $ $ % @ @ + @ @ & # @ @ @ @ + $ + @ @ @ + @ + @ % @ % % ; % @ % @ & + @ @ # $ $ & @ @ + $ $ $ + & @ $ @ * = % -   . + @ # @ @ + $ $ % @ @ + @ @ & # @ @ @ @ + $ + @ @ @ + @ + @ % @ % % ; % @ % @ & + @ @ # $ $ & @ @ + $ $ $ + & @ $ @ * = % -   . + @ # @ @ + $ $ % @ @ + @ @ & # @ @ @ @ + $ + @ @ @ + @ + @ % @ % % ; % @ % @ & + @ @ # $ $ & @ @ + $ $ $ + & @ $ @ * = % -   . + @ # @ @ + $ $ % @ @ + @ @ ",
"  . + @ # @ @ + $ $ % @ @ + @ @ & # @ @ @ @ + $ + @ @ @ + @ + @ % @ > ; % % @ % @ & @ + @ # $ $ & @ @ @ + $ $ + & @ $ @ * = % -   . + @ # @ @ + $ $ % @ @ + @ @ & # @ @ @ @ + $ + @ @ @ + @ + @ % @ > ; % % @ % @ & @ + @ # $ $ & @ @ @ + $ $ + & @ $ @ * = % -   . + @ # @ @ + $ $ % @ @ + @ @ & # @ @ @ @ + $ + @ @ @ + @ + @ % @ > ; % % @ % @ & @ + @ # $ $ & @ @ @ + $ $ + & @ $ @ * = % -   . + @ # @ @ + $ $ % @ @ + @ @ & # @ @ @ @ + $ + @ @ @ + @ + @ % @ > ; % % @ % @ & @ + @ # $ $ & @ @ @ + $ $ + & @ $ @ * = % -   . + @ # @ @ + $ $ % @ @ + @ @ & # @ @ @ @ + $ + @ @ @ + @ + @ % @ > ; % % @ % @ & @ + @ # $ $ & @ @ @ + $ $ + & @ $ @ * = % -   . + @ # @ @ + $ $ % @ @ + @ @ & # @ @ @ @ + $ + @ @ @ + @ + @ % @ > ; % % @ % @ & @ + @ # $ $ & @ @ @ + $ $ + & @ $ @ * = % -   . + @ # @ @ + $ $ % @ @ + @ @ ",
"  . + @ # @ @ + $ $ % @ @ + @ @ & # @ @ @ @ + $ + @ @ + @ @ + @ % @ % + % @ @ % @ & @ + @ # $ $ & @ @ @ + $ $ + & @ $ @ * = % -   . + @ # @ @ + $ $ % @ @ + @ @ & # @ @ @ @ + $ + @ @ + @ @ + @ % @ % + % @ @ % @ & @ + @ # $ $ & @ @ @ + $ $ + & @ $ @ * = % -   . + @ # @ @ + $ $ % @ @ + @ @ & # @ @ @ @ + $ + @ @ + @ @ + @ % @ % + % @ @ % @ & @ + @ # $ $ & @ @ @ + $ $ + & @ $ @ * = % -   . + @ # @ @ + $ $ % @ @ + @ @ & # @ @ @ @ + $ + @ @ + @ @ + @ % @ % + % @ @ % @ & @ + @ # $ $ & @ @ @ + $ $ + & @ $ @ * = % -   . + @ # @ @ + $ $ % @ @ + @ @ & # @ @ @ @ + $ + @ @ + @ @ + @ % @ % + % @ @ % @ & @ + @ # $ $ & @ @ @ + $ $ + & @ $ @ * = % -   . + @ # @ @ + $ $ % @ @ + @ @ & # @ @ @ @ + $ + @ @ + @ @ + @ % @ % + % @ @ % @ & @ + @ # $ $ & @ @ @ + $ $ + & @ $ @ * = % -   . + @ # @ @ + $ $ % @ @ + @ @ ",
"  . + @ # @ @ + $ $ % @ @ + @ @ & # @ @ @ @ + $ + @ @ + @ @ + @ % @ % + % @ @ % @ & @ + @ # $ $ & @ @ @ + $ $ + & @ $ @ * = % -   . + @ # @ @ + $ $ % @ @ + @ @ & # @ @ @ @ + $ + @ @ + @ @ + @ % @ % + % @ @ % @ & @ + @ # $ $ & @ @ @ + $ $ + & @ $ @ * = % -   . + @ # @ @ + $ $ % @ @ + @ @ & # @ @ @ @ + $ + @ @ + @ @ + @ % @ % + % @ @ % @ & @ + @ # $ $ & @ @ @ + $ $ + & @ $ @ * = % -   . + @ # @ @ + $ $ % @ @ + @ @ & # @ @ @ @ + $ + @ @ + @ @ + @ % @ % + % @ @ % @ & @ + @ # $ $ & @ @ @ + $ $ + & @ $ @ * = % -   . + @ # @ @ + $ $ % @ @ + @ @ & # @ @ @ @ + $ + @ @ + @ @ + @ % @ % + % @ @ % @ & @ + @ # $ $ & @ @ @ + $ $ + & @ $ @ * = % -   . + @ # @ @ + $ $ % @ @ + @ @ & # @ @ @ @ + $ + @ @ + @ @ + @ % @ % + % @ @ % @ & @ + @ # $ $ & @ @ @ + $ $ + & @ $ @ * = % -   . + @ # @ @ + $ $ % @ @ + @ @ ",
"  . + @ # @ @ + $ $ % @ @ + @ @ & # @ @ @ @ + $ $ + @ + @ @ + @ % @ % + > @ @ % @ & @ + @ # $ $ & @ @ @ + $ $ + & @ $ @ * = % -   . + @ # @ @ + $ $ % @ @ + @ @ & # @ @ @ @ + $ $ + @ + @ @ + @ % @ % + > @ @ % @ & @ + @ # $ $ & @ @ @ + $ $ + & @ $ @ * = % -   . + @ # @ @ + $ $ % @ @ + @ @ & # @ @ @ @ + $ $ + @ + @ @ + @ % @ % + > @ @ % @ & @ + @ # $ $ & @ @ @ + $ $ + & @ $ @ * = % -   . + @ # @ @ + $ $ % @ @ + @ @ & # @ @ @ @ + $ $ + @ + @ @ + @ % @ % + > @ @ % @ & @ + @ # $ $ & @ @ @ + $ $ + & @ $ @ * = % -   . + @ # @ @ + $ $ % @ @ + @ @ & # @ @ @ @ + $ $ + @ + @ @ + @ % @ % + > @ @ % @ & @ + @ # $ $ & @ @ @ + $ $ + & @ $ @ * = % -   . + @ # @ @ + $ $ % @ @ + @ @ & # @ @ @ @ + $ $ + @ + @ @ + @ % @ % + > @ @ % @ & @ + @ # $ $ & @ @ @ + $ $ + & @ $ @ * = % -   . + @ # @ @ + $ $ % @ @ + @ @ ",
"  . + @ # @ @ + $ $ % @ @ + @ @ & # @ @ @ @ + $ $ + @ + @ @ + @ % @ % + % @ @ % @ & @ + @ # $ $ & @ @ @ + $ $ + & @ $ @ * = % -   . + @ # @ @ + $ $ % @ @ + @ @ & # @ @ @ @ + $ $ + @ + @ @ + @ % @ % + % @ @ % @ & @ + @ # $ $ & @ @ @ + $ $ + & @ $ @ * = % -   . + @ # @ @ + $ $ % @ @ + @ @ & # @ @ @ @ + $ $ + @ + @ @ + @ % @ % + % @ @ % @ & @ + @ # $ $ & @ @ @ + $ $ + & @ $ @ * = % -   . + @ # @ @ + $ $ % @ @ + @ @ & # @ @ @ @ + $ $ + @ + @ @ + @ % @ % + % @ @ % @ & @ + @ # $ $ & @ @ @ + $ $ + & @ $ @ * = % -   . + @ # @ @ + $ $ % @ @ + @ @ & # @ @ @ @ + $ $ + @ + @ @ + @ % @ % + % @ @ % @ & @ + @ # $ $ & @ @ @ + $ $ + & @ $ @ * = % -   . + @ # @ @ + $ $ % @ @ + @ @ & # @ @ @ @ + $ $ + @ + @ @ + @ % @ % + % @ @ % @ & @ + @ # $ $ & @ @ @ + $ $ + & @ $ @ * = % -   . + @ # @ @ + $ $ % @ @ + @ @ ",
"  . + @ # @ @ + $ $ % @ @ + @ @ & # @ @ @ @ + $ $ + @ + @ @ + @ % @ % + > @ % @ @ & @ + @ # $ $ & @ @ @ + $ $ + & @ $ @ * = % -   . + @ # @ @ + $ $ % @ @ + @ @ & # @ @ @ @ + $ $ + @ + @ @ + @ % @ % + > @ % @ @ & @ + @ # $ $ & @ @ @ + $ $ + & @ $ @ * = % -   . + @ # @ @ + $ $ % @ @ + @ @ & # @ @ @ @ + $ $ + @ + @ @ + @ % @ % + > @ % @ @ & @ + @ # $ $ & @ @ @ + $ $ + & @ $ @ * = % -   . + @ # @ @ + $ $ % @ @ + @ @ & # @ @ @ @ + $ $ + @ + @ @ + @ % @ % + > @ % @ @ & @ + @ # $ $ & @ @ @ + $ $ + & @ $ @ * = % -   . + @ # @ @ + $ $ % @ @ + @ @ & # @ @ @ @ + $ $ + @ + @ @ + @ % @ % + > @ % @ @ & @ + @ # $ $ & @ @ @ + $ $ + & @ $ @ * = % -   . + @ # @ @ + $ $ % @ @ + @ @ & # @ @ @ @ + $ $ + @ + @ @ + @ % @ % + > @ % @ @ & @ + @ # $ $ & @ @ @ + $ $ + & @ $ @ * = % -   . + @ # @ @ + $ $ % @ @ + @ @ ",
"  . + @ # @ @ + $ $ % @ @ + @ @ & # @ @ @ @ + $ $ + @ + @ @ + @ % @ % % % @ % @ @ & @ + @ # $ $ & @ @ @ + $ $ + & @ $ @ * = % -   . + @ # @ @ + $ $ % @ @ + @ @ & # @ @ @ @ + $ $ + @ + @ @ + @ % @ % % % @ % @ @ & @ + @ # $ $ & @ @ @ + $ $ + & @ $ @ * = % -   . + @ # @ @ + $ $ % @ @ + @ @ & # @ @ @ @ + $ $ + @ + @ @ + @ % @ % % % @ % @ @ & @ + @ # $ $ & @ @ @ + $ $ + & @ $ @ * = % -   . + @ # @ @ + $ $ % @ @ + @ @ & # @ @ @ @ + $ $ + @ + @ @ + @ % @ % % % @ % @ @ & @ + @ # $ $ & @ @ @ + $ $ + & @ $ @ * = % -   . + @ # @ @ + $ $ % @ @ + @ @ & # @ @ @ @ + $ $ + @ + @ @ + @ % @ % % % @ % @ @ & @ + @ # $ $ & @ @ @ + $ $ + & @ $ @ * = % -   . + @ # @ @ + $ $ % @ @ + @ @ & # @ @ @ @ + $ $ + @ + @ @ + @ % @ % % % @ % @ @ & @ + @ # $ $ & @ @ @ + $ $ + & @ $ @ * = % -   . + @ # @ @ + $ $ % @ @ + @ @ ",
"  . + @ # @ @ + $ $ % @ @ + @ @ & # @ @ @ @ + $ $ + @ + @ @ + @ @ % @ % @ @ % @ @ $ @ + @ # $ $ & @ @ @ + $ $ + & @ $ @ * = % -   . + @ # @ @ + $ $ % @ @ + @ @ & # @ @ @ @ + $ $ + @ + @ @ + @ @ % @ % @ @ % @ @ $ @ + @ # $ $ & @ @ @ + $ $ + & @ $ @ * = % -   . + @ # @ @ + $ $ % @ @ + @ @ & # @ @ @ @ + $ $ + @ + @ @ + @ @ % @ % @ @ % @ @ $ @ + @ # $ $ & @ @ @ + $ $ + & @ $ @ * = % -   . + @ # @ @ + $ $ % @ @ + @ @ & # @ @ @ @ + $ $ + @ + @ @ + @ @ % @ % @ @ % @ @ $ @ + @ # $ $ & @ @ @ + $ $ + & @ $ @ * = % -   . + @ # @ @ + $ $ % @ @ + @ @ & # @ @ @ @ + $ $ + @ + @ @ + @ @ % @ % @ @ % @ @ $ @ + @ # $ $ & @ @ @ + $ $ + & @ $ @ * = % -   . + @ # @ @ + $ $ % @ @ + @ @ & # @ @ @ @ + $ $ + @ + @ @ + @ @ % @ % @ @ % @ @ $ @ + @ # $ $ & @ @ @ + $ $ + & @ $ @ * = % -   . + @ # @ @ + $ $ % @ @ + @ @ ",
"  . + @ # @ @ + $ $ % @ @ + @ @ & # @ @ @ @ + $ $ + @ + @ @ + @ @ % @ @ @ @ % @ @ $ @ + @ # $ $ & @ @ @ + $ $ + & @ $ @ * = % -   . + @ # @ @ + $ $ % @ @ + @ @ & # @ @ @ @ + $ $ + @ + @ @ + @ @ % @ @ @ @ % @ @ $ @ + @ # $ $ & @ @ @ + $ $ + & @ $ @ * = % -   . + @ # @ @ + $ $ % @ @ + @ @ & # @ @ @ @ + $ $ + @ + @ @ + @ @ % @ @ @ @ % @ @ $ @ + @ # $ $ & @ @ @ + $ $ + & @ $ @ * = % -   . + @ # @ @ + $ $ % @ @ + @ @ & # @ @ @ @ + $ $ + @ + @ @ + @ @ % @ @ @ @ % @ @ $ @ + @ # $ $ & @ @ @ + $ $ + & @ $ @ * = % -   . + @ # @ @ + $ $ % @ @ + @ @ & # @ @ @ @ + $ $ + @ + @ @ + @ @ % @ @ @ @ % @ @ $ @ + @ # $ $ & @ @ @ + $ $ + & @ $ @ * = % -   . + @ # @ @ + $ $ % @ @ + @ @ & # @ @ @ @ + $ $ + @ + @ @ + @ @ % @ @ @ @ % @ @ $ @ + @ # $ $ & @ @ @ + $ $ + & @ $ @ * = % -   . + @ # @ @ + $ $ % @ @ + @ @ ",
"  . + @ # @ @ + $ $ % @ @ + @ @ & # @ @ @ + $ $ $ + @ + @ @ + @ @ @ % @ @ @ % @ @ $ @ + @ # $ $ & @ @ @ + $ $ + & @ $ @ * = % -   . + @ # @ @ + $ $ % @ @ + @ @ & # @ @ @ + $ $ $ + @ + @ @ + @ @ @ % @ @ @ % @ @ $ @ + @ # $ $ & @ @ @ + $ $ + & @ $ @ * = % -   . + @ # @ @ + $ $ % @ @ + @ @ & # @ @ @ + $ $ $ + @ + @ @ + @ @ @ % @ @ @ % @ @ $ @ + @ # $ $ & @ @ @ + $ $ + & @ $ @ * = % -   . + @ # @ @ + $ $ % @ @ + @ @ & # @ @ @ + $ $ $ + @ + @ @ + @ @ @ % @ @ @ % @ @ $ @ + @ # $ $ & @ @ @ + $ $ + & @ $ @ * = % -   . + @ # @ @ + $ $ % @ @ + @ @ & # @ @ @ + $ $ $ + @ + @ @ + @ @ @ % @ @ @ % @ @ $ @ + @ # $ $ & @ @ @ + $ $ + & @ $ @ * = % -   . + @ # @ @ + $ $ % @ @ + @ @ & # @ @ @ + $ $ $ + @ + @ @ + @ @ @ % @ @ @ % @ @ $ @ + @ # $ $ & @ @ @ + $ $ + & @ $ @ * = % -   . + @ # @ @ + $ $ % @ @ + @ @ ",
"  . + @ # @ @ + $ $ % @ @ + @ @ & # @ @ @ + $ $ $ + @ + @ @ + @ @ @ % @ @ @ % @ # $ @ + @ # $ $ & @ @ @ + $ $ + & @ $ @ * = % -   . + @ # @ @ + $ $ % @ @ + @ @ & # @ @ @ + $ $ $ + @ + @ @ + @ @ @ % @ @ @ % @ # $ @ + @ # $ $ & @ @ @ + $ $ + & @ $ @ * = % -   . + @ # @ @ + $ $ % @ @ + @ @ & # @ @ @ + $ $ $ + @ + @ @ + @ @ @ % @ @ @ % @ # $ @ + @ # $ $ & @ @ @ + $ $ + & @ $ @ * = % -   . + @ # @ @ + $ $ % @ @ + @ @ & # @ @ @ + $ $ $ + @ + @ @ + @ @ @ % @ @ @ % @ # $ @ + @ # $ $ & @ @ @ + $ $ + & @ $ @ * = % -   . + @ # @ @ + $ $ % @ @ + @ @ & # @ @ @ + $ $ $ + @ + @ @ + @ @ @ % @ @ @ % @ # $ @ + @ # $ $ & @ @ @ + $ $ + & @ $ @ * = % -   . + @ # @ @ + $ $ % @ @ + @ @ & # @ @ @ + $ $ $ + @ + @ @ + @ @ @ % @ @ @ % @ # $ @ + @ # $ $ & @ @ @ + $ $ + & @ $ @ * = % -   . + @ # @ @ + $ $ % @ @ + @ @ ",
"  . + @ # @ + $ $ $ % @ @ + @ @ & # @ @ @ + $ $ + @ @ + @ @ + @ @ @ @ % % % @ @ $ $ @ + @ # $ $ & @ @ + $ $ $ + & @ $ @ * = % -   . + @ # @ + $ $ $ % @ @ + @ @ & # @ @ @ + $ $ + @ @ + @ @ + @ @ @ @ % % % @ @ $ $ @ + @ # $ $ & @ @ + $ $ $ + & @ $ @ * = % -   . + @ # @ + $ $ $ % @ @ + @ @ & # @ @ @ + $ $ + @ @ + @ @ + @ @ @ @ % % % @ @ $ $ @ + @ # $ $ & @ @ + $ $ $ + & @ $ @ * = % -   . + @ # @ + $ $ $ % @ @ + @ @ & # @ @ @ + $ $ + @ @ + @ @ + @ @ @ @ % % % @ @ $ $ @ + @ # $ $ & @ @ + $ $ $ + & @ $ @ * = % -   . + @ # @ + $ $ $ % @ @ + @ @ & # @ @ @ + $ $ + @ @ + @ @ + @ @ @ @ % % % @ @ $ $ @ + @ # $ $ & @ @ + $ $ $ + & @ $ @ * = % -   . + @ # @ + $ $ $ % @ @ + @ @ & # @ @ @ + $ $ + @ @ + @ @ + @ @ @ @ % % % @ @ $ $ @ + @ # $ $ & @ @ + $ $ $ + & @ $ @ * = % -   . + @ # @ + $ $ $ % @ @ + @ @ ",
"  . + @ # @ + $ $ $ % @ @ + @ @ & # @ @ @ + $ $ + @ @ + @ @ + @ @ # @ @ @ @ @ # $ $ @ + @ # $ $ & @ @ + $ $ $ + & @ $ @ * = % -   . + @ # @ + $ $ $ % @ @ + @ @ & # @ @ @ + $ $ + @ @ + @ @ + @ @ # @ @ @ @ @ # $ $ @ + @ # $ $ & @ @ + $ $ $ + & @ $ @ * = % -   . + @ # @ + $ $ $ % @ @ + @ @ & # @ @ @ + $ $ + @ @ + @ @ + @ @ # @ @ @ @ @ # $ $ @ + @ # $ $ & @ @ + $ $ $ + & @ $ @ * = % -   . + @ # @ + $ $ $ % @ @ + @ @ & # @ @ @ + $ $ + @ @ + @ @ + @ @ # @ @ @ @ @ # $ $ @ + @ # $ $ & @ @ + $ $ $ + & @ $ @ * = % -   . + @ # @ + $ $ $ % @ @ + @ @ & # @ @ @ + $ $ + @ @ + @ @ + @ @ # @ @ @ @ @ # $ $ @ + @ # $ $ & @ @ + $ $ $ + & @ $ @ * = % -   . + @ # @ + $ $ $ % @ @ + @ @ & # @ @ @ + $ $ + @ @ + @ @ + @ @ # @ @ @ @ @ # $ $ @ + @ # $ $ & @ @ + $ $ $ + & @ $ @ * = % -   . + @ # @ + $ $ $ % @ @ + @ @ ",
"  . + @ # @ + $ $ $ % @ @ + @ @ & # @ @ @ + $ $ + @ @ + @ @ + @ @ # # @ @ @ @ # $ $ @ + @ # $ $ & @ @ + $ $ $ + & @ $ @ * = % -   . + @ # @ + $ $ $ % @ @ + @ @ & # @ @ @ + $ $ + @ @ + @ @ + @ @ # # @ @ @ @ # $ $ @ + @ # $ $ & @ @ + $ $ $ + & @ $ @ * = % -   . + @ # @ + $ $ $ % @ @ + @ @ & # @ @ @ + $ $ + @ @ + @ @ + @ @ # # @ @ @ @ # $ $ @ + @ # $ $ & @ @ + $ $ $ + & @ $ @ * = % -   . + @ # @ + $ $ $ % @ @ + @ @ & # @ @ @ + $ $ + @ @ + @ @ + @ @ # # @ @ @ @ # $ $ @ + @ # $ $ & @ @ + $ $ $ + & @ $ @ * = % -   . + @ # @ + $ $ $ % @ @ + @ @ & # @ @ @ + $ $ + @ @ + @ @ + @ @ # # @ @ @ @ # $ $ @ + @ # $ $ & @ @ + $ $ $ + & @ $ @ * = % -   . + @ # @ + $ $ $ % @ @ + @ @ & # @ @ @ + $ $ + @ @ + @ @ + @ @ # # @ @ @ @ # $ $ @ + @ # $ $ & @ @ + $ $ $ + & @ $ @ * = % -   . + @ # @ + $ $ $ % @ @ + @ @ ",
"  . + @ # @ + $ $ $ % @ @ + @ @ & # @ @ @ + $ $ + @ @ + @ @ + @ @ @ # @ @ @ @ # $ $ @ + @ # $ $ & @ @ + $ $ $ + & @ $ @ * = % -   . + @ # @ + $ $ $ % @ @ + @ @ & # @ @ @ + $ $ + @ @ + @ @ + @ @ @ # @ @ @ @ # $ $ @ + @ # $ $ & @ @ + $ $ $ + & @ $ @ * = % -   . + @ # @ + $ $ $ % @ @ + @ @ & # @ @ @ + $ $ + @ @ + @ @ + @ @ @ # @ @ @ @ # $ $ @ + @ # $ $ & @ @ + $ $ $ + & @ $ @ * = % -   . + @ # @ + $ $ $ % @ @ + @ @ & # @ @ @ + $ $ + @ @ + @ @ + @ @ @ # @ @ @ @ # $ $ @ + @ # $ $ & @ @ + $ $ $ + & @ $ @ * = % -   . + @ # @ + $ $ $ % @ @ + @ @ & # @ @ @ + $ $ + @ @ + @ @ + @ @ @ # @ @ @ @ # $ $ @ + @ # $ $ & @ @ + $ $ $ + & @ $ @ * = % -   . + @ # @ + $ $ $ % @ @ + @ @ & # @ @ @ + $ $ + @ @ + @ @ + @ @ @ # @ @ @ @ # $ $ @ + @ # $ $ & @ @ + $ $ $ + & @ $ @ * = % -   . + @ # @ + $ $ $ % @ @ + @ @ ",
"  . + @ # @ + $ $ $ % @ @ + @ @ & # @ @ @ + $ $ + @ @ @ + @ @ + @ @ @ $ @ @ # $ $ @ @ + @ # $ $ @ @ @ + $ $ $ + & @ $ @ * = % -   . + @ # @ + $ $ $ % @ @ + @ @ & # @ @ @ + $ $ + @ @ @ + @ @ + @ @ @ $ @ @ # $ $ @ @ + @ # $ $ @ @ @ + $ $ $ + & @ $ @ * = % -   . + @ # @ + $ $ $ % @ @ + @ @ & # @ @ @ + $ $ + @ @ @ + @ @ + @ @ @ $ @ @ # $ $ @ @ + @ # $ $ @ @ @ + $ $ $ + & @ $ @ * = % -   . + @ # @ + $ $ $ % @ @ + @ @ & # @ @ @ + $ $ + @ @ @ + @ @ + @ @ @ $ @ @ # $ $ @ @ + @ # $ $ @ @ @ + $ $ $ + & @ $ @ * = % -   . + @ # @ + $ $ $ % @ @ + @ @ & # @ @ @ + $ $ + @ @ @ + @ @ + @ @ @ $ @ @ # $ $ @ @ + @ # $ $ @ @ @ + $ $ $ + & @ $ @ * = % -   . + @ # @ + $ $ $ % @ @ + @ @ & # @ @ @ + $ $ + @ @ @ + @ @ + @ @ @ $ @ @ # $ $ @ @ + @ # $ $ @ @ @ + $ $ $ + & @ $ @ * = % -   . + @ # @ + $ $ $ % @ @ + @ @ ",
"  . + @ # @ + $ $ $ % @ @ + @ @ & # @ @ @ + $ $ + @ @ @ + @ @ @ + @ @ $ # @ # $ $ @ + @ @ # $ $ @ @ @ + $ $ $ + & @ $ @ * = % -   . + @ # @ + $ $ $ % @ @ + @ @ & # @ @ @ + $ $ + @ @ @ + @ @ @ + @ @ $ # @ # $ $ @ + @ @ # $ $ @ @ @ + $ $ $ + & @ $ @ * = % -   . + @ # @ + $ $ $ % @ @ + @ @ & # @ @ @ + $ $ + @ @ @ + @ @ @ + @ @ $ # @ # $ $ @ + @ @ # $ $ @ @ @ + $ $ $ + & @ $ @ * = % -   . + @ # @ + $ $ $ % @ @ + @ @ & # @ @ @ + $ $ + @ @ @ + @ @ @ + @ @ $ # @ # $ $ @ + @ @ # $ $ @ @ @ + $ $ $ + & @ $ @ * = % -   . + @ # @ + $ $ $ % @ @ + @ @ & # @ @ @ + $ $ + @ @ @ + @ @ @ + @ @ $ # @ # $ $ @ + @ @ # $ $ @ @ @ + $ $ $ + & @ $ @ * = % -   . + @ # @ + $ $ $ % @ @ + @ @ & # @ @ @ + $ $ + @ @ @ + @ @ @ + @ @ $ # @ # $ $ @ + @ @ # $ $ @ @ @ + $ $ $ + & @ $ @ * = % -   . + @ # @ + $ $ $ % @ @ + @ @ ",
"  . + @ # @ + $ $ $ % @ @ + @ @ & # @ @ @ + $ $ + @ @ @ + @ @ @ + @ @ $ $ @ $ $ @ @ + @ @ # $ $ @ @ @ + $ $ $ + & @ $ @ * = % -   . + @ # @ + $ $ $ % @ @ + @ @ & # @ @ @ + $ $ + @ @ @ + @ @ @ + @ @ $ $ @ $ $ @ @ + @ @ # $ $ @ @ @ + $ $ $ + & @ $ @ * = % -   . + @ # @ + $ $ $ % @ @ + @ @ & # @ @ @ + $ $ + @ @ @ + @ @ @ + @ @ $ $ @ $ $ @ @ + @ @ # $ $ @ @ @ + $ $ $ + & @ $ @ * = % -   . + @ # @ + $ $ $ % @ @ + @ @ & # @ @ @ + $ $ + @ @ @ + @ @ @ + @ @ $ $ @ $ $ @ @ + @ @ # $ $ @ @ @ + $ $ $ + & @ $ @ * = % -   . + @ # @ + $ $ $ % @ @ + @ @ & # @ @ @ + $ $ + @ @ @ + @ @ @ + @ @ $ $ @ $ $ @ @ + @ @ # $ $ @ @ @ + $ $ $ + & @ $ @ * = % -   . + @ # @ + $ $ $ % @ @ + @ @ & # @ @ @ + $ $ + @ @ @ + @ @ @ + @ @ $ $ @ $ $ @ @ + @ @ # $ $ @ @ @ + $ $ $ + & @ $ @ * = % -   . + @ # @ + $ $ $ % @ @ + @ @ ",
"  . + @ # @ + $ $ $ % @ @ + @ @ & # @ @ @ + $ $ + @ @ @ + @ @ @ + @ @ $ $ $ $ $ @ @ + @ @ # $ $ @ @ @ + $ $ $ + & @ $ @ * = % -   . + @ # @ + $ $ $ % @ @ + @ @ & # @ @ @ + $ $ + @ @ @ + @ @ @ + @ @ $ $ $ $ $ @ @ + @ @ # $ $ @ @ @ + $ $ $ + & @ $ @ * = % -   . + @ # @ + $ $ $ % @ @ + @ @ & # @ @ @ + $ $ + @ @ @ + @ @ @ + @ @ $ $ $ $ $ @ @ + @ @ # $ $ @ @ @ + $ $ $ + & @ $ @ * = % -   . + @ # @ + $ $ $ % @ @ + @ @ & # @ @ @ + $ $ + @ @ @ + @ @ @ + @ @ $ $ $ $ $ @ @ + @ @ # $ $ @ @ @ + $ $ $ + & @ $ @ * = % -   . + @ # @ + $ $ $ % @ @ + @ @ & # @ @ @ + $ $ + @ @ @ + @ @ @ + @ @ $ $ $ $ $ @ @ + @ @ # $ $ @ @ @ + $ $ $ + & @ $ @ * = % -   . + @ # @ + $ $ $ % @ @ + @ @ & # @ @ @ + $ $ + @ @ @ + @ @ @ + @ @ $ $ $ $ $ @ @ + @ @ # $ $ @ @ @ + $ $ $ + & @ $ @ * = % -   . + @ # @ + $ $ $ % @ @ + @ @ ",
"  . + @ # @ + $ $ $ % @ @ + @ @ & # @ @ @ + $ $ + @ @ @ + @ @ @ @ + @ @ $ $ $ $ @ @ + @ @ # $ $ @ @ @ + $ $ $ + & @ $ @ * = % -   . + @ # @ + $ $ $ % @ @ + @ @ & # @ @ @ + $ $ + @ @ @ + @ @ @ @ + @ @ $ $ $ $ @ @ + @ @ # $ $ @ @ @ + $ $ $ + & @ $ @ * = % -   . + @ # @ + $ $ $ % @ @ + @ @ & # @ @ @ + $ $ + @ @ @ + @ @ @ @ + @ @ $ $ $ $ @ @ + @ @ # $ $ @ @ @ + $ $ $ + & @ $ @ * = % -   . + @ # @ + $ $ $ % @ @ + @ @ & # @ @ @ + $ $ + @ @ @ + @ @ @ @ + @ @ $ $ $ $ @ @ + @ @ # $ $ @ @ @ + $ $ $ + & @ $ @ * = % -   . + @ # @ + $ $ $ % @ @ + @ @ & # @ @ @ + $ $ + @ @ @ + @ @ @ @ + @ @ $ $ $ $ @ @ + @ @ # $ $ @ @ @ + $ $ $ + & @ $ @ * = % -   . + @ # @ + $ $ $ % @ @ + @ @ & # @ @ @ + $ $ + @ @ @ + @ @ @ @ + @ @ $ $ $ $ @ @ + @ @ # $ $ @ @ @ + $ $ $ + & @ $ @ * = % -   . + @ # @ + $ $ $ % @ @ + @ @ ",
"  . + @ # @ + $ $ $ % @ @ + @ @ & # @ @ @ + $ $ + @ @ @ + @ @ @ @ + @ @ $ $ @ $ @ @ + @ @ # $ $ @ @ @ + $ $ $ + & @ $ @ * = % -   . + @ # @ + $ $ $ % @ @ + @ @ & # @ @ @ + $ $ + @ @ @ + @ @ @ @ + @ @ $ $ @ $ @ @ + @ @ # $ $ @ @ @ + $ $ $ + & @ $ @ * = % -   . + @ # @ + $ $ $ % @ @ + @ @ & # @ @ @ + $ $ + @ @ @ + @ @ @ @ + @ @ $ $ @ $ @ @ + @ @ # $ $ @ @ @ + $ $ $ + & @ $ @ * = % -   . + @ # @ + $ $ $ % @ @ + @ @ & # @ @ @ + $ $ + @ @ @ + @ @ @ @ + @ @ $ $ @ $ @ @ + @ @ # $ $ @ @ @ + $ $ $ + & @ $ @ * = % -   . + @ # @ + $ $ $ % @ @ + @ @ & # @ @ @ + $ $ + @ @ @ + @ @ @ @ + @ @ $ $ @ $ @ @ + @ @ # $ $ @ @ @ + $ $ $ + & @ $ @ * = % -   . + @ # @ + $ $ $ % @ @ + @ @ & # @ @ @ + $ $ + @ @ @ + @ @ @ @ + @ @ $ $ @ $ @ @ + @ @ # $ $ @ @ @ + $ $ $ + & @ $ @ * = % -   . + @ # @ + $ $ $ % @ @ + @ @ ",
"  . + @ # @ + $ $ $ % @ @ + @ @ & # @ @ @ + $ $ + @ @ @ + @ @ @ @ + @ @ $ $ $ $ @ @ + @ @ # $ $ @ @ @ + $ $ $ + & @ $ @ * = % -   . + @ # @ + $ $ $ % @ @ + @ @ & # @ @ @ + $ $ + @ @ @ + @ @ @ @ + @ @ $ $ $ $ @ @ + @ @ # $ $ @ @ @ + $ $ $ + & @ $ @ * = % -   . + @ # @ + $ $ $ % @ @ + @ @ & # @ @ @ + $ $ + @ @ @ + @ @ @ @ + @ @ $ $ $ $ @ @ + @ @ # $ $ @ @ @ + $ $ $ + & @ $ @ * = % -   . + @ # @ + $ $ $ % @ @ + @ @ & # @ @ @ + $ $ + @ @ @ + @ @ @ @ + @ @ $ $ $ $ @ @ + @ @ # $ $ @ @ @ + $ $ $ + & @ $ @ * = % -   . + @ # @ + $ $ $ % @ @ + @ @ & # @ @ @ + $ $ + @ @ @ + @ @ @ @ + @ @ $ $ $ $ @ @ + @ @ # $ $ @ @ @ + $ $ $ + & @ $ @ * = % -   . + @ # @ + $ $ $ % @ @ + @ @ & # @ @ @ + $ $ + @ @ @ + @ @ @ @ + @ @ $ $ $ $ @ @ + @ @ # $ $ @ @ @ + $ $ $ + & @ $ @ * = % -   . + @ # @ + $ $ $ % @ @ + @ @ ",
"  . + @ # @ + $ $ $ % @ @ + @ @ & # @ @ @ + $ $ + @ @ @ + @ @ @ @ + @ @ $ $ $ @ @ @ + @ @ # $ $ @ @ @ + $ $ $ + & @ $ @ * = % -   . + @ # @ + $ $ $ % @ @ + @ @ & # @ @ @ + $ $ + @ @ @ + @ @ @ @ + @ @ $ $ $ @ @ @ + @ @ # $ $ @ @ @ + $ $ $ + & @ $ @ * = % -   . + @ # @ + $ $ $ % @ @ + @ @ & # @ @ @ + $ $ + @ @ @ + @ @ @ @ + @ @ $ $ $ @ @ @ + @ @ # $ $ @ @ @ + $ $ $ + & @ $ @ * = % -   . + @ # @ + $ $ $ % @ @ + @ @ & # @ @ @ + $ $ + @ @ @ + @ @ @ @ + @ @ $ $ $ @ @ @ + @ @ # $ $ @ @ @ + $ $ $ + & @ $ @ * = % -   . + @ # @ + $ $ $ % @ @ + @ @ & # @ @ @ + $ $ + @ @ @ + @ @ @ @ + @ @ $ $ $ @ @ @ + @ @ # $ $ @ @ @ + $ $ $ + & @ $ @ * = % -   . + @ # @ + $ $ $ % @ @ + @ @ & # @ @ @ + $ $ + @ @ @ + @ @ @ @ + @ @ $ $ $ @ @ @ + @ @ # $ $ @ @ @ + $ $ $ + & @ $ @ * = % -   . + @ # @ + $ $ $ % @ @ + @ @ ",
"  . + @ # @ + $ $ $ % @ @ + @ @ & # @ @ @ + $ $ + @ @ @ + @ & @ @ + @ @ $ $ $ @ @ @ + @ @ # $ $ @ @ @ + $ $ $ + & @ $ @ * = % -   . + @ # @ + $ $ $ % @ @ + @ @ & # @ @ @ + $ $ + @ @ @ + @ & @ @ + @ @ $ $ $ @ @ @ + @ @ # $ $ @ @ @ + $ $ $ + & @ $ @ * = % -   . + @ # @ + $ $ $ % @ @ + @ @ & # @ @ @ + $ $ + @ @ @ + @ & @ @ + @ @ $ $ $ @ @ @ + @ @ # $ $ @ @ @ + $ $ $ + & @ $ @ * = % -   . + @ # @ + $ $ $ % @ @ + @ @ & # @ @ @ + $ $ + @ @ @ + @ & @ @ + @ @ $ $ $ @ @ @ + @ @ # $ $ @ @ @ + $ $ $ + & @ $ @ * = % -   . + @ # @ + $ $ $ % @ @ + @ @ & # @ @ @ + $ $ + @ @ @ + @ & @ @ + @ @ $ $ $ @ @ @ + @ @ # $ $ @ @ @ + $ $ $ + & @ $ @ * = % -   . + @ # @ + $ $ $ % @ @ + @ @ & # @ @ @ + $ $ + @ @ @ + @ & @ @ + @ @ $ $ $ @ @ @ + @ @ # $ $ @ @ @ + $ $ $ + & @ $ @ * = % -   . + @ # @ + $ $ $ % @ @ + @ @ ",
"  . + @ # @ + $ $ $ % @ @ + @ @ & # @ @ @ + $ $ + @ @ @ + @ & @ @ + @ @ @ $ $ @ @ @ + @ @ # $ $ @ @ @ + $ $ $ + & @ $ @ * = % -   . + @ # @ + $ $ $ % @ @ + @ @ & # @ @ @ + $ $ + @ @ @ + @ & @ @ + @ @ @ $ $ @ @ @ + @ @ # $ $ @ @ @ + $ $ $ + & @ $ @ * = % -   . + @ # @ + $ $ $ % @ @ + @ @ & # @ @ @ + $ $ + @ @ @ + @ & @ @ + @ @ @ $ $ @ @ @ + @ @ # $ $ @ @ @ + $ $ $ + & @ $ @ * = % -   . + @ # @ + $ $ $ % @ @ + @ @ & # @ @ @ + $ $ + @ @ @ + @ & @ @ + @ @ @ $ $ @ @ @ + @ @ # $ $ @ @ @ + $ $ $ + & @ $ @ * = % -   . + @ # @ + $ $ $ % @ @ + @ @ & # @ @ @ + $ $ + @ @ @ + @ & @ @ + @ @ @ $ $ @ @ @ + @ @ # $ $ @ @ @ + $ $ $ + & @ $ @ * = % -   . + @ # @ + $ $ $ % @ @ + @ @ & # @ @ @ + $ $ + @ @ @ + @ & @ @ + @ @ @ $ $ @ @ @ + @ @ # $ $ @ @ @ + $ $ $ + & @ $ @ * = % -   . + @ # @ + $ $ $ % @ @ + @ @ ",
"  . + @ # @ + $ $ $ % @ @ + @ @ & # @ @ @ + $ $ + @ @ @ + @ & @ @ + @ @ @ $ $ @ @ @ + @ @ # $ $ @ @ @ + $ $ $ + & @ $ @ * = % -   . + @ # @ + $ $ $ % @ @ + @ @ & # @ @ @ + $ $ + @ @ @ + @ & @ @ + @ @ @ $ $ @ @ @ + @ @ # $ $ @ @ @ + $ $ $ + & @ $ @ * = % -   . + @ # @ + $ $ $ % @ @ + @ @ & # @ @ @ + $ $ + @ @ @ + @ & @ @ + @ @ @ $ $ @ @ @ + @ @ # $ $ @ @ @ + $ $ $ + & @ $ @ * = % -   . + @ # @ + $ $ $ % @ @ + @ @ & # @ @ @ + $ $ + @ @ @ + @ & @ @ + @ @ @ $ $ @ @ @ + @ @ # $ $ @ @ @ + $ $ $ + & @ $ @ * = % -   . + @ # @ + $ $ $ % @ @ + @ @ & # @ @ @ + $ $ + @ @ @ + @ & @ @ + @ @ @ $ $ @ @ @ + @ @ # $ $ @ @ @ + $ $ $ + & @ $ @ * = % -   . + @ # @ + $ $ $ % @ @ + @ @ & # @ @ @ + $ $ + @ @ @ + @ & @ @ + @ @ @ $ $ @ @ @ + @ @ # $ $ @ @ @ + $ $ $ + & @ $ @ * = % -   . + @ # @ + $ $ $ % @ @ + @ @ ",
"  . + @ # @ @ + $ $ % @ @ + @ @ & # @ @ @ + $ $ + @ @ @ + @ & @ @ + @ @ @ $ $ @ @ @ + @ @ # $ $ @ @ @ + $ $ $ + & @ $ @ * = % -   . + @ # @ @ + $ $ % @ @ + @ @ & # @ @ @ + $ $ + @ @ @ + @ & @ @ + @ @ @ $ $ @ @ @ + @ @ # $ $ @ @ @ + $ $ $ + & @ $ @ * = % -   . + @ # @ @ + $ $ % @ @ + @ @ & # @ @ @ + $ $ + @ @ @ + @ & @ @ + @ @ @ $ $ @ @ @ + @ @ # $ $ @ @ @ + $ $ $ + & @ $ @ * = % -   . + @ # @ @ + $ $ % @ @ + @ @ & # @ @ @ + $ $ + @ @ @ + @ & @ @ + @ @ @ $ $ @ @ @ + @ @ # $ $ @ @ @ + $ $ $ + & @ $ @ * = % -   . + @ # @ @ + $ $ % @ @ + @ @ & # @ @ @ + $ $ + @ @ @ + @ & @ @ + @ @ @ $ $ @ @ @ + @ @ # $ $ @ @ @ + $ $ $ + & @ $ @ * = % -   . + @ # @ @ + $ $ % @ @ + @ @ & # @ @ @ + $ $ + @ @ @ + @ & @ @ + @ @ @ $ $ @ @ @ + @ @ # $ $ @ @ @ + $ $ $ + & @ $ @ * = % -   . + @ # @ @ + $ $ % @ @ + @ @ ",
"  . + @ # @ @ + $ $ % @ @ + @ @ & # @ @ @ + $ $ + @ @ @ + @ & @ @ + @ @ @ $ $ @ @ @ + @ @ # $ $ @ @ @ + $ $ $ + & @ $ @ * = % -   . + @ # @ @ + $ $ % @ @ + @ @ & # @ @ @ + $ $ + @ @ @ + @ & @ @ + @ @ @ $ $ @ @ @ + @ @ # $ $ @ @ @ + $ $ $ + & @ $ @ * = % -   . + @ # @ @ + $ $ % @ @ + @ @ & # @ @ @ + $ $ + @ @ @ + @ & @ @ + @ @ @ $ $ @ @ @ + @ @ # $ $ @ @ @ + $ $ $ + & @ $ @ * = % -   . + @ # @ @ + $ $ % @ @ + @ @ & # @ @ @ + $ $ + @ @ @ + @ & @ @ + @ @ @ $ $ @ @ @ + @ @ # $ $ @ @ @ + $ $ $ + & @ $ @ * = % -   . + @ # @ @ + $ $ % @ @ + @ @ & # @ @ @ + $ $ + @ @ @ + @ & @ @ + @ @ @ $ $ @ @ @ + @ @ # $ $ @ @ @ + $ $ $ + & @ $ @ * = % -   . + @ # @ @ + $ $ % @ @ + @ @ & # @ @ @ + $ $ + @ @ @ + @ & @ @ + @ @ @ $ $ @ @ @ + @ @ # $ $ @ @ @ + $ $ $ + & @ $ @ * = % -   . + @ # @ @ + $ $ % @ @ + @ @ ",
"  . + @ # @ @ + $ $ % @ @ @ + @ & # @ @ @ + $ $ + @ @ @ + @ & @ @ + @ @ @ $ $ @ @ @ + @ @ # $ $ @ @ @ + $ $ $ + & @ $ @ * = % -   . + @ # @ @ + $ $ % @ @ @ + @ & # @ @ @ + $ $ + @ @ @ + @ & @ @ + @ @ @ $ $ @ @ @ + @ @ # $ $ @ @ @ + $ $ $ + & @ $ @ * = % -   . + @ # @ @ + $ $ % @ @ @ + @ & # @ @ @ + $ $ + @ @ @ + @ & @ @ + @ @ @ $ $ @ @ @ + @ @ # $ $ @ @ @ + $ $ $ + & @ $ @ * = % -   . + @ # @ @ + $ $ % @ @ @ + @ & # @ @ @ + $ $ + @ @ @ + @ & @ @ + @ @ @ $ $ @ @ @ + @ @ # $ $ @ @ @ + $ $ $ + & @ $ @ * = % -   . + @ # @ @ + $ $ % @ @ @ + @ & # @ @ @ + $ $ + @ @ @ + @ & @ @ + @ @ @ $ $ @ @ @ + @ @ # $ $ @ @ @ + $ $ $ + & @ $ @ * = % -   . + @ # @ @ + $ $ % @ @ @ + @ & # @ @ @ + $ $ + @ @ @ + @ & @ @ + @ @ @ $ $ @ @ @ + @ @ # $ $ @ @ @ + $ $ $ + & @ $ @ * = % -   . + @ # @ @ + $ $ % @ @ @ + @ ",
"  . + @ # @ @ + $ $ % @ @ @ + @ & # @ @ @ @ + $ $ + @ @ + @ & @ @ + @ @ @ $ $ @ @ @ + @ @ # $ $ @ @ @ + $ $ $ + & @ $ @ * = % -   . + @ # @ @ + $ $ % @ @ @ + @ & # @ @ @ @ + $ $ + @ @ + @ & @ @ + @ @ @ $ $ @ @ @ + @ @ # $ $ @ @ @ + $ $ $ + & @ $ @ * = % -   . + @ # @ @ + $ $ % @ @ @ + @ & # @ @ @ @ + $ $ + @ @ + @ & @ @ + @ @ @ $ $ @ @ @ + @ @ # $ $ @ @ @ + $ $ $ + & @ $ @ * = % -   . + @ # @ @ + $ $ % @ @ @ + @ & # @ @ @ @ + $ $ + @ @ + @ & @ @ + @ @ @ $ $ @ @ @ + @ @ # $ $ @ @ @ + $ $ $ + & @ $ @ * = % -   . + @ # @ @ + $ $ % @ @ @ + @ & # @ @ @ @ + $ $ + @ @ + @ & @ @ + @ @ @ $ $ @ @ @ + @ @ # $ $ @ @ @ + $ $ $ + & @ $ @ * = % -   . + @ # @ @ + $ $ % @ @ @ + @ & # @ @ @ @ + $ $ + @ @ + @ & @ @ + @ @ @ $ $ @ @ @ + @ @ # $ $ @ @ @ + $ $ $ + & @ $ @ * = % -   . + @ # @ @ + $ $ % @ @ @ + @ ",
"  . + @ # @ @ + $ $ % @ @ @ + @ & # @ @ @ @ + $ $ + @ @ + @ & @ @ + @ @ @ $ $ @ @ @ + @ @ # $ $ @ @ @ + $ $ $ + & @ $ @ * = % -   . + @ # @ @ + $ $ % @ @ @ + @ & # @ @ @ @ + $ $ + @ @ + @ & @ @ + @ @ @ $ $ @ @ @ + @ @ # $ $ @ @ @ + $ $ $ + & @ $ @ * = % -   . + @ # @ @ + $ $ % @ @ @ + @ & # @ @ @ @ + $ $ + @ @ + @ & @ @ + @ @ @ $ $ @ @ @ + @ @ # $ $ @ @ @ + $ $ $ + & @ $ @ * = % -   . + @ # @ @ + $ $ % @ @ @ + @ & # @ @ @ @ + $ $ + @ @ + @ & @ @ + @ @ @ $ $ @ @ @ + @ @ # $ $ @ @ @ + $ $ $ + & @ $ @ * = % -   . + @ # @ @ + $ $ % @ @ @ + @ & # @ @ @ @ + $ $ + @ @ + @ & @ @ + @ @ @ $ $ @ @ @ + @ @ # $ $ @ @ @ + $ $ $ + & @ $ @ * = % -   . + @ # @ @ + $ $ % @ @ @ + @ & # @ @ @ @ + $ $ + @ @ + @ & @ @ + @ @ @ $ $ @ @ @ + @ @ # $ $ @ @ @ + $ $ $ + & @ $ @ * = % -   . + @ # @ @ + $ $ % @ @ @ + @ ",
"  . + @ # @ @ + $ $ % @ @ @ + @ & # @ @ @ @ + $ $ + @ @ + @ & @ @ + @ @ @ $ $ @ @ @ + @ @ # $ $ @ @ @ + $ $ $ + & @ $ @ * = % -   . + @ # @ @ + $ $ % @ @ @ + @ & # @ @ @ @ + $ $ + @ @ + @ & @ @ + @ @ @ $ $ @ @ @ + @ @ # $ $ @ @ @ + $ $ $ + & @ $ @ * = % -   . + @ # @ @ + $ $ % @ @ @ + @ & # @ @ @ @ + $ $ + @ @ + @ & @ @ + @ @ @ $ $ @ @ @ + @ @ # $ $ @ @ @ + $ $ $ + & @ $ @ * = % -   . + @ # @ @ + $ $ % @ @ @ + @ & # @ @ @ @ + $ $ + @ @ + @ & @ @ + @ @ @ $ $ @ @ @ + @ @ # $ $ @ @ @ + $ $ $ + & @ $ @ * = % -   . + @ # @ @ + $ $ % @ @ @ + @ & # @ @ @ @ + $ $ + @ @ + @ & @ @ + @ @ @ $ $ @ @ @ + @ @ # $ $ @ @ @ + $ $ $ + & @ $ @ * = % -   . + @ # @ @ + $ $ % @ @ @ + @ & # @ @ @ @ + $ $ + @ @ + @ & @ @ + @ @ @ $ $ @ @ @ + @ @ # $ $ @ @ @ + $ $ $ + & @ $ @ * = % -   . + @ # @ @ + $ $ % @ @ @ + @ ",
"  . + @ # @ @ + $ $ % @ @ @ + @ & # @ @ @ @ + $ $ + @ @ + @ & @ @ + @ @ @ $ $ @ @ @ + @ @ # $ $ @ @ @ + $ $ $ + & @ $ @ * = % -   . + @ # @ @ + $ $ % @ @ @ + @ & # @ @ @ @ + $ $ + @ @ + @ & @ @ + @ @ @ $ $ @ @ @ + @ @ # $ $ @ @ @ + $ $ $ + & @ $ @ * = % -   . + @ # @ @ + $ $ % @ @ @ + @ & # @ @ @ @ + $ $ + @ @ + @ & @ @ + @ @ @ $ $ @ @ @ + @ @ # $ $ @ @ @ + $ $ $ + & @ $ @ * = % -   . + @ # @ @ + $ $ % @ @ @ + @ & # @ @ @ @ + $ $ + @ @ + @ & @ @ + @ @ @ $ $ @ @ @ + @ @ # $ $ @ @ @ + $ $ $ + & @ $ @ * = % -   . + @ # @ @ + $ $ % @ @ @ + @ & # @ @ @ @ + $ $ + @ @ + @ & @ @ + @ @ @ $ $ @ @ @ + @ @ # $ $ @ @ @ + $ $ $ + & @ $ @ * = % -   . + @ # @ @ + $ $ % @ @ @ + @ & # @ @ @ @ + $ $ + @ @ + @ & @ @ + @ @ @ $ $ @ @ @ + @ @ # $ $ @ @ @ + $ $ $ + & @ $ @ * = % -   . + @ # @ @ + $ $ % @ @ @ + @ ",
"  . + @ # @ @ + $ $ % @ @ @ + @ & # @ @ @ @ + $ $ + @ @ + @ & @ @ + @ @ @ $ $ @ @ @ + @ @ # $ $ @ @ @ + $ $ $ + & @ $ @ * = % -   . + @ # @ @ + $ $ % @ @ @ + @ & # @ @ @ @ + $ $ + @ @ + @ & @ @ + @ @ @ $ $ @ @ @ + @ @ # $ $ @ @ @ + $ $ $ + & @ $ @ * = % -   . + @ # @ @ + $ $ % @ @ @ + @ & # @ @ @ @ + $ $ + @ @ + @ & @ @ + @ @ @ $ $ @ @ @ + @ @ # $ $ @ @ @ + $ $ $ + & @ $ @ * = % -   . + @ # @ @ + $ $ % @ @ @ + @ & # @ @ @ @ + $ $ + @ @ + @ & @ @ + @ @ @ $ $ @ @ @ + @ @ # $ $ @ @ @ + $ $ $ + & @ $ @ * = % -   . + @ # @ @ + $ $ % @ @ @ + @ & # @ @ @ @ + $ $ + @ @ + @ & @ @ + @ @ @ $ $ @ @ @ + @ @ # $ $ @ @ @ + $ $ $ + & @ $ @ * = % -   . + @ # @ @ + $ $ % @ @ @ + @ & # @ @ @ @ + $ $ + @ @ + @ & @ @ + @ @ @ $ $ @ @ @ + @ @ # $ $ @ @ @ + $ $ $ + & @ $ @ * = % -   . + @ # @ @ + $ $ % @ @ @ + @ ",
"  . + @ # @ @ + $ $ % @ @ @ + @ & # @ @ @ @ + $ $ + @ @ + @ & @ @ @ + @ @ $ $ @ @ @ + @ @ # $ $ @ @ @ + $ $ $ + & @ $ @ * = % -   . + @ # @ @ + $ $ % @ @ @ + @ & # @ @ @ @ + $ $ + @ @ + @ & @ @ @ + @ @ $ $ @ @ @ + @ @ # $ $ @ @ @ + $ $ $ + & @ $ @ * = % -   . + @ # @ @ + $ $ % @ @ @ + @ & # @ @ @ @ + $ $ + @ @ + @ & @ @ @ + @ @ $ $ @ @ @ + @ @ # $ $ @ @ @ + $ $ $ + & @ $ @ * = % -   . + @ # @ @ + $ $ % @ @ @ + @ & # @ @ @ @ + $ $ + @ @ + @ & @ @ @ + @ @ $ $ @ @ @ + @ @ # $ $ @ @ @ + $ $ $ + & @ $ @ * = % -   . + @ # @ @ + $ $ % @ @ @ + @ & # @ @ @ @ + $ $ + @ @ + @ & @ @ @ + @ @ $ $ @ @ @ + @ @ # $ $ @ @ @ + $ $ $ + & @ $ @ * = % -   . + @ # @ @ + $ $ % @ @ @ + @ & # @ @ @ @ + $ $ + @ @ + @ & @ @ @ + @ @ $ $ @ @ @ + @ @ # $ $ @ @ @ + $ $ $ + & @ $ @ * = % -   . + @ # @ @ + $ $ % @ @ @ + @ ",
"  . + @ # @ @ + $ $ % @ @ @ + @ & # @ @ @ @ + $ $ + @ @ + @ & @ @ @ + @ @ $ $ @ @ @ + @ @ # $ $ @ @ @ + $ $ $ + & @ $ @ * = % -   . + @ # @ @ + $ $ % @ @ @ + @ & # @ @ @ @ + $ $ + @ @ + @ & @ @ @ + @ @ $ $ @ @ @ + @ @ # $ $ @ @ @ + $ $ $ + & @ $ @ * = % -   . + @ # @ @ + $ $ % @ @ @ + @ & # @ @ @ @ + $ $ + @ @ + @ & @ @ @ + @ @ $ $ @ @ @ + @ @ # $ $ @ @ @ + $ $ $ + & @ $ @ * = % -   . + @ # @ @ + $ $ % @ @ @ + @ & # @ @ @ @ + $ $ + @ @ + @ & @ @ @ + @ @ $ $ @ @ @ + @ @ # $ $ @ @ @ + $ $ $ + & @ $ @ * = % -   . + @ # @ @ + $ $ % @ @ @ + @ & # @ @ @ @ + $ $ + @ @ + @ & @ @ @ + @ @ $ $ @ @ @ + @ @ # $ $ @ @ @ + $ $ $ + & @ $ @ * = % -   . + @ # @ @ + $ $ % @ @ @ + @ & # @ @ @ @ + $ $ + @ @ + @ & @ @ @ + @ @ $ $ @ @ @ + @ @ # $ $ @ @ @ + $ $ $ + & @ $ @ * = % -   . + @ # @ @ + $ $ % @ @ @ + @ ",
"  . + @ # @ @ + $ $ % @ @ @ + @ & # @ @ @ @ + $ $ + @ @ + @ & @ @ @ + @ @ $ $ @ @ @ + @ @ # $ $ @ @ @ + $ $ $ + & @ $ @ * = % -   . + @ # @ @ + $ $ % @ @ @ + @ & # @ @ @ @ + $ $ + @ @ + @ & @ @ @ + @ @ $ $ @ @ @ + @ @ # $ $ @ @ @ + $ $ $ + & @ $ @ * = % -   . + @ # @ @ + $ $ % @ @ @ + @ & # @ @ @ @ + $ $ + @ @ + @ & @ @ @ + @ @ $ $ @ @ @ + @ @ # $ $ @ @ @ + $ $ $ + & @ $ @ * = % -   . + @ # @ @ + $ $ % @ @ @ + @ & # @ @ @ @ + $ $ + @ @ + @ & @ @ @ + @ @ $ $ @ @ @ + @ @ # $ $ @ @ @ + $ $ $ + & @ $ @ * = % -   . + @ # @ @ + $ $ % @ @ @ + @ & # @ @ @ @ + $ $ + @ @ + @ & @ @ @ + @ @ $ $ @ @ @ + @ @ # $ $ @ @ @ + $ $ $ + & @ $ @ * = % -   . + @ # @ @ + $ $ % @ @ @ + @ & # @ @ @ @ + $ $ + @ @ + @ & @ @ @ + @ @ $ $ @ @ @ + @ @ # $ $ @ @ @ + $ $ $ + & @ $ @ * = % -   . + @ # @ @ + $ $ % @ @ @ + @ ",
"  . + @ # @ @ + $ $ % @ @ @ + @ & # @ @ @ @ + $ $ + @ @ + @ & @ @ @ + @ @ $ $ @ @ @ + @ @ # $ $ @ @ @ + $ $ $ + & @ $ @ * = % -   . + @ # @ @ + $ $ % @ @ @ + @ & # @ @ @ @ + $ $ + @ @ + @ & @ @ @ + @ @ $ $ @ @ @ + @ @ # $ $ @ @ @ + $ $ $ + & @ $ @ * = % -   . + @ # @ @ + $ $ % @ @ @ + @ & # @ @ @ @ + $ $ + @ @ + @ & @ @ @ + @ @ $ $ @ @ @ + @ @ # $ $ @ @ @ + $ $ $ + & @ $ @ * = % -   . + @ # @ @ + $ $ % @ @ @ + @ & # @ @ @ @ + $ $ + @ @ + @ & @ @ @ + @ @ $ $ @ @ @ + @ @ # $ $ @ @ @ + $ $ $ + & @ $ @ * = % -   . + @ # @ @ + $ $ % @ @ @ + @ & # @ @ @ @ + $ $ + @ @ + @ & @ @ @ + @ @ $ $ @ @ @ + @ @ # $ $ @ @ @ + $ $ $ + & @ $ @ * = % -   . + @ # @ @ + $ $ % @ @ @ + @ & # @ @ @ @ + $ $ + @ @ + @ & @ @ @ + @ @ $ $ @ @ @ + @ @ # $ $ @ @ @ + $ $ $ + & @ $ @ * = % -   . + @ # @ @ + $ $ % @ @ @ + @ ",
"  . + @ # @ @ + $ $ % @ @ @ + @ & # @ @ @ @ + $ + @ @ @ + @ @ @ @ @ + @ @ $ & @ @ + @ @ @ # $ $ @ @ @ + $ $ $ + & @ $ @ * = % -   . + @ # @ @ + $ $ % @ @ @ + @ & # @ @ @ @ + $ + @ @ @ + @ @ @ @ @ + @ @ $ & @ @ + @ @ @ # $ $ @ @ @ + $ $ $ + & @ $ @ * = % -   . + @ # @ @ + $ $ % @ @ @ + @ & # @ @ @ @ + $ + @ @ @ + @ @ @ @ @ + @ @ $ & @ @ + @ @ @ # $ $ @ @ @ + $ $ $ + & @ $ @ * = % -   . + @ # @ @ + $ $ % @ @ @ + @ & # @ @ @ @ + $ + @ @ @ + @ @ @ @ @ + @ @ $ & @ @ + @ @ @ # $ $ @ @ @ + $ $ $ + & @ $ @ * = % -   . + @ # @ @ + $ $ % @ @ @ + @ & # @ @ @ @ + $ + @ @ @ + @ @ @ @ @ + @ @ $ & @ @ + @ @ @ # $ $ @ @ @ + $ $ $ + & @ $ @ * = % -   . + @ # @ @ + $ $ % @ @ @ + @ & # @ @ @ @ + $ + @ @ @ + @ @ @ @ @ + @ @ $ & @ @ + @ @ @ # $ $ @ @ @ + $ $ $ + & @ $ @ * = % -   . + @ # @ @ + $ $ % @ @ @ + @ ",
"  . + @ # @ @ + $ $ % @ @ @ + @ & # @ @ @ + $ $ + @ @ @ + @ @ @ @ @ + @ @ $ & @ @ @ + @ @ # $ $ & @ @ + $ $ $ + & @ $ @ * = % -   . + @ # @ @ + $ $ % @ @ @ + @ & # @ @ @ + $ $ + @ @ @ + @ @ @ @ @ + @ @ $ & @ @ @ + @ @ # $ $ & @ @ + $ $ $ + & @ $ @ * = % -   . + @ # @ @ + $ $ % @ @ @ + @ & # @ @ @ + $ $ + @ @ @ + @ @ @ @ @ + @ @ $ & @ @ @ + @ @ # $ $ & @ @ + $ $ $ + & @ $ @ * = % -   . + @ # @ @ + $ $ % @ @ @ + @ & # @ @ @ + $ $ + @ @ @ + @ @ @ @ @ + @ @ $ & @ @ @ + @ @ # $ $ & @ @ + $ $ $ + & @ $ @ * = % -   . + @ # @ @ + $ $ % @ @ @ + @ & # @ @ @ + $ $ + @ @ @ + @ @ @ @ @ + @ @ $ & @ @ @ + @ @ # $ $ & @ @ + $ $ $ + & @ $ @ * = % -   . + @ # @ @ + $ $ % @ @ @ + @ & # @ @ @ + $ $ + @ @ @ + @ @ @ @ @ + @ @ $ & @ @ @ + @ @ # $ $ & @ @ + $ $ $ + & @ $ @ * = % -   . + @ # @ @ + $ $ % @ @ @ + @ ",
"  . + @ # @ @ + $ $ % @ @ @ + @ & # @ @ @ + $ $ + @ @ @ + @ @ @ @ @ + @ @ $ $ @ @ @ + @ @ # $ $ & @ @ + $ $ $ + & @ $ @ * = % -   . + @ # @ @ + $ $ % @ @ @ + @ & # @ @ @ + $ $ + @ @ @ + @ @ @ @ @ + @ @ $ $ @ @ @ + @ @ # $ $ & @ @ + $ $ $ + & @ $ @ * = % -   . + @ # @ @ + $ $ % @ @ @ + @ & # @ @ @ + $ $ + @ @ @ + @ @ @ @ @ + @ @ $ $ @ @ @ + @ @ # $ $ & @ @ + $ $ $ + & @ $ @ * = % -   . + @ # @ @ + $ $ % @ @ @ + @ & # @ @ @ + $ $ + @ @ @ + @ @ @ @ @ + @ @ $ $ @ @ @ + @ @ # $ $ & @ @ + $ $ $ + & @ $ @ * = % -   . + @ # @ @ + $ $ % @ @ @ + @ & # @ @ @ + $ $ + @ @ @ + @ @ @ @ @ + @ @ $ $ @ @ @ + @ @ # $ $ & @ @ + $ $ $ + & @ $ @ * = % -   . + @ # @ @ + $ $ % @ @ @ + @ & # @ @ @ + $ $ + @ @ @ + @ @ @ @ @ + @ @ $ $ @ @ @ + @ @ # $ $ & @ @ + $ $ $ + & @ $ @ * = % -   . + @ # @ @ + $ $ % @ @ @ + @ ",
"  . + @ # @ @ + $ $ % @ @ @ + @ & # @ @ @ + $ $ + @ @ @ + @ @ @ @ + @ @ @ @ $ $ @ @ + @ @ # $ $ & @ @ + $ $ $ + & @ $ @ * = % -   . + @ # @ @ + $ $ % @ @ @ + @ & # @ @ @ + $ $ + @ @ @ + @ @ @ @ + @ @ @ @ $ $ @ @ + @ @ # $ $ & @ @ + $ $ $ + & @ $ @ * = % -   . + @ # @ @ + $ $ % @ @ @ + @ & # @ @ @ + $ $ + @ @ @ + @ @ @ @ + @ @ @ @ $ $ @ @ + @ @ # $ $ & @ @ + $ $ $ + & @ $ @ * = % -   . + @ # @ @ + $ $ % @ @ @ + @ & # @ @ @ + $ $ + @ @ @ + @ @ @ @ + @ @ @ @ $ $ @ @ + @ @ # $ $ & @ @ + $ $ $ + & @ $ @ * = % -   . + @ # @ @ + $ $ % @ @ @ + @ & # @ @ @ + $ $ + @ @ @ + @ @ @ @ + @ @ @ @ $ $ @ @ + @ @ # $ $ & @ @ + $ $ $ + & @ $ @ * = % -   . + @ # @ @ + $ $ % @ @ @ + @ & # @ @ @ + $ $ + @ @ @ + @ @ @ @ + @ @ @ @ $ $ @ @ + @ @ # $ $ & @ @ + $ $ $ + & @ $ @ * = % -   . + @ # @ @ + $ $ % @ @ @ + @ ",
"  . + @ # @ @ + $ $ % @ @ + @ @ & # @ @ @ + $ $ + @ @ @ + @ @ @ + @ @ + @ @ $ $ @ @ + @ @ # $ $ & @ @ + $ $ $ + & @ $ @ * = % -   . + @ # @ @ + $ $ % @ @ + @ @ & # @ @ @ + $ $ + @ @ @ + @ @ @ + @ @ + @ @ $ $ @ @ + @ @ # $ $ & @ @ + $ $ $ + & @ $ @ * = % -   . + @ # @ @ + $ $ % @ @ + @ @ & # @ @ @ + $ $ + @ @ @ + @ @ @ + @ @ + @ @ $ $ @ @ + @ @ # $ $ & @ @ + $ $ $ + & @ $ @ * = % -   . + @ # @ @ + $ $ % @ @ + @ @ & # @ @ @ + $ $ + @ @ @ + @ @ @ + @ @ + @ @ $ $ @ @ + @ @ # $ $ & @ @ + $ $ $ + & @ $ @ * = % -   . + @ # @ @ + $ $ % @ @ + @ @ & # @ @ @ + $ $ + @ @ @ + @ @ @ + @ @ + @ @ $ $ @ @ + @ @ # $ $ & @ @ + $ $ $ + & @ $ @ * = % -   . + @ # @ @ + $ $ % @ @ + @ @ & # @ @ @ + $ $ + @ @ @ + @ @ @ + @ @ + @ @ $ $ @ @ + @ @ # $ $ & @ @ + $ $ $ + & @ $ @ * = % -   . + @ # @ @ + $ $ % @ @ + @ @ ",
"  . + @ # @ @ + $ $ % @ @ + @ @ & # @ @ @ + $ $ + @ @ @ + @ @ @ + @ @ + + @ $ $ @ @ + @ @ # $ $ & @ @ + $ $ $ + & @ $ @ * = % -   . + @ # @ @ + $ $ % @ @ + @ @ & # @ @ @ + $ $ + @ @ @ + @ @ @ + @ @ + + @ $ $ @ @ + @ @ # $ $ & @ @ + $ $ $ + & @ $ @ * = % -   . + @ # @ @ + $ $ % @ @ + @ @ & # @ @ @ + $ $ + @ @ @ + @ @ @ + @ @ + + @ $ $ @ @ + @ @ # $ $ & @ @ + $ $ $ + & @ $ @ * = % -   . + @ # @ @ + $ $ % @ @ + @ @ & # @ @ @ + $ $ + @ @ @ + @ @ @ + @ @ + + @ $ $ @ @ + @ @ # $ $ & @ @ + $ $ $ + & @ $ @ * = % -   . + @ # @ @ + $ $ % @ @ + @ @ & # @ @ @ + $ $ + @ @ @ + @ @ @ + @ @ + + @ $ $ @ @ + @ @ # $ $ & @ @ + $ $ $ + & @ $ @ * = % -   . + @ # @ @ + $ $ % @ @ + @ @ & # @ @ @ + $ $ + @ @ @ + @ @ @ + @ @ + + @ $ $ @ @ + @ @ # $ $ & @ @ + $ $ $ + & @ $ @ * = % -   . + @ # @ @ + $ $ % @ @ + @ @ ",
"  . + @ # @ @ + $ $ % @ @ + @ @ & # @ @ @ + $ $ + @ @ @ + @ @ @ + @ @ + + @ $ $ @ @ + @ @ # $ $ & @ @ + $ $ $ + & @ $ @ * = % -   . + @ # @ @ + $ $ % @ @ + @ @ & # @ @ @ + $ $ + @ @ @ + @ @ @ + @ @ + + @ $ $ @ @ + @ @ # $ $ & @ @ + $ $ $ + & @ $ @ * = % -   . + @ # @ @ + $ $ % @ @ + @ @ & # @ @ @ + $ $ + @ @ @ + @ @ @ + @ @ + + @ $ $ @ @ + @ @ # $ $ & @ @ + $ $ $ + & @ $ @ * = % -   . + @ # @ @ + $ $ % @ @ + @ @ & # @ @ @ + $ $ + @ @ @ + @ @ @ + @ @ + + @ $ $ @ @ + @ @ # $ $ & @ @ + $ $ $ + & @ $ @ * = % -   . + @ # @ @ + $ $ % @ @ + @ @ & # @ @ @ + $ $ + @ @ @ + @ @ @ + @ @ + + @ $ $ @ @ + @ @ # $ $ & @ @ + $ $ $ + & @ $ @ * = % -   . + @ # @ @ + $ $ % @ @ + @ @ & # @ @ @ + $ $ + @ @ @ + @ @ @ + @ @ + + @ $ $ @ @ + @ @ # $ $ & @ @ + $ $ $ + & @ $ @ * = % -   . + @ # @ @ + $ $ % @ @ + @ @ ",
"  . + @ # @ @ + $ $ % @ @ + @ @ & # @ @ @ @ + $ + @ @ @ + @ @ + @ @ + @ + @ $ $ @ @ + @ @ # $ $ & @ @ + $ $ $ + & @ $ @ * = % -   . + @ # @ @ + $ $ % @ @ + @ @ & # @ @ @ @ + $ + @ @ @ + @ @ + @ @ + @ + @ $ $ @ @ + @ @ # $ $ & @ @ + $ $ $ + & @ $ @ * = % -   . + @ # @ @ + $ $ % @ @ + @ @ & # @ @ @ @ + $ + @ @ @ + @ @ + @ @ + @ + @ $ $ @ @ + @ @ # $ $ & @ @ + $ $ $ + & @ $ @ * = % -   . + @ # @ @ + $ $ % @ @ + @ @ & # @ @ @ @ + $ + @ @ @ + @ @ + @ @ + @ + @ $ $ @ @ + @ @ # $ $ & @ @ + $ $ $ + & @ $ @ * = % -   . + @ # @ @ + $ $ % @ @ + @ @ & # @ @ @ @ + $ + @ @ @ + @ @ + @ @ + @ + @ $ $ @ @ + @ @ # $ $ & @ @ + $ $ $ + & @ $ @ * = % -   . + @ # @ @ + $ $ % @ @ + @ @ & # @ @ @ @ + $ + @ @ @ + @ @ + @ @ + @ + @ $ $ @ @ + @ @ # $ $ & @ @ + $ $ $ + & @ $ @ * = % -   . + @ # @ @ + $ $ % @ @ + @ @ ",
"  . + @ # @ @ + $ $ % @ @ + @ @ & # @ @ @ @ + $ + @ @ @ + @ @ + @ @ + @ + @ & $ @ @ + @ @ # $ $ & @ @ + $ $ $ + & @ $ @ * = % -   . + @ # @ @ + $ $ % @ @ + @ @ & # @ @ @ @ + $ + @ @ @ + @ @ + @ @ + @ + @ & $ @ @ + @ @ # $ $ & @ @ + $ $ $ + & @ $ @ * = % -   . + @ # @ @ + $ $ % @ @ + @ @ & # @ @ @ @ + $ + @ @ @ + @ @ + @ @ + @ + @ & $ @ @ + @ @ # $ $ & @ @ + $ $ $ + & @ $ @ * = % -   . + @ # @ @ + $ $ % @ @ + @ @ & # @ @ @ @ + $ + @ @ @ + @ @ + @ @ + @ + @ & $ @ @ + @ @ # $ $ & @ @ + $ $ $ + & @ $ @ * = % -   . + @ # @ @ + $ $ % @ @ + @ @ & # @ @ @ @ + $ + @ @ @ + @ @ + @ @ + @ + @ & $ @ @ + @ @ # $ $ & @ @ + $ $ $ + & @ $ @ * = % -   . + @ # @ @ + $ $ % @ @ + @ @ & # @ @ @ @ + $ + @ @ @ + @ @ + @ @ + @ + @ & $ @ @ + @ @ # $ $ & @ @ + $ $ $ + & @ $ @ * = % -   . + @ # @ @ + $ $ % @ @ + @ @ ",
"  . + @ # @ @ + $ $ % @ @ + @ @ & # @ @ @ @ + $ + @ @ @ + @ + @ @ @ + # + @ @ $ @ @ + @ @ # $ $ & @ @ + $ $ $ + & @ $ @ * = % -   . + @ # @ @ + $ $ % @ @ + @ @ & # @ @ @ @ + $ + @ @ @ + @ + @ @ @ + # + @ @ $ @ @ + @ @ # $ $ & @ @ + $ $ $ + & @ $ @ * = % -   . + @ # @ @ + $ $ % @ @ + @ @ & # @ @ @ @ + $ + @ @ @ + @ + @ @ @ + # + @ @ $ @ @ + @ @ # $ $ & @ @ + $ $ $ + & @ $ @ * = % -   . + @ # @ @ + $ $ % @ @ + @ @ & # @ @ @ @ + $ + @ @ @ + @ + @ @ @ + # + @ @ $ @ @ + @ @ # $ $ & @ @ + $ $ $ + & @ $ @ * = % -   . + @ # @ @ + $ $ % @ @ + @ @ & # @ @ @ @ + $ + @ @ @ + @ + @ @ @ + # + @ @ $ @ @ + @ @ # $ $ & @ @ + $ $ $ + & @ $ @ * = % -   . + @ # @ @ + $ $ % @ @ + @ @ & # @ @ @ @ + $ + @ @ @ + @ + @ @ @ + # + @ @ $ @ @ + @ @ # $ $ & @ @ + $ $ $ + & @ $ @ * = % -   . + @ # @ @ + $ $ % @ @ + @ @ ",
"  . + @ # @ @ + $ $ % @ @ + @ @ & # @ @ @ @ + $ + @ @ @ + @ + @ @ @ + # @ + @ $ & @ + @ @ # $ $ & @ @ + $ $ $ + & @ $ @ * = % -   . + @ # @ @ + $ $ % @ @ + @ @ & # @ @ @ @ + $ + @ @ @ + @ + @ @ @ + # @ + @ $ & @ + @ @ # $ $ & @ @ + $ $ $ + & @ $ @ * = % -   . + @ # @ @ + $ $ % @ @ + @ @ & # @ @ @ @ + $ + @ @ @ + @ + @ @ @ + # @ + @ $ & @ + @ @ # $ $ & @ @ + $ $ $ + & @ $ @ * = % -   . + @ # @ @ + $ $ % @ @ + @ @ & # @ @ @ @ + $ + @ @ @ + @ + @ @ @ + # @ + @ $ & @ + @ @ # $ $ & @ @ + $ $ $ + & @ $ @ * = % -   . + @ # @ @ + $ $ % @ @ + @ @ & # @ @ @ @ + $ + @ @ @ + @ + @ @ @ + # @ + @ $ & @ + @ @ # $ $ & @ @ + $ $ $ + & @ $ @ * = % -   . + @ # @ @ + $ $ % @ @ + @ @ & # @ @ @ @ + $ + @ @ @ + @ + @ @ @ + # @ + @ $ & @ + @ @ # $ $ & @ @ + $ $ $ + & @ $ @ * = % -   . + @ # @ @ + $ $ % @ @ + @ @ ",
"  . + @ # @ @ + $ $ % @ @ + @ @ & # @ @ @ @ + $ + @ @ @ + @ + @ @ % @ # @ + @ $ $ @ + @ @ # $ $ & @ @ + $ $ $ + & @ $ @ * = % -   . + @ # @ @ + $ $ % @ @ + @ @ & # @ @ @ @ + $ + @ @ @ + @ + @ @ % @ # @ + @ $ $ @ + @ @ # $ $ & @ @ + $ $ $ + & @ $ @ * = % -   . + @ # @ @ + $ $ % @ @ + @ @ & # @ @ @ @ + $ + @ @ @ + @ + @ @ % @ # @ + @ $ $ @ + @ @ # $ $ & @ @ + $ $ $ + & @ $ @ * = % -   . + @ # @ @ + $ $ % @ @ + @ @ & # @ @ @ @ + $ + @ @ @ + @ + @ @ % @ # @ + @ $ $ @ + @ @ # $ $ & @ @ + $ $ $ + & @ $ @ * = % -   . + @ # @ @ + $ $ % @ @ + @ @ & # @ @ @ @ + $ + @ @ @ + @ + @ @ % @ # @ + @ $ $ @ + @ @ # $ $ & @ @ + $ $ $ + & @ $ @ * = % -   . + @ # @ @ + $ $ % @ @ + @ @ & # @ @ @ @ + $ + @ @ @ + @ + @ @ % @ # @ + @ $ $ @ + @ @ # $ $ & @ @ + $ $ $ + & @ $ @ * = % -   . + @ # @ @ + $ $ % @ @ + @ @ ",
"  . + @ # @ @ + $ $ % @ @ + @ @ & # @ @ @ @ + $ + @ @ @ + @ + @ @ % @ # @ + @ $ $ @ + @ @ # $ $ & @ @ + $ $ $ + & @ $ @ * = % -   . + @ # @ @ + $ $ % @ @ + @ @ & # @ @ @ @ + $ + @ @ @ + @ + @ @ % @ # @ + @ $ $ @ + @ @ # $ $ & @ @ + $ $ $ + & @ $ @ * = % -   . + @ # @ @ + $ $ % @ @ + @ @ & # @ @ @ @ + $ + @ @ @ + @ + @ @ % @ # @ + @ $ $ @ + @ @ # $ $ & @ @ + $ $ $ + & @ $ @ * = % -   . + @ # @ @ + $ $ % @ @ + @ @ & # @ @ @ @ + $ + @ @ @ + @ + @ @ % @ # @ + @ $ $ @ + @ @ # $ $ & @ @ + $ $ $ + & @ $ @ * = % -   . + @ # @ @ + $ $ % @ @ + @ @ & # @ @ @ @ + $ + @ @ @ + @ + @ @ % @ # @ + @ $ $ @ + @ @ # $ $ & @ @ + $ $ $ + & @ $ @ * = % -   . + @ # @ @ + $ $ % @ @ + @ @ & # @ @ @ @ + $ + @ @ @ + @ + @ @ % @ # @ + @ $ $ @ + @ @ # $ $ & @ @ + $ $ $ + & @ $ @ * = % -   . + @ # @ @ + $ $ % @ @ + @ @ ",
"  . + @ # @ @ + $ $ % @ @ + @ @ & # @ @ @ @ + $ + @ @ @ + @ + @ @ % @ # @ + @ @ $ @ + @ @ # $ $ & @ @ + $ $ $ + & @ $ @ * = % -   . + @ # @ @ + $ $ % @ @ + @ @ & # @ @ @ @ + $ + @ @ @ + @ + @ @ % @ # @ + @ @ $ @ + @ @ # $ $ & @ @ + $ $ $ + & @ $ @ * = % -   . + @ # @ @ + $ $ % @ @ + @ @ & # @ @ @ @ + $ + @ @ @ + @ + @ @ % @ # @ + @ @ $ @ + @ @ # $ $ & @ @ + $ $ $ + & @ $ @ * = % -   . + @ # @ @ + $ $ % @ @ + @ @ & # @ @ @ @ + $ + @ @ @ + @ + @ @ % @ # @ + @ @ $ @ + @ @ # $ $ & @ @ + $ $ $ + & @ $ @ * = % -   . + @ # @ @ + $ $ % @ @ + @ @ & # @ @ @ @ + $ + @ @ @ + @ + @ @ % @ # @ + @ @ $ @ + @ @ # $ $ & @ @ + $ $ $ + & @ $ @ * = % -   . + @ # @ @ + $ $ % @ @ + @ @ & # @ @ @ @ + $ + @ @ @ + @ + @ @ % @ # @ + @ @ $ @ + @ @ # $ $ & @ @ + $ $ $ + & @ $ @ * = % -   . + @ # @ @ + $ $ % @ @ + @ @ ",
"  . + @ # @ @ + $ $ % @ @ + @ @ & # @ @ @ @ + $ + @ @ @ + @ + @ @ % @ @ @ @ % @ $ @ + @ @ # $ $ & @ @ + $ $ $ + & @ $ @ * = % -   . + @ # @ @ + $ $ % @ @ + @ @ & # @ @ @ @ + $ + @ @ @ + @ + @ @ % @ @ @ @ % @ $ @ + @ @ # $ $ & @ @ + $ $ $ + & @ $ @ * = % -   . + @ # @ @ + $ $ % @ @ + @ @ & # @ @ @ @ + $ + @ @ @ + @ + @ @ % @ @ @ @ % @ $ @ + @ @ # $ $ & @ @ + $ $ $ + & @ $ @ * = % -   . + @ # @ @ + $ $ % @ @ + @ @ & # @ @ @ @ + $ + @ @ @ + @ + @ @ % @ @ @ @ % @ $ @ + @ @ # $ $ & @ @ + $ $ $ + & @ $ @ * = % -   . + @ # @ @ + $ $ % @ @ + @ @ & # @ @ @ @ + $ + @ @ @ + @ + @ @ % @ @ @ @ % @ $ @ + @ @ # $ $ & @ @ + $ $ $ + & @ $ @ * = % -   . + @ # @ @ + $ $ % @ @ + @ @ & # @ @ @ @ + $ + @ @ @ + @ + @ @ % @ @ @ @ % @ $ @ + @ @ # $ $ & @ @ + $ $ $ + & @ $ @ * = % -   . + @ # @ @ + $ $ % @ @ + @ @ ",
"  . + @ # @ @ + $ $ % @ @ + @ @ & # @ @ @ @ + $ + @ @ @ + @ + @ @ % @ % # @ % @ $ @ + @ @ # $ $ & @ @ + $ $ $ + & @ $ @ * = % -   . + @ # @ @ + $ $ % @ @ + @ @ & # @ @ @ @ + $ + @ @ @ + @ + @ @ % @ % # @ % @ $ @ + @ @ # $ $ & @ @ + $ $ $ + & @ $ @ * = % -   . + @ # @ @ + $ $ % @ @ + @ @ & # @ @ @ @ + $ + @ @ @ + @ + @ @ % @ % # @ % @ $ @ + @ @ # $ $ & @ @ + $ $ $ + & @ $ @ * = % -   . + @ # @ @ + $ $ % @ @ + @ @ & # @ @ @ @ + $ + @ @ @ + @ + @ @ % @ % # @ % @ $ @ + @ @ # $ $ & @ @ + $ $ $ + & @ $ @ * = % -   . + @ # @ @ + $ $ % @ @ + @ @ & # @ @ @ @ + $ + @ @ @ + @ + @ @ % @ % # @ % @ $ @ + @ @ # $ $ & @ @ + $ $ $ + & @ $ @ * = % -   . + @ # @ @ + $ $ % @ @ + @ @ & # @ @ @ @ + $ + @ @ @ + @ + @ @ % @ % # @ % @ $ @ + @ @ # $ $ & @ @ + $ $ $ + & @ $ @ * = % -   . + @ # @ @ + $ $ % @ @ + @ @ ",
"  . + @ # @ @ + $ $ % @ @ + @ @ & # @ @ @ @ + $ + @ @ @ + @ + @ % # @ % % @ % @ $ @ + @ @ # $ $ & @ @ + $ $ $ + & @ $ @ * = % -   . + @ # @ @ + $ $ % @ @ + @ @ & # @ @ @ @ + $ + @ @ @ + @ + @ % # @ % % @ % @ $ @ + @ @ # $ $ & @ @ + $ $ $ + & @ $ @ * = % -   . + @ # @ @ + $ $ % @ @ + @ @ & # @ @ @ @ + $ + @ @ @ + @ + @ % # @ % % @ % @ $ @ + @ @ # $ $ & @ @ + $ $ $ + & @ $ @ * = % -   . + @ # @ @ + $ $ % @ @ + @ @ & # @ @ @ @ + $ + @ @ @ + @ + @ % # @ % % @ % @ $ @ + @ @ # $ $ & @ @ + $ $ $ + & @ $ @ * = % -   . + @ # @ @ + $ $ % @ @ + @ @ & # @ @ @ @ + $ + @ @ @ + @ + @ % # @ % % @ % @ $ @ + @ @ # $ $ & @ @ + $ $ $ + & @ $ @ * = % -   . + @ # @ @ + $ $ % @ @ + @ @ & # @ @ @ @ + $ + @ @ @ + @ + @ % # @ % % @ % @ $ @ + @ @ # $ $ & @ @ + $ $ $ + & @ $ @ * = % -   . + @ # @ @ + $ $ % @ @ + @ @ ",
"  . + @ # @ @ + $ $ % @ @ + @ @ & # @ @ @ @ + $ + @ @ @ + @ + @ % @ % % ; % @ % @ & + @ @ # $ $ & @ @ + $ $ $ + & @ $ @ * = % -   . + @ # @ @ + $ $ % @ @ + @ @ & # @ @ @ @ + $ + @ @ @ + @ + @ % @ % % ; % @ % @ & + @ @ # $ $ & @ @ + $ $ $ + & @ $ @ * = % -   . + @ # @ @ + $ $ % @ @ + @ @ & # @ @ @ @ + $ + @ @ @ + @ + @ % @ % % ; % @ % @ & + @ @ # $ $ & @ @ + $ $ $ + & @ $ @ * = % -   . + @ # @ @ + $ $ % @ @ + @ @ & # @ @ @ @ + $ + @ @ @ + @ + @ % @ % % ; % @ % @ & + @ @ # $ $ & @ @ + $ $ $ + & @ $ @ * = % -   . + @ # @ @ + $ $ % @ @ + @ @ & # @ @ @ @ + $ + @ @ @ + @ + @ % @ % % ; % @ % @ & + @ @ # $ $ & @ @ + $ $ $ + & @ $ @ * = % -   . + @ # @ @ + $ $ % @ @ + @ @ & # @ @ @ @ + $ + @ @ @ + @ + @ % @ % % ; % @ % @ & + @ @ # $ $ & @ @ + $ $ $ + & @ $ @ * = % -   . + @ # @ @ + $ $ % @ @ + @ @ ",
"  . + @ # @ @ + $ $ % @ @ + @ @ & # @ @ @ @ + $ + @ @ @ + @ + @ % @ > ; % % @ % @ & @ + @ # $ $ & @ @ @ + $ $ + & @ $ @ * = % -   . + @ # @ @ + $ $ % @ @ + @ @ & # @ @ @ @ + $ + @ @ @ + @ + @ % @ > ; % % @ % @ & @ + @ # $ $ & @ @ @ + $ $ + & @ $ @ * = % -   . + @ # @ @ + $ $ % @ @ + @ @ & # @ @ @ @ + $ + @ @ @ + @ + @ % @ > ; % % @ % @ & @ + @ # $ $ & @ @ @ + $ $ + & @ $ @ * = % -   . + @ # @ @ + $ $ % @ @ + @ @ & # @ @ @ @ + $ + @ @ @ + @ + @ % @ > ; % % @ % @ & @ + @ # $ $ & @ @ @ + $ $ + & @ $ @ * = % -   . + @ # @ @ + $ $ % @ @ + @ @ & # @ @ @ @ + $ + @ @ @ + @ + @ % @ > ; % % @ % @ & @ + @ # $ $ & @ @ @ + $ $ + & @ $ @ * = % -   . + @ # @ @ + $ $ % @ @ + @ @ & # @ @ @ @ + $ + @ @ @ + @ + @ % @ > ; % % @ % @ & @ + @ # $ $ & @ @ @ + $ $ + & @ $ @ * = % -   . + @ # @ @ + $ $ % @ @ + @ @ ",
"  . + @ # @ @ + $ $ % @ @ + @ @ & # @ @ @ @ + $ + @ @ + @ @ + @ % @ % + % @ @ % @ & @ + @ # $ $ & @ @ @ + $ $ + & @ $ @ * = % -   . + @ # @ @ + $ $ % @ @ + @ @ & # @ @ @ @ + $ + @ @ + @ @ + @ % @ % + % @ @ % @ & @ + @ # $ $ & @ @ @ + $ $ + & @ $ @ * = % -   . + @ # @ @ + $ $ % @ @ + @ @ & # @ @ @ @ + $ + @ @ + @ @ + @ % @ % + % @ @ % @ & @ + @ # $ $ & @ @ @ + $ $ + & @ $ @ * = % -   . + @ # @ @ + $ $ % @ @ + @ @ & # @ @ @ @ + $ + @ @ + @ @ + @ % @ % + % @ @ % @ & @ + @ # $ $ & @ @ @ + $ $ + & @ $ @ * = % -   . + @ # @ @ + $ $ % @ @ + @ @ & # @ @ @ @ + $ + @ @ + @ @ + @ % @ % + % @ @ % @ & @ + @ # $ $ & @ @ @ + $ $ + & @ $ @ * = % -   . + @ # @ @ + $ $ % @ @ + @ @ & # @ @ @ @ + $ + @ @ + @ @ + @ % @ % + % @ @ % @ & @ + @ # $ $ & @ @ @ + $ $ + & @ $ @ * = % -   . + @ # @ @ + $ $ % @ @ + @ @ ",
"  . + @ # @ @ + $ $ % @ @ + @ @ & # @ @ @ @ + $ + @ @ + @ @ + @ % @ % + % @ @ % @ & @ + @ # $ $ & @ @ @ + $ $ + & @ $ @ * = % -   . + @ # @ @ + $ $ % @ @ + @ @ & # @ @ @ @ + $ + @ @ + @ @ + @ % @ % + % @ @ % @ & @ + @ # $ $ & @ @ @ + $ $ + & @ $ @ * = % -   . + @ # @ @ + $ $ % @ @ + @ @ & # @ @ @ @ + $ + @ @ + @ @ + @ % @ % + % @ @ % @ & @ + @ # $ $ & @ @ @ + $ $ + & @ $ @ * = % -   . + @ # @ @ + $ $ % @ @ + @ @ & # @ @ @ @ + $ + @ @ + @ @ + @ % @ % + % @ @ % @ & @ + @ # $ $ & @ @ @ + $ $ + & @ $ @ * = % -   . + @ # @ @ + $ $ % @ @ + @ @ & # @ @ @ @ + $ + @ @ + @ @ + @ % @ % + % @ @ % @ & @ + @ # $ $ & @ @ @ + $ $ + & @ $ @ * = % -   . + @ # @ @ + $ $ % @ @ + @ @ & # @ @ @ @ + $ + @ @ + @ @ + @ % @ % + % @ @ % @ & @ + @ # $ $ & @ @ @ + $ $ + & @ $ @ * = % -   . + @ # @ @ + $ $ % @ @ + @ @ ",
"  . + @ # @ @ + $ $ % @ @ + @ @ & # @ @ @ @ + $ $ + @ + @ @ + @ % @ % + > @ @ % @ & @ + @ # $ $ & @ @ @ + $ $ + & @ $ @ * = % -   . + @ # @ @ + $ $ % @ @ + @ @ & # @ @ @ @ + $ $ + @ + @ @ + @ % @ % + > @ @ % @ & @ + @ # $ $ & @ @ @ + $ $ + & @ $ @ * = % -   . + @ # @ @ + $ $ % @ @ + @ @ & # @ @ @ @ + $ $ + @ + @ @ + @ % @ % + > @ @ % @ & @ + @ # $ $ & @ @ @ + $ $ + & @ $ @ * = % -   . + @ # @ @ + $ $ % @ @ + @ @ & # @ @ @ @ + $ $ + @ + @ @ + @ % @ % + > @ @ % @ & @ + @ # $ $ & @ @ @ + $ $ + & @ $ @ * = % -   . + @ # @ @ + $ $ % @ @ + @ @ & # @ @ @ @ + $ $ + @ + @ @ + @ % @ % + > @ @ % @ & @ + @ # $ $ & @ @ @ + $ $ + & @ $ @ * = % -   . + @ # @ @ + $ $ % @ @ + @ @ & # @ @ @ @ + $ $ + @ + @ @ + @ % @ % + > @ @ % @ & @ + @ # $ $ & @ @ @ + $ $ + & @ $ @ * = % -   . + @ # @ @ + $ $ % @ @ + @ @ ",
"  . + @ # @ @ + $ $ % @ @ + @ @ & # @ @ @ @ + $ $ + @ + @ @ + @ % @ % + % @ @ % @ & @ + @ # $ $ & @ @ @ + $ $ + & @ $ @ * = % -   . + @ # @ @ + $ $ % @ @ + @ @ & # @ @ @ @ + $ $ + @ + @ @ + @ % @ % + % @ @ % @ & @ + @ # $ $ & @ @ @ + $ $ + & @ $ @ * = % -   . + @ # @ @ + $ $ % @ @ + @ @ & # @ @ @ @ + $ $ + @ + @ @ + @ % @ % + % @ @ % @ & @ + @ # $ $ & @ @ @ + $ $ + & @ $ @ * = % -   . + @ # @ @ + $ $ % @ @ + @ @ & # @ @ @ @ + $ $ + @ + @ @ + @ % @ % + % @ @ % @ & @ + @ # $ $ & @ @ @ + $ $ + & @ $ @ * = % -   . + @ # @ @ + $ $ % @ @ + @ @ & # @ @ @ @ + $ $ + @ + @ @ + @ % @ % + % @ @ % @ & @ + @ # $ $ & @ @ @ + $ $ + & @ $ @ * = % -   . + @ # @ @ + $ $ % @ @ + @ @ & # @ @ @ @ + $ $ + @ + @ @ + @ % @ % + % @ @ % @ & @ + @ # $ $ & @ @ @ + $ $ + & @ $ @ * = % -   . + @ # @ @ + $ $ % @ @ + @ @ ",
"  . + @ # @ @ + $ $ % @ @ + @ @ & # @ @ @ @ + $ $ + @ + @ @ + @ % @ % + > @ % @ @ & @ + @ # $ $ & @ @ @ + $ $ + & @ $ @ * = % -   . + @ # @ @ + $ $ % @ @ + @ @ & # @ @ @ @ + $ $ + @ + @ @ + @ % @ % + > @ % @ @ & @ + @ # $ $ & @ @ @ + $ $ + & @ $ @ * = % -   . + @ # @ @ + $ $ % @ @ + @ @ & # @ @ @ @ + $ $ + @ + @ @ + @ % @ % + > @ % @ @ & @ + @ # $ $ & @ @ @ + $ $ + & @ $ @ * = % -   . + @ # @ @ + $ $ % @ @ + @ @ & # @ @ @ @ + $ $ + @ + @ @ + @ % @ % + > @ % @ @ & @ + @ # $ $ & @ @ @ + $ $ + & @ $ @ * = % -   . + @ # @ @ + $ $ % @ @ + @ @ & # @ @ @ @ + $ $ + @ + @ @ + @ % @ % + > @ % @ @ & @ + @ # $ $ & @ @ @ + $ $ + & @ $ @ * = % -   . + @ # @ @ + $ $ % @ @ + @ @ & # @ @ @ @ + $ $ + @ + @ @ + @ % @ % + > @ % @ @ & @ + @ # $ $ & @ @ @ + $ $ + & @ $ @ * = % -   . + @ # @ @ + $ $ % @ @ + @ @ ",
"  . + @ # @ @ + $ $ % @ @ + @ @ & # @ @ @ @ + $ $ + @ + @ @ + @ % @ % % % @ % @ @ & @ + @ # $ $ & @ @ @ + $ $ + & @ $ @ * = % -   . + @ # @ @ + $ $ % @ @ + @ @ & # @ @ @ @ + $ $ + @ + @ @ + @ % @ % % % @ % @ @ & @ + @ # $ $ & @ @ @ + $ $ + & @ $ @ * = % -   . + @ # @ @ + $ $ % @ @ + @ @ & # @ @ @ @ + $ $ + @ + @ @ + @ % @ % % % @ % @ @ & @ + @ # $ $ & @ @ @ + $ $ + & @ $ @ * = % -   . + @ # @ @ + $ $ % @ @ + @ @ & # @ @ @ @ + $ $ + @ + @ @ + @ % @ % % % @ % @ @ & @ + @ # $ $ & @ @ @ + $ $ + & @ $ @ * = % -   . + @ # @ @ + $ $ % @ @ + @ @ & # @ @ @ @ + $ $ + @ + @ @ + @ % @ % % % @ % @ @ & @ + @ # $ $ & @ @ @ + $ $ + & @ $ @ * = % -   . + @ # @ @ + $ $ % @ @ + @ @ & # @ @ @ @ + $ $ + @ + @ @ + @ % @ % % % @ % @ @ & @ + @ # $ $ & @ @ @ + $ $ + & @ $ @ * = % -   . + @ # @ @ + $ $ % @ @ + @ @ ",
"  . + @ # @ @ + $ $ % @ @ + @ @ & # @ @ @ @ + $ $ + @ + @ @ + @ @ % @ % @ @ % @ @ $ @ + @ # $ $ & @ @ @ + $ $ + & @ $ @ * = % -   . + @ # @ @ + $ $ % @ @ + @ @ & # @ @ @ @ + $ $ + @ + @ @ + @ @ % @ % @ @ % @ @ $ @ + @ # $ $ & @ @ @ + $ $ + & @ $ @ * = % -   . + @ # @ @ + $ $ % @ @ + @ @ & # @ @ @ @ + $ $ + @ + @ @ + @ @ % @ % @ @ % @ @ $ @ + @ # $ $ & @ @ @ + $ $ + & @ $ @ * = % -   . + @ # @ @ + $ $ % @ @ + @ @ & # @ @ @ @ + $ $ + @ + @ @ + @ @ % @ % @ @ % @ @ $ @ + @ # $ $ & @ @ @ + $ $ + & @ $ @ * = % -   . + @ # @ @ + $ $ % @ @ + @ @ & # @ @ @ @ + $ $ + @ + @ @ + @ @ % @ % @ @ % @ @ $ @ + @ # $ $ & @ @ @ + $ $ + & @ $ @ * = % -   . + @ # @ @ + $ $ % @ @ + @ @ & # @ @ @ @ + $ $ + @ + @ @ + @ @ % @ % @ @ % @ @ $ @ + @ # $ $ & @ @ @ + $ $ + & @ $ @ * = % -   . + @ # @ @ + $ $ % @ @ + @ @ ",
"  . + @ # @ @ + $ $ % @ @ + @ @ & # @ @ @ @ + $ $ + @ + @ @ + @ @ % @ @ @ @ % @ @ $ @ + @ # $ $ & @ @ @ + $ $ + & @ $ @ * = % -   . + @ # @ @ + $ $ % @ @ + @ @ & # @ @ @ @ + $ $ + @ + @ @ + @ @ % @ @ @ @ % @ @ $ @ + @ # $ $ & @ @ @ + $ $ + & @ $ @ * = % -   . + @ # @ @ + $ $ % @ @ + @ @ & # @ @ @ @ + $ $ + @ + @ @ + @ @ % @ @ @ @ % @ @ $ @ + @ # $ $ & @ @ @ + $ $ + & @ $ @ * = % -   . + @ # @ @ + $ $ % @ @ + @ @ & # @ @ @ @ + $ $ + @ + @ @ + @ @ % @ @ @ @ % @ @ $ @ + @ # $ $ & @ @ @ + $ $ + & @ $ @ * = % -   . + @ # @ @ + $ $ % @ @ + @ @ & # @ @ @ @ + $ $ + @ + @ @ + @ @ % @ @ @ @ % @ @ $ @ + @ # $ $ & @ @ @ + $ $ + & @ $ @ * = % -   . + @ # @ @ + $ $ % @ @ + @ @ & # @ @ @ @ + $ $ + @ + @ @ + @ @ % @ @ @ @ % @ @ $ @ + @ # $ $ & @ @ @ + $ $ + & @ $ @ * = % -   . + @ # @ @ + $ $ % @ @ + @ @ ",
"  . + @ # @ @ + $ $ % @ @ + @ @ & # @ @ @ + $ $ $ + @ + @ @ + @ @ @ % @ @ @ % @ @ $ @ + @ # $ $ & @ @ @ + $ $ + & @ $ @ * = % -   . + @ # @ @ + $ $ % @ @ + @ @ & # @ @ @ + $ $ $ + @ + @ @ + @ @ @ % @ @ @ % @ @ $ @ + @ # $ $ & @ @ @ + $ $ + & @ $ @ * = % -   . + @ # @ @ + $ $ % @ @ + @ @ & # @ @ @ + $ $ $ + @ + @ @ + @ @ @ % @ @ @ % @ @ $ @ + @ # $ $ & @ @ @ + $ $ + & @ $ @ * = % -   . + @ # @ @ + $ $ % @ @ + @ @ & # @ @ @ + $ $ $ + @ + @ @ + @ @ @ % @ @ @ % @ @ $ @ + @ # $ $ & @ @ @ + $ $ + & @ $ @ * = % -   . + @ # @ @ + $ $ % @ @ + @ @ & # @ @ @ + $ $ $ + @ + @ @ + @ @ @ % @ @ @ % @ @ $ @ + @ # $ $ & @ @ @ + $ $ + & @ $ @ * = % -   . + @ # @ @ + $ $ % @ @ + @ @ & # @ @ @ + $ $ $ + @ + @ @ + @ @ @ % @ @ @ % @ @ $ @ + @ # $ $ & @ @ @ + $ $ + & @ $ @ * = % -   . + @ # @ @ + $ $ % @ @ + @ @ ",
"  . + @ # @ @ + $ $ % @ @ + @ @ & # @ @ @ + $ $ $ + @ + @ @ + @ @ @ % @ @ @ % @ # $ @ + @ # $ $ & @ @ @ + $ $ + & @ $ @ * = % -   . + @ # @ @ + $ $ % @ @ + @ @ & # @ @ @ + $ $ $ + @ + @ @ + @ @ @ % @ @ @ % @ # $ @ + @ # $ $ & @ @ @ + $ $ + & @ $ @ * = % -   . + @ # @ @ + $ $ % @ @ + @ @ & # @ @ @ + $ $ $ + @ + @ @ + @ @ @ % @ @ @ % @ # $ @ + @ # $ $ & @ @ @ + $ $ + & @ $ @ * = % -   . + @ # @ @ + $ $ % @ @ + @ @ & # @ @ @ + $ $ $ + @ + @ @ + @ @ @ % @ @ @ % @ # $ @ + @ # $ $ & @ @ @ + $ $ + & @ $ @ * = % -   . + @ # @ @ + $ $ % @ @ + @ @ & # @ @ @ + $ $ $ + @ + @ @ + @ @ @ % @ @ @ % @ # $ @ + @ # $ $ & @ @ @ + $ $ + & @ $ @ * = % -   . + @ # @ @ + $ $ % @ @ + @ @ & # @ @ @ + $ $ $ + @ + @ @ + @ @ @ % @ @ @ % @ # $ @ + @ # $ $ & @ @ @ + $ $ + & @ $ @ * = % -   . + @ # @ @ + $ $ % @ @ + @ @ ",
"  . + @ # @ + $ $ $ % @ @ + @ @ & # @ @ @ + $ $ + @ @ + @ @ + @ @ @ @ % % % @ @ $ $ @ + @ # $ $ & @ @ + $ $ $ + & @ $ @ * = % -   . + @ # @ + $ $ $ % @ @ + @ @ & # @ @ @ + $ $ + @ @ + @ @ + @ @ @ @ % % % @ @ $ $ @ + @ # $ $ & @ @ + $ $ $ + & @ $ @ * = % -   . + @ # @ + $ $ $ % @ @ + @ @ & # @ @ @ + $ $ + @ @ + @ @ + @ @ @ @ % % % @ @ $ $ @ + @ # $ $ & @ @ + $ $ $ + & @ $ @ * = % -   . + @ # @ + $ $ $ % @ @ + @ @ & # @ @ @ + $ $ + @ @ + @ @ + @ @ @ @ % % % @ @ $ $ @ + @ # $ $ & @ @ + $ $ $ + & @ $ @ * = % -   . + @ # @ + $ $ $ % @ @ + @ @ & # @ @ @ + $ $ + @ @ + @ @ + @ @ @ @ % % % @ @ $ $ @ + @ # $ $ & @ @ + $ $ $ + & @ $ @ * = % -   . + @ # @ + $ $ $ % @ @ + @ @ & # @ @ @ + $ $ + @ @ + @ @ + @ @ @ @ % % % @ @ $ $ @ + @ # $ $ & @ @ + $ $ $ + & @ $ @ * = % -   . + @ # @ + $ $ $ % @ @ + @ @ ",
"  . + @ # @ + $ $ $ % @ @ + @ @ & # @ @ @ + $ $ + @ @ + @ @ + @ @ # @ @ @ @ @ # $ $ @ + @ # $ $ & @ @ + $ $ $ + & @ $ @ * = % -   . + @ # @ + $ $ $ % @ @ + @ @ & # @ @ @ + $ $ + @ @ + @ @ + @ @ # @ @ @ @ @ # $ $ @ + @ # $ $ & @ @ + $ $ $ + & @ $ @ * = % -   . + @ # @ + $ $ $ % @ @ + @ @ & # @ @ @ + $ $ + @ @ + @ @ + @ @ # @ @ @ @ @ # $ $ @ + @ # $ $ & @ @ + $ $ $ + & @ $ @ * = % -   . + @ # @ + $ $ $ % @ @ + @ @ & # @ @ @ + $ $ + @ @ + @ @ + @ @ # @ @ @ @ @ # $ $ @ + @ # $ $ & @ @ + $ $ $ + & @ $ @ * = % -   . + @ # @ + $ $ $ % @ @ + @ @ & # @ @ @ + $ $ + @ @ + @ @ + @ @ # @ @ @ @ @ # $ $ @ + @ # $ $ & @ @ + $ $ $ + & @ $ @ * = % -   . + @ # @ + $ $ $ % @ @ + @ @ & # @ @ @ + $ $ + @ @ + @ @ + @ @ # @ @ @ @ @ # $ $ @ + @ # $ $ & @ @ + $ $ $ + & @ $ @ * = % -   . + @ # @ + $ $ $ % @ @ + @ @ ",
"  . + @ # @ + $ $ $ % @ @ + @ @ & # @ @ @ + $ $ + @ @ + @ @ + @ @ # # @ @ @ @ # $ $ @ + @ # $ $ & @ @ + $ $ $ + & @ $ @ * = % -   . + @ # @ + $ $ $ % @ @ + @ @ & # @ @ @ + $ $ + @ @ + @ @ + @ @ # # @ @ @ @ # $ $ @ + @ # $ $ & @ @ + $ $ $ + & @ $ @ * = % -   . + @ # @ + $ $ $ % @ @ + @ @ & # @ @ @ + $ $ + @ @ + @ @ + @ @ # # @ @ @ @ # $ $ @ + @ # $ $ & @ @ + $ $ $ + & @ $ @ * = % -   . + @ # @ + $ $ $ % @ @ + @ @ & # @ @ @ + $ $ + @ @ + @ @ + @ @ # # @ @ @ @ # $ $ @ + @ # $ $ & @ @ + $ $ $ + & @ $ @ * = % -   . + @ # @ + $ $ $ % @ @ + @ @ & # @ @ @ + $ $ + @ @ + @ @ + @ @ # # @ @ @ @ # $ $ @ + @ # $ $ & @ @ + $ $ $ + & @ $ @ * = % -   . + @ # @ + $ $ $ % @ @ + @ @ & # @ @ @ + $ $ + @ @ + @ @ + @ @ # # @ @ @ @ # $ $ @ + @ # $ $ & @ @ + $ $ $ + & @ $ @ * = % -   . + @ # @ + $ $ $ % @ @ + @ @ ",
"  . + @ # @ + $ $ $ % @ @ + @ @ & # @ @ @ + $ $ + @ @ + @ @ + @ @ @ # @ @ @ @ # $ $ @ + @ # $ $ & @ @ + $ $ $ + & @ $ @ * = % -   . + @ # @ + $ $ $ % @ @ + @ @ & # @ @ @ + $ $ + @ @ + @ @ + @ @ @ # @ @ @ @ # $ $ @ + @ # $ $ & @ @ + $ $ $ + & @ $ @ * = % -   . + @ # @ + $ $ $ % @ @ + @ @ & # @ @ @ + $ $ + @ @ + @ @ + @ @ @ # @ @ @ @ # $ $ @ + @ # $ $ & @ @ + $ $ $ + & @ $ @ * = % -   . + @ # @ + $ $ $ % @ @ + @ @ & # @ @ @ + $ $ + @ @ + @ @ + @ @ @ # @ @ @ @ # $ $ @ + @ # $ $ & @ @ + $ $ $ + & @ $ @ * = % -   . + @ # @ + $ $ $ % @ @ + @ @ & # @ @ @ + $ $ + @ @ + @ @ + @ @ @ # @ @ @ @ # $ $ @ + @ # $ $ & @ @ + $ $ $ + & @ $ @ * = % -   . + @ # @ + $ $ $ % @ @ + @ @ & # @ @ @ + $ $ + @ @ + @ @ + @ @ @ # @ @ @ @ # $ $ @ + @ # $ $ & @ @ + $ $ $ + & @ $ @ * = % -   . + @ # @ + $ $ $ % @ @ + @ @ ",
"  . + @ # @ + $ $ $ % @ @ + @ @ & # @ @ @ + $ $ + @ @ @ + @ @ + @ @ @ $ @ @ # $ $ @ @ + @ # $ $ @ @ @ + $ $ $ + & @ $ @ * = % -   . + @ # @ + $ $ $ % @ @ + @ @ & # @ @ @ + $ $ + @ @ @ + @ @ + @ @ @ $ @ @ # $ $ @ @ + @ # $ $ @ @ @ + $ $ $ + & @ $ @ * = % -   . + @ # @ + $ $ $ % @ @ + @ @ & # @ @ @ + $ $ + @ @ @ + @ @ + @ @ @ $ @ @ # $ $ @ @ + @ # $ $ @ @ @ + $ $ $ + & @ $ @ * = % -   . + @ # @ + $ $ $ % @ @ + @ @ & # @ @ @ + $ $ + @ @ @ + @ @ + @ @ @ $ @ @ # $ $ @ @ + @ # $ $ @ @ @ + $ $ $ + & @ $ @ * = % -   . + @ # @ + $ $ $ % @ @ + @ @ & # @ @ @ + $ $ + @ @ @ + @ @ + @ @ @ $ @ @ # $ $ @ @ + @ # $ $ @ @ @ + $ $ $ + & @ $ @ * = % -   . + @ # @ + $ $ $ % @ @ + @ @ & # @ @ @ + $ $ + @ @ @ + @ @ + @ @ @ $ @ @ # $ $ @ @ + @ # $ $ @ @ @ + $ $ $ + & @ $ @ * = % -   . + @ # @ + $ $ $ % @ @ + @ @ ",
"  . + @ # @ + $ $ $ % @ @ + @ @ & # @ @ @ + $ $ + @ @ @ + @ @ @ + @ @ $ # @ # $ $ @ + @ @ # $ $ @ @ @ + $ $ $ + & @ $ @ * = % -   . + @ # @ + $ $ $ % @ @ + @ @ & # @ @ @ + $ $ + @ @ @ + @ @ @ + @ @ $ # @ # $ $ @ + @ @ # $ $ @ @ @ + $ $ $ + & @ $ @ * = % -   . + @ # @ + $ $ $ % @ @ + @ @ & # @ @ @ + $ $ + @ @ @ + @ @ @ + @ @ $ # @ # $ $ @ + @ @ # $ $ @ @ @ + $ $ $ + & @ $ @ * = % -   . + @ # @ + $ $ $ % @ @ + @ @ & # @ @ @ + $ $ + @ @ @ + @ @ @ + @ @ $ # @ # $ $ @ + @ @ # $ $ @ @ @ + $ $ $ + & @ $ @ * = % -   . + @ # @ + $ $ $ % @ @ + @ @ & # @ @ @ + $ $ + @ @ @ + @ @ @ + @ @ $ # @ # $ $ @ + @ @ # $ $ @ @ @ + $ $ $ + & @ $ @ * = % -   . + @ # @ + $ $ $ % @ @ + @ @ & # @ @ @ + $ $ + @ @ @ + @ @ @ + @ @ $ # @ # $ $ @ + @ @ # $ $ @ @ @ + $ $ $ + & @ $ @ * = % -   . + @ # @ + $ $ $ % @ @ + @ @ ",
"  . + @ # @ + $ $ $ % @ @ + @ @ & # @ @ @ + $ $ + @ @ @ + @ @ @ + @ @ $ $ @ $ $ @ @ + @ @ # $ $ @ @ @ + $ $ $ + & @ $ @ * = % -   . + @ # @ + $ $ $ % @ @ + @ @ & # @ @ @ + $ $ + @ @ @ + @ @ @ + @ @ $ $ @ $ $ @ @ + @ @ # $ $ @ @ @ + $ $ $ + & @ $ @ * = % -   . + @ # @ + $ $ $ % @ @ + @ @ & # @ @ @ + $ $ + @ @ @ + @ @ @ + @ @ $ $ @ $ $ @ @ + @ @ # $ $ @ @ @ + $ $ $ + & @ $ @ * = % -   . + @ # @ + $ $ $ % @ @ + @ @ & # @ @ @ + $ $ + @ @ @ + @ @ @ + @ @ $ $ @ $ $ @ @ + @ @ # $ $ @ @ @ + $ $ $ + & @ $ @ * = % -   . + @ # @ + $ $ $ % @ @ + @ @ & # @ @ @ + $ $ + @ @ @ + @ @ @ + @ @ $ $ @ $ $ @ @ + @ @ # $ $ @ @ @ + $ $ $ + & @ $ @ * = % -   . + @ # @ + $ $ $ % @ @ + @ @ & # @ @ @ + $ $ + @ @ @ + @ @ @ + @ @ $ $ @ $ $ @ @ + @ @ # $ $ @ @ @ + $ $ $ + & @ $ @ * = % -   . + @ # @ + $ $ $ % @ @ + @ @ ",
"  . + @ # @ + $ $ $ % @ @ + @ @ & # @ @ @ + $ $ + @ @ @ + @ @ @ + @ @ $ $ $ $ $ @ @ + @ @ # $ $ @ @ @ + $ $ $ + & @ $ @ * = % -   . + @ # @ + $ $ $ % @ @ + @ @ & # @ @ @ + $ $ + @ @ @ + @ @ @ + @ @ $ $ $ $ $ @ @ + @ @ # $ $ @ @ @ + $ $ $ + & @ $ @ * = % -   . + @ # @ + $ $ $ % @ @ + @ @ & # @ @ @ + $ $ + @ @ @ + @ @ @ + @ @ $ $ $ $ $ @ @ + @ @ # $ $ @ @ @ + $ $ $ + & @ $ @ * = % -   . + @ # @ + $ $ $ % @ @ + @ @ & # @ @ @ + $ $ + @ @ @ + @ @ @ + @ @ $ $ $ $ $ @ @ + @ @ # $ $ @ @ @ + $ $ $ + & @ $ @ * = % -   . + @ # @ + $ $ $ % @ @ + @ @ & # @ @ @ + $ $ + @ @ @ + @ @ @ + @ @ $ $ $ $ $ @ @ + @ @ # $ $ @ @ @ + $ $ $ + & @ $ @ * = % -   . + @ # @ + $ $ $ % @ @ + @ @ & # @ @ @ + $ $ + @ @ @ + @ @ @ + @ @ $ $ $ $ $ @ @ + @ @ # $ $ @ @ @ + $ $ $ + & @ $ @ * = % -   . + @ # @ + $ $ $ % @ @ + @ @ ",
"  . + @ # @ + $ $ $ % @ @ + @ @ & # @ @ @ + $ $ + @ @ @ + @ @ @ @ + @ @ $ $ $ $ @ @ + @ @ # $ $ @ @ @ + $ $ $ + & @ $ @ * = % -   . + @ # @ + $ $ $ % @ @ + @ @ & # @ @ @ + $ $ + @ @ @ + @ @ @ @ + @ @ $ $ $ $ @ @ + @ @ # $ $ @ @ @ + $ $ $ + & @ $ @ * = % -   . + @ # @ + $ $ $ % @ @ + @ @ & # @ @ @ + $ $ + @ @ @ + @ @ @ @ + @ @ $ $ $ $ @ @ + @ @ # $ $ @ @ @ + $ $ $ + & @ $ @ * = % -   . + @ # @ + $ $ $ % @ @ + @ @ & # @ @ @ + $ $ + @ @ @ + @ @ @ @ + @ @ $ $ $ $ @ @ + @ @ # $ $ @ @ @ + $ $ $ + & @ $ @ * = % -   . + @ # @ + $ $ $ % @ @ + @ @ & # @ @ @ + $ $ + @ @ @ + @ @ @ @ + @ @ $ $ $ $ @ @ + @ @ # $ $ @ @ @ + $ $ $ + & @ $ @ * = % -   . + @ # @ + $ $ $ % @ @ + @ @ & # @ @ @ + $ $ + @ @ @ + @ @ @ @ + @ @ $ $ $ $ @ @ + @ @ # $ $ @ @ @ + $ $ $ + & @ $ @ * = % -   . + @ # @ + $ $ $ % @ @ + @ @ ",
"  . + @ # @ + $ $ $ % @ @ + @ @ & # @ @ @ + $ $ + @ @ @ + @ @ @ @ + @ @ $ $ @ $ @ @ + @ @ # $ $ @ @ @ + $ $ $ + & @ $ @ * = % -   . + @ # @ + $ $ $ % @ @ + @ @ & # @ @ @ + $ $ + @ @ @ + @ @ @ @ + @ @ $ $ @ $ @ @ + @ @ # $ $ @ @ @ + $ $ $ + & @ $ @ * = % -   . + @ # @ + $ $ $ % @ @ + @ @ & # @ @ @ + $ $ + @ @ @ + @ @ @ @ + @ @ $ $ @ $ @ @ + @ @ # $ $ @ @ @ + $ $ $ + & @ $ @ * = % -   . + @ # @ + $ $ $ % @ @ + @ @ & # @ @ @ + $ $ + @ @ @ + @ @ @ @ + @ @ $ $ @ $ @ @ + @ @ # $ $ @ @ @ + $ $ $ + & @ $ @ * = % -   . + @ # @ + $ $ $ % @ @ + @ @ & # @ @ @ + $ $ + @ @ @ + @ @ @ @ + @ @ $ $ @ $ @ @ + @ @ # $ $ @ @ @ + $ $ $ + & @ $ @ * = % -   . + @ # @ + $ $ $ % @ @ + @ @ & # @ @ @ + $ $ + @ @ @ + @ @ @ @ + @ @ $ $ @ $ @ @ + @ @ # $ $ @ @ @ + $ $ $ + & @ $ @ * = % -   . + @ # @ + $ $ $ % @ @ + @ @ ",
"  . + @ # @ + $ $ $ % @ @ + @ @ & # @ @ @ + $ $ + @ @ @ + @ @ @ @ + @ @ $ $ $ $ @ @ + @ @ # $ $ @ @ @ + $ $ $ + & @ $ @ * = % -   . + @ # @ + $ $ $ % @ @ + @ @ & # @ @ @ + $ $ + @ @ @ + @ @ @ @ + @ @ $ $ $ $ @ @ + @ @ # $ $ @ @ @ + $ $ $ + & @ $ @ * = % -   . + @ # @ + $ $ $ % @ @ + @ @ & # @ @ @ + $ $ + @ @ @ + @ @ @ @ + @ @ $ $ $ $ @ @ + @ @ # $ $ @ @ @ + $ $ $ + & @ $ @ * = % -   . + @ # @ + $ $ $ % @ @ + @ @ & # @ @ @ + $ $ + @ @ @ + @ @ @ @ + @ @ $ $ $ $ @ @ + @ @ # $ $ @ @ @ + $ $ $ + & @ $ @ * = % -   . + @ # @ + $ $ $ % @ @ + @ @ & # @ @ @ + $ $ + @ @ @ + @ @ @ @ + @ @ $ $ $ $ @ @ + @ @ # $ $ @ @ @ + $ $ $ + & @ $ @ * = % -   . + @ # @ + $ $ $ % @ @ + @ @ & # @ @ @ + $ $ + @ @ @ + @ @ @ @ + @ @ $ $ $ $ @ @ + @ @ # $ $ @ @ @ + $ $ $ + & @ $ @ * = % -   . + @ # @ + $ $ $ % @ @ + @ @ ",
"  . + @ # @ + $ $ $ % @ @ + @ @ & # @ @ @ + $ $ + @ @ @ + @ @ @ @ + @ @ $ $ $ @ @ @ + @ @ # $ $ @ @ @ + $ $ $ + & @ $ @ * = % -   . + @ # @ + $ $ $ % @ @ + @ @ & # @ @ @ + $ $ + @ @ @ + @ @ @ @ + @ @ $ $ $ @ @ @ + @ @ # $ $ @ @ @ + $ $ $ + & @ $ @ * = % -   . + @ # @ + $ $ $ % @ @ + @ @ & # @ @ @ + $ $ + @ @ @ + @ @ @ @ + @ @ $ $ $ @ @ @ + @ @ # $ $ @ @ @ + $ $ $ + & @ $ @ * = % -   . + @ # @ + $ $ $ % @ @ + @ @ & # @ @ @ + $ $ + @ @ @ + @ @ @ @ + @ @ $ $ $ @ @ @ + @ @ # $ $ @ @ @ + $ $ $ + & @ $ @ * = % -   . + @ # @ + $ $ $ % @ @ + @ @ & # @ @ @ + $ $ + @ @ @ + @ @ @ @ + @ @ $ $ $ @ @ @ + @ @ # $ $ @ @ @ + $ $ $ + & @ $ @ * = % -   . + @ # @ + $ $ $ % @ @ + @ @ & # @ @ @ + $ $ + @ @ @ + @ @ @ @ + @ @ $ $ $ @ @ @ + @ @ # $ $ @ @ @ + $ $ $ + & @ $ @ * = % -   . + @ # @ + $ $ $ % @ @ + @ @ ",
"  . + @ # @ + $ $ $ % @ @ + @ @ & # @ @ @ + $ $ + @ @ @ + @ & @ @ + @ @ $ $ $ @ @ @ + @ @ # $ $ @ @ @ + $ $ $ + & @ $ @ * = % -   . + @ # @ + $ $ $ % @ @ + @ @ & # @ @ @ + $ $ + @ @ @ + @ & @ @ + @ @ $ $ $ @ @ @ + @ @ # $ $ @ @ @ + $ $ $ + & @ $ @ * = % -   . + @ # @ + $ $ $ % @ @ + @ @ & # @ @ @ + $ $ + @ @ @ + @ & @ @ + @ @ $ $ $ @ @ @ + @ @ # $ $ @ @ @ + $ $ $ + & @ $ @ * = % -   . + @ # @ + $ $ $ % @ @ + @ @ & # @ @ @ + $ $ + @ @ @ + @ & @ @ + @ @ $ $ $ @ @ @ + @ @ # $ $ @ @ @ + $ $ $ + & @ $ @ * = % -   . + @ # @ + $ $ $ % @ @ + @ @ & # @ @ @ + $ $ + @ @ @ + @ & @ @ + @ @ $ $ $ @ @ @ + @ @ # $ $ @ @ @ + $ $ $ + & @ $ @ * = % -   . + @ # @ + $ $ $ % @ @ + @ @ & # @ @ @ + $ $ + @ @ @ + @ & @ @ + @ @ $ $ $ @ @ @ + @ @ # $ $ @ @ @ + $ $ $ + & @ $ @ * = % -   . + @ # @ + $ $ $ % @ @ + @ @ ",
"  . + @ # @ + $ $ $ % @ @ + @ @ & # @ @ @ + $ $ + @ @ @ + @ & @ @ + @ @ @ $ $ @ @ @ + @ @ # $ $ @ @ @ + $ $ $ + & @ $ @ * = % -   . + @ # @ + $ $ $ % @ @ + @ @ & # @ @ @ + $ $ + @ @ @ + @ & @ @ + @ @ @ $ $ @ @ @ + @ @ # $ $ @ @ @ + $ $ $ + & @ $ @ * = % -   . + @ # @ + $ $ $ % @ @ + @ @ & # @ @ @ + $ $ + @ @ @ + @ & @ @ + @ @ @ $ $ @ @ @ + @ @ # $ $ @ @ @ + $ $ $ + & @ $ @ * = % -   . + @ # @ + $ $ $ % @ @ + @ @ & # @ @ @ + $ $ + @ @ @ + @ & @ @ + @ @ @ $ $ @ @ @ + @ @ # $ $ @ @ @ + $ $ $ + & @ $ @ * = % -   . + @ # @ + $ $ $ % @ @ + @ @ & # @ @ @ + $ $ + @ @ @ + @ & @ @ + @ @ @ $ $ @ @ @ + @ @ # $ $ @ @ @ + $ $ $ + & @ $ @ * = % -   . + @ # @ + $ $ $ % @ @ + @ @ & # @ @ @ + $ $ + @ @ @ + @ & @ @ + @ @ @ $ $ @ @ @ + @ @ # $ $ @ @ @ + $ $ $ + & @ $ @ * = % -   . + @ # @ + $ $ $ % @ @ + @ @ ",
"  . + @ # @ + $ $ $ % @ @ + @ @ & # @ @ @ + $ $ + @ @ @ + @ & @ @ + @ @ @ $ $ @ @ @ + @ @ # $ $ @ @ @ + $ $ $ + & @ $ @ * = % -   . + @ # @ + $ $ $ % @ @ + @ @ & # @ @ @ + $ $ + @ @ @ + @ & @ @ + @ @ @ $ $ @ @ @ + @ @ # $ $ @ @ @ + $ $ $ + & @ $ @ * = % -   . + @ # @ + $ $ $ % @ @ + @ @ & # @ @ @ + $ $ + @ @ @ + @ & @ @ + @ @ @ $ $ @ @ @ + @ @ # $ $ @ @ @ + $ $ $ + & @ $ @ * = % -   . + @ # @ + $ $ $ % @ @ + @ @ & # @ @ @ + $ $ + @ @ @ + @ & @ @ + @ @ @ $ $ @ @ @ + @ @ # $ $ @ @ @ + $ $ $ + & @ $ @ * = % -   . + @ # @ + $ $ $ % @ @ + @ @ & # @ @ @ + $ $ + @ @ @ + @ & @ @ + @ @ @ $ $ @ @ @ + @ @ # $ $ @ @ @ + $ $ $ + & @ $ @ * = % -   . + @ # @ + $ $ $ % @ @ + @ @ & # @ @ @ + $ $ + @ @ @ + @ & @ @ + @ @ @ $ $ @ @ @ + @ @ # $ $ @ @ @ + $ $ $ + & @ $ @ * = % -   . + @ # @ + $ $ $ % @ @ + @ @ ",
"  . + @ # @ @ + $ $ % @ @ + @ @ & # @ @ @ + $ $ + @ @ @ + @ & @ @ + @ @ @ $ $ @ @ @ + @ @ # $ $ @ @ @ + $ $ $ + & @ $ @ * = % -   . + @ # @ @ + $ $ % @ @ + @ @ & # @ @ @ + $ $ + @ @ @ + @ & @ @ + @ @ @ $ $ @ @ @ + @ @ # $ $ @ @ @ + $ $ $ + & @ $ @ * = % -   . + @ # @ @ + $ $ % @ @ + @ @ & # @ @ @ + $ $ + @ @ @ + @ & @ @ + @ @ @ $ $ @ @ @ + @ @ # $ $ @ @ @ + $ $ $ + & @ $ @ * = % -   . + @ # @ @ + $ $ % @ @ + @ @ & # @ @ @ + $ $ + @ @ @ + @ & @ @ + @ @ @ $ $ @ @ @ + @ @ # $ $ @ @ @ + $ $ $ + & @ $ @ * = % -   . + @ # @ @ + $ $ % @ @ + @ @ & # @ @ @ + $ $ + @ @ @ + @ & @ @ + @ @ @ $ $ @ @ @ + @ @ # $ $ @ @ @ + $ $ $ + & @ $ @ * = % -   . + @ # @ @ + $ $ % @ @ + @ @ & # @ @ @ + $ $ + @ @ @ + @ & @ @ + @ @ @ $ $ @ @ @ + @ @ # $ $ @ @ @ + $ $ $ + & @ $ @ * = % -   . + @ # @ @ + $ $ % @ @ + @ @ ",
"  . + @ # @ @ + $ $ % @ @ + @ @ & # @ @ @ + $ $ + @ @ @ + @ & @ @ + @ @ @ $ $ @ @ @ + @ @ # $ $ @ @ @ + $ $ $ + & @ $ @ * = % -   . + @ # @ @ + $ $ % @ @ + @ @ & # @ @ @ + $ $ + @ @ @ + @ & @ @ + @ @ @ $ $ @ @ @ + @ @ # $ $ @ @ @ + $ $ $ + & @ $ @ * = % -   . + @ # @ @ + $ $ % @ @ + @ @ & # @ @ @ + $ $ + @ @ @ + @ & @ @ + @ @ @ $ $ @ @ @ + @ @ # $ $ @ @ @ + $ $ $ + & @ $ @ * = % -   . + @ # @ @ + $ $ % @ @ + @ @ & # @ @ @ + $ $ + @ @ @ + @ & @ @ + @ @ @ $ $ @ @ @ + @ @ # $ $ @ @ @ + $ $ $ + & @ $ @ * = % -   . + @ # @ @ + $ $ % @ @ + @ @ & # @ @ @ + $ $ + @ @ @ + @ & @ @ + @ @ @ $ $ @ @ @ + @ @ # $ $ @ @ @ + $ $ $ + & @ $ @ * = % -   . + @ # @ @ + $ $ % @ @ + @ @ & # @ @ @ + $ $ + @ @ @ + @ & @ @ + @ @ @ $ $ @ @ @ + @ @ # $ $ @ @ @ + $ $ $ + & @ $ @ * = % -   . + @ # @ @ + $ $ % @ @ + @ @ ",
"  . + @ # @ @ + $ $ % @ @ @ + @ & # @ @ @ + $ $ + @ @ @ + @ & @ @ + @ @ @ $ $ @ @ @ + @ @ # $ $ @ @ @ + $ $ $ + & @ $ @ * = % -   . + @ # @ @ + $ $ % @ @ @ + @ & # @ @ @ + $ $ + @ @ @ + @ & @ @ + @ @ @ $ $ @ @ @ + @ @ # $ $ @ @ @ + $ $ $ + & @ $ @ * = % -   . + @ # @ @ + $ $ % @ @ @ + @ & # @ @ @ + $ $ + @ @ @ + @ & @ @ + @ @ @ $ $ @ @ @ + @ @ # $ $ @ @ @ + $ $ $ + & @ $ @ * = % -   . + @ # @ @ + $ $ % @ @ @ + @ & # @ @ @ + $ $ + @ @ @ + @ & @ @ + @ @ @ $ $ @ @ @ + @ @ # $ $ @ @ @ + $ $ $ + & @ $ @ * = % -   . + @ # @ @ + $ $ % @ @ @ + @ & # @ @ @ + $ $ + @ @ @ + @ & @ @ + @ @ @ $ $ @ @ @ + @ @ # $ $ @ @ @ + $ $ $ + & @ $ @ * = % -   . + @ # @ @ + $ $ % @ @ @ + @ & # @ @ @ + $ $ + @ @ @ + @ & @ @ + @ @ @ $ $ @ @ @ + @ @ # $ $ @ @ @ + $ $ $ + & @ $ @ * = % -   . + @ # @ @ + $ $ % @ @ @ + @ ",
"  . + @ # @ @ + $ $ % @ @ @ + @ & # @ @ @ @ + $ $ + @ @ + @ & @ @ + @ @ @ $ $ @ @ @ + @ @ # $ $ @ @ @ + $ $ $ + & @ $ @ * = % -   . + @ # @ @ + $ $ % @ @ @ + @ & # @ @ @ @ + $ $ + @ @ + @ & @ @ + @ @ @ $ $ @ @ @ + @ @ # $ $ @ @ @ + $ $ $ + & @ $ @ * = % -   . + @ # @ @ + $ $ % @ @ @ + @ & # @ @ @ @ + $ $ + @ @ + @ & @ @ + @ @ @ $ $ @ @ @ + @ @ # $ $ @ @ @ + $ $ $ + & @ $ @ * = % -   . + @ # @ @ + $ $ % @ @ @ + @ & # @ @ @ @ + $ $ + @ @ + @ & @ @ + @ @ @ $ $ @ @ @ + @ @ # $ $ @ @ @ + $ $ $ + & @ $ @ * = % -   . + @ # @ @ + $ $ % @ @ @ + @ & # @ @ @ @ + $ $ + @ @ + @ & @ @ + @ @ @ $ $ @ @ @ + @ @ # $ $ @ @ @ + $ $ $ + & @ $ @ * = % -   . + @ # @ @ + $ $ % @ @ @ + @ & # @ @ @ @ + $ $ + @ @ + @ & @ @ + @ @ @ $ $ @ @ @ + @ @ # $ $ @ @ @ + $ $ $ + & @ $ @ * = % -   . + @ # @ @ + $ $ % @ @ @ + @ ",
"  . + @ # @ @ + $ $ % @ @ @ + @ & # @ @ @ @ + $ $ + @ @ + @ & @ @ + @ @ @ $ $ @ @ @ + @ @ # $ $ @ @ @ + $ $ $ + & @ $ @ * = % -   . + @ # @ @ + $ $ % @ @ @ + @ & # @ @ @ @ + $ $ + @ @ + @ & @ @ + @ @ @ $ $ @ @ @ + @ @ # $ $ @ @ @ + $ $ $ + & @ $ @ * = % -   . + @ # @ @ + $ $ % @ @ @ + @ & # @ @ @ @ + $ $ + @ @ + @ & @ @ + @ @ @ $ $ @ @ @ + @ @ # $ $ @ @ @ + $ $ $ + & @ $ @ * = % -   . + @ # @ @ + $ $ % @ @ @ + @ & # @ @ @ @ + $ $ + @ @ + @ & @ @ + @ @ @ $ $ @ @ @ + @ @ # $ $ @ @ @ + $ $ $ + & @ $ @ * = % -   . + @ # @ @ + $ $ % @ @ @ + @ & # @ @ @ @ + $ $ + @ @ + @ & @ @ + @ @ @ $ $ @ @ @ + @ @ # $ $ @ @ @ + $ $ $ + & @ $ @ * = % -   . + @ # @ @ + $ $ % @ @ @ + @ & # @ @ @ @ + $ $ + @ @ + @ & @ @ + @ @ @ $ $ @ @ @ + @ @ # $ $ @ @ @ + $ $ $ + & @ $ @ * = % -   . + @ # @ @ + $ $ % @ @ @ + @ ",
"  . + @ # @ @ + $ $ % @ @ @ + @ & # @ @ @ @ + $ $ + @ @ + @ & @ @ + @ @ @ $ $ @ @ @ + @ @ # $ $ @ @ @ + $ $ $ + & @ $ @ * = % -   . + @ # @ @ + $ $ % @ @ @ + @ & # @ @ @ @ + $ $ + @ @ + @ & @ @ + @ @ @ $ $ @ @ @ + @ @ # $ $ @ @ @ + $ $ $ + & @ $ @ * = % -   . + @ # @ @ + $ $ % @ @ @ + @ & # @ @ @ @ + $ $ + @ @ + @ & @ @ + @ @ @ $ $ @ @ @ + @ @ # $ $ @ @ @ + $ $ $ + & @ $ @ * = % -   . + @ # @ @ + $ $ % @ @ @ + @ & # @ @ @ @ + $ $ + @ @ + @ & @ @ + @ @ @ $ $ @ @ @ + @ @ # $ $ @ @ @ + $ $ $ + & @ $ @ * = % -   . + @ # @ @ + $ $ % @ @ @ + @ & # @ @ @ @ + $ $ + @ @ + @ & @ @ + @ @ @ $ $ @ @ @ + @ @ # $ $ @ @ @ + $ $ $ + & @ $ @ * = % -   . + @ # @ @ + $ $ % @ @ @ + @ & # @ @ @ @ + $ $ + @ @ + @ & @ @ + @ @ @ $ $ @ @ @ + @ @ # $ $ @ @ @ + $ $ $ + & @ $ @ * = % -   . + @ # @ @ + $ $ % @ @ @ + @ ",
"  . + @ # @ @ + $ $ % @ @ @ + @ & # @ @ @ @ + $ $ + @ @ + @ & @ @ + @ @ @ $ $ @ @ @ + @ @ # $ $ @ @ @ + $ $ $ + & @ $ @ * = % -   . + @ # @ @ + $ $ % @ @ @ + @ & # @ @ @ @ + $ $ + @ @ + @ & @ @ + @ @ @ $ $ @ @ @ + @ @ # $ $ @ @ @ + $ $ $ + & @ $ @ * = % -   . + @ # @ @ + $ $ % @ @ @ + @ & # @ @ @ @ + $ $ + @ @ + @ & @ @ + @ @ @ $ $ @ @ @ + @ @ # $ $ @ @ @ + $ $ $ + & @ $ @ * = % -   . + @ # @ @ + $ $ % @ @ @ + @ & # @ @ @ @ + $ $ + @ @ + @ & @ @ + @ @ @ $ $ @ @ @ + @ @ # $ $ @ @ @ + $ $ $ + & @ $ @ * = % -   . + @ # @ @ + $ $ % @ @ @ + @ & # @ @ @ @ + $ $ + @ @ + @ & @ @ + @ @ @ $ $ @ @ @ + @ @ # $ $ @ @ @ + $ $ $ + & @ $ @ * = % -   . + @ # @ @ + $ $ % @ @ @ + @ & # @ @ @ @ + $ $ + @ @ + @ & @ @ + @ @ @ $ $ @ @ @ + @ @ # $ $ @ @ @ + $ $ $ + & @ $ @ * = % -   . + @ # @ @ + $ $ % @ @ @ + @ ",
"  . + @ # @ @ + $ $ % @ @ @ + @ & # @ @ @ @ + $ $ + @ @ + @ & @ @ + @ @ @ $ $ @ @ @ + @ @ # $ $ @ @ @ + $ $ $ + & @ $ @ * = % -   . + @ # @ @ + $ $ % @ @ @ + @ & # @ @ @ @ + $ $ + @ @ + @ & @ @ + @ @ @ $ $ @ @ @ + @ @ # $ $ @ @ @ + $ $ $ + & @ $ @ * = % -   . + @ # @ @ + $ $ % @ @ @ + @ & # @ @ @ @ + $ $ + @ @ + @ & @ @ + @ @ @ $ $ @ @ @ + @ @ # $ $ @ @ @ + $ $ $ + & @ $ @ * = % -   . + @ # @ @ + $ $ % @ @ @ + @ & # @ @ @ @ + $ $ + @ @ + @ & @ @ + @ @ @ $ $ @ @ @ + @ @ # $ $ @ @ @ + $ $ $ + & @ $ @ * = % -   . + @ # @ @ + $ $ % @ @ @ + @ & # @ @ @ @ + $ $ + @ @ + @ & @ @ + @ @ @ $ $ @ @ @ + @ @ # $ $ @ @ @ + $ $ $ + & @ $ @ * = % -   . + @ # @ @ + $ $ % @ @ @ + @ & # @ @ @ @ + $ $ + @ @ + @ & @ @ + @ @ @ $ $ @ @ @ + @ @ # $ $ @ @ @ + $ $ $ + & @ $ @ * = % -   . + @ # @ @ + $ $ % @ @ @ + @ ",
"  . + @ # @ @ + $ $ % @ @ @ + @ & # @ @ @ @ + $ $ + @ @ + @ & @ @ @ + @ @ $ $ @ @ @ + @ @ # $ $ @ @ @ + $ $ $ + & @ $ @ * = % -   . + @ # @ @ + $ $ % @ @ @ + @ & # @ @ @ @ + $ $ + @ @ + @ & @ @ @ + @ @ $ $ @ @ @ + @ @ # $ $ @ @ @ + $ $ $ + & @ $ @ * = % -   . + @ # @ @ + $ $ % @ @ @ + @ & # @ @ @ @ + $ $ + @ @ + @ & @ @ @ + @ @ $ $ @ @ @ + @ @ # $ $ @ @ @ + $ $ $ + & @ $ @ * = % -   . + @ # @ @ + $ $ % @ @ @ + @ & # @ @ @ @ + $ $ + @ @ + @ & @ @ @ + @ @ $ $ @ @ @ + @ @ # $ $ @ @ @ + $ $ $ + & @ $ @ * = % -   . + @ # @ @ + $ $ % @ @ @ + @ & # @ @ @ @ + $ $ + @ @ + @ & @ @ @ + @ @ $ $ @ @ @ + @ @ # $ $ @ @ @ + $ $ $ + & @ $ @ * = % -   . + @ # @ @ + $ $ % @ @ @ + @ & # @ @ @ @ + $ $ + @ @ + @ & @ @ @ + @ @ $ $ @ @ @ + @ @ # $ $ @ @ @ + $ $ $ + & @ $ @ * = % -   . + @ # @ @ + $ $ % @ @ @ + @ ",
"  . + @ # @ @ + $ $ % @ @ @ + @ & # @ @ @ @ + $ $ + @ @ + @ & @ @ @ + @ @ $ $ @ @ @ + @ @ # $ $ @ @ @ + $ $ $ + & @ $ @ * = % -   . + @ # @ @ + $ $ % @ @ @ + @ & # @ @ @ @ + $ $ + @ @ + @ & @ @ @ + @ @ $ $ @ @ @ + @ @ # $ $ @ @ @ + $ $ $ + & @ $ @ * = % -   . + @ # @ @ + $ $ % @ @ @ + @ & # @ @ @ @ + $ $ + @ @ + @ & @ @ @ + @ @ $ $ @ @ @ + @ @ # $ $ @ @ @ + $ $ $ + & @ $ @ * = % -   . + @ # @ @ + $ $ % @ @ @ + @ & # @ @ @ @ + $ $ + @ @ + @ & @ @ @ + @ @ $ $ @ @ @ + @ @ # $ $ @ @ @ + $ $ $ + & @ $ @ * = % -   . + @ # @ @ + $ $ % @ @ @ + @ & # @ @ @ @ + $ $ + @ @ + @ & @ @ @ + @ @ $ $ @ @ @ + @ @ # $ $ @ @ @ + $ $ $ + & @ $ @ * = % -   . + @ # @ @ + $ $ % @ @ @ + @ & # @ @ @ @ + $ $ + @ @ + @ & @ @ @ + @ @ $ $ @ @ @ + @ @ # $ $ @ @ @ + $ $ $ + & @ $ @ * = % -   . + @ # @ @ + $ $ % @ @ @ + @ ",
"  . + @ # @ @ + $ $ % @ @ @ + @ & # @ @ @ @ + $ $ + @ @ + @ & @ @ @ + @ @ $ $ @ @ @ + @ @ # $ $ @ @ @ + $ $ $ + & @ $ @ * = % -   . + @ # @ @ + $ $ % @ @ @ + @ & # @ @ @ @ + $ $ + @ @ + @ & @ @ @ + @ @ $ $ @ @ @ + @ @ # $ $ @ @ @ + $ $ $ + & @ $ @ * = % -   . + @ # @ @ + $ $ % @ @ @ + @ & # @ @ @ @ + $ $ + @ @ + @ & @ @ @ + @ @ $ $ @ @ @ + @ @ # $ $ @ @ @ + $ $ $ + & @ $ @ * = % -   . + @ # @ @ + $ $ % @ @ @ + @ & # @ @ @ @ + $ $ + @ @ + @ & @ @ @ + @ @ $ $ @ @ @ + @ @ # $ $ @ @ @ + $ $ $ + & @ $ @ * = % -   . + @ # @ @ + $ $ % @ @ @ + @ & # @ @ @ @ + $ $ + @ @ + @ & @ @ @ + @ @ $ $ @ @ @ + @ @ # $ $ @ @ @ + $ $ $ + & @ $ @ * = % -   . + @ # @ @ + $ $ % @ @ @ + @ & # @ @ @ @ + $ $ + @ @ + @ & @ @ @ + @ @ $ $ @ @ @ + @ @ # $ $ @ @ @ + $ $ $ + & @ $ @ * = % -   . + @ # @ @ + $ $ % @ @ @ + @ ",
"  . + @ # @ @ + $ $ % @ @ @ + @ & # @ @ @ @ + $ $ + @ @ + @ & @ @ @ + @ @ $ $ @ @ @ + @ @ # $ $ @ @ @ + $ $ $ + & @ $ @ * = % -   . + @ # @ @ + $ $ % @ @ @ + @ & # @ @ @ @ + $ $ + @ @ + @ & @ @ @ + @ @ $ $ @ @ @ + @ @ # $ $ @ @ @ + $ $ $ + & @ $ @ * = % -   . + @ # @ @ + $ $ % @ @ @ + @ & # @ @ @ @ + $ $ + @ @ + @ & @ @ @ + @ @ $ $ @ @ @ + @ @ # $ $ @ @ @ + $ $ $ + & @ $ @ * = % -   . + @ # @ @ + $ $ % @ @ @ + @ & # @ @ @ @ + $ $ + @ @ + @ & @ @ @ + @ @ $ $ @ @ @ + @ @ # $ $ @ @ @ + $ $ $ + & @ $ @ * = % -   . + @ # @ @ + $ $ % @ @ @ + @ & # @ @ @ @ + $ $ + @ @ + @ & @ @ @ + @ @ $ $ @ @ @ + @ @ # $ $ @ @ @ + $ $ $ + & @ $ @ * = % -   . + @ # @ @ + $ $ % @ @ @ + @ & # @ @ @ @ + $ $ + @ @ + @ & @ @ @ + @ @ $ $ @ @ @ + @ @ # $ $ @ @ @ + $ $ $ + & @ $ @ * = % -   . + @ # @ @ + $ $ % @ @ @ + @ ",
"  . + @ # @ @ + $ $ % @ @ @ + @ & # @ @ @ @ + $ + @ @ @ + @ @ @ @ @ + @ @ $ & @ @ + @ @ @ # $ $ @ @ @ + $ $ $ + & @ $ @ * = % -   . + @ # @ @ + $ $ % @ @ @ + @ & # @ @ @ @ + $ + @ @ @ + @ @ @ @ @ + @ @ $ & @ @ + @ @ @ # $ $ @ @ @ + $ $ $ + & @ $ @ * = % -   . + @ # @ @ + $ $ % @ @ @ + @ & # @ @ @ @ + $ + @ @ @ + @ @ @ @ @ + @ @ $ & @ @ + @ @ @ # $ $ @ @ @ + $ $ $ + & @ $ @ * = % -   . + @ # @ @ + $ $ % @ @ @ + @ & # @ @ @ @ + $ + @ @ @ + @ @ @ @ @ + @ @ $ & @ @ + @ @ @ # $ $ @ @ @ + $ $ $ + & @ $ @ * = % -   . + @ # @ @ + $ $ % @ @ @ + @ & # @ @ @ @ + $ + @ @ @ + @ @ @ @ @ + @ @ $ & @ @ + @ @ @ # $ $ @ @ @ + $ $ $ + & @ $ @ * = % -   . + @ # @ @ + $ $ % @ @ @ + @ & # @ @ @ @ + $ + @ @ @ + @ @ @ @ @ + @ @ $ & @ @ + @ @ @ # $ $ @ @ @ + $ $ $ + & @ $ @ * = % -   . + @ # @ @ + $ $ % @ @ @ + @ ",
"  . + @ # @ @ + $ $ % @ @ @ + @ & # @ @ @ + $ $ + @ @ @ + @ @ @ @ @ + @ @ $ & @ @ @ + @ @ # $ $ & @ @ + $ $ $ + & @ $ @ * = % -   . + @ # @ @ + $ $ % @ @ @ + @ & # @ @ @ + $ $ + @ @ @ + @ @ @ @ @ + @ @ $ & @ @ @ + @ @ # $ $ & @ @ + $ $ $ + & @ $ @ * = % -   . + @ # @ @ + $ $ % @ @ @ + @ & # @ @ @ + $ $ + @ @ @ + @ @ @ @ @ + @ @ $ & @ @ @ + @ @ # $ $ & @ @ + $ $ $ + & @ $ @ * = % -   . + @ # @ @ + $ $ % @ @ @ + @ & # @ @ @ + $ $ + @ @ @ + @ @ @ @ @ + @ @ $ & @ @ @ + @ @ # $ $ & @ @ + $ $ $ + & @ $ @ * = % -   . + @ # @ @ + $ $ % @ @ @ + @ & # @ @ @ + $ $ + @ @ @ + @ @ @ @ @ + @ @ $ & @ @ @ + @ @ # $ $ & @ @ + $ $ $ + & @ $ @ * = % -   . + @ # @ @ + $ $ % @ @ @ + @ & # @ @ @ + $ $ + @ @ @ + @ @ @ @ @ + @ @ $ & @ @ @ + @ @ # $ $ & @ @ + $ $ $ + & @ $ @ * = % -   . + @ # @ @ + $ $ % @ @ @ + @ ",
"  . + @ # @ @ + $ $ % @ @ @ + @ & # @ @ @ + $ $ + @ @ @ + @ @ @ @ @ + @ @ $ $ @ @ @ + @ @ # $ $ & @ @ + $ $ $ + & @ $ @ * = % -   . + @ # @ @ + $ $ % @ @ @ + @ & # @ @ @ + $ $ + @ @ @ + @ @ @ @ @ + @ @ $ $ @ @ @ + @ @ # $ $ & @ @ + $ $ $ + & @ $ @ * = % -   . + @ # @ @ + $ $ % @ @ @ + @ & # @ @ @ + $ $ + @ @ @ + @ @ @ @ @ + @ @ $ $ @ @ @ + @ @ # $ $ & @ @ + $ $ $ + & @ $ @ * = % -   . + @ # @ @ + $ $ % @ @ @ + @ & # @ @ @ + $ $ + @ @ @ + @ @ @ @ @ + @ @ $ $ @ @ @ + @ @ # $ $ & @ @ + $ $ $ + & @ $ @ * = % -   . + @ # @ @ + $ $ % @ @ @ + @ & # @ @ @ + $ $ + @ @ @ + @ @ @ @ @ + @ @ $ $ @ @ @ + @ @ # $ $ & @ @ + $ $ $ + & @ $ @ * = % -   . + @ # @ @ + $ $ % @ @ @ + @ & # @ @ @ + $ $ + @ @ @ + @ @ @ @ @ + @ @ $ $ @ @ @ + @ @ # $ $ & @ @ + $ $ $ + & @ $ @ * = % -   . + @ # @ @ + $ $ % @ @ @ + @ ",
"  . + @ # @ @ + $ $ % @ @ @ + @ & # @ @ @ + $ $ + @ @ @ + @ @ @ @ + @ @ @ @ $ $ @ @ + @ @ # $ $ & @ @ + $ $ $ + & @ $ @ * = % -   . + @ # @ @ + $ $ % @ @ @ + @ & # @ @ @ + $ $ + @ @ @ + @ @ @ @ + @ @ @ @ $ $ @ @ + @ @ # $ $ & @ @ + $ $ $ + & @ $ @ * = % -   . + @ # @ @ + $ $ % @ @ @ + @ & # @ @ @ + $ $ + @ @ @ + @ @ @ @ + @ @ @ @ $ $ @ @ + @ @ # $ $ & @ @ + $ $ $ + & @ $ @ * = % -   . + @ # @ @ + $ $ % @ @ @ + @ & # @ @ @ + $ $ + @ @ @ + @ @ @ @ + @ @ @ @ $ $ @ @ + @ @ # $ $ & @ @ + $ $ $ + & @ $ @ * = % -   . + @ # @ @ + $ $ % @ @ @ + @ & # @ @ @ + $ $ + @ @ @ + @ @ @ @ + @ @ @ @ $ $ @ @ + @ @ # $ $ & @ @ + $ $ $ + & @ $ @ * = % -   . + @ # @ @ + $ $ % @ @ @ + @ & # @ @ @ + $ $ + @ @ @ + @ @ @ @ + @ @ @ @ $ $ @ @ + @ @ # $ $ & @ @ + $ $ $ + & @ $ @ * = % -   . + @ # @ @ + $ $ % @ @ @ + @ ",
"  . + @ # @ @ + $ $ % @ @ + @ @ & # @ @ @ + $ $ + @ @ @ + @ @ @ + @ @ + @ @ $ $ @ @ + @ @ # $ $ & @ @ + $ $ $ + & @ $ @ * = % -   . + @ # @ @ + $ $ % @ @ + @ @ & # @ @ @ + $ $ + @ @ @ + @ @ @ + @ @ + @ @ $ $ @ @ + @ @ # $ $ & @ @ + $ $ $ + & @ $ @ * = % -   . + @ # @ @ + $ $ % @ @ + @ @ & # @ @ @ + $ $ + @ @ @ + @ @ @ + @ @ + @ @ $ $ @ @ + @ @ # $ $ & @ @ + $ $ $ + & @ $ @ * = % -   . + @ # @ @ + $ $ % @ @ + @ @ & # @ @ @ + $ $ + @ @ @ + @ @ @ + @ @ + @ @ $ $ @ @ + @ @ # $ $ & @ @ + $ $ $ + & @ $ @ * = % -   . + @ # @ @ + $ $ % @ @ + @ @ & # @ @ @ + $ $ + @ @ @ + @ @ @ + @ @ + @ @ $ $ @ @ + @ @ # $ $ & @ @ + $ $ $ + & @ $ @ * = % -   . + @ # @ @ + $ $ % @ @ + @ @ & # @ @ @ + $ $ + @ @ @ + @ @ @ + @ @ + @ @ $ $ @ @ + @ @ # $ $ & @ @ + $ $ $ + & @ $ @ * = % -   . + @ # @ @ + $ $ % @ @ + @ @ ",
"  . + @ # @ @ + $ $ % @ @ + @ @ & # @ @ @ + $ $ + @ @ @ + @ @ @ + @ @ + + @ $ $ @ @ + @ @ # $ $ & @ @ + $ $ $ + & @ $ @ * = % -   . + @ # @ @ + $ $ % @ @ + @ @ & # @ @ @ + $ $ + @ @ @ + @ @ @ + @ @ + + @ $ $ @ @ + @ @ # $ $ & @ @ + $ $ $ + & @ $ @ * = % -   . + @ # @ @ + $ $ % @ @ + @ @ & # @ @ @ + $ $ + @ @ @ + @ @ @ + @ @ + + @ $ $ @ @ + @ @ # $ $ & @ @ + $ $ $ + & @ $ @ * = % -   . + @ # @ @ + $ $ % @ @ + @ @ & # @ @ @ + $ $ + @ @ @ + @ @ @ + @ @ + + @ $ $ @ @ + @ @ # $ $ & @ @ + $ $ $ + & @ $ @ * = % -   . + @ # @ @ + $ $ % @ @ + @ @ & # @ @ @ + $ $ + @ @ @ + @ @ @ + @ @ + + @ $ $ @ @ + @ @ # $ $ & @ @ + $ $ $ + & @ $ @ * = % -   . + @ # @ @ + $ $ % @ @ + @ @ & # @ @ @ + $ $ + @ @ @ + @ @ @ + @ @ + + @ $ $ @ @ + @ @ # $ $ & @ @ + $ $ $ + & @ $ @ * = % -   . + @ # @ @ + $ $ % @ @ + @ @ ",
"  . + @ # @ @ + $ $ % @ @ + @ @ & # @ @ @ + $ $ + @ @ @ + @ @ @ + @ @ + + @ $ $ @ @ + @ @ # $ $ & @ @ + $ $ $ + & @ $ @ * = % -   . + @ # @ @ + $ $ % @ @ + @ @ & # @ @ @ + $ $ + @ @ @ + @ @ @ + @ @ + + @ $ $ @ @ + @ @ # $ $ & @ @ + $ $ $ + & @ $ @ * = % -   . + @ # @ @ + $ $ % @ @ + @ @ & # @ @ @ + $ $ + @ @ @ + @ @ @ + @ @ + + @ $ $ @ @ + @ @ # $ $ & @ @ + $ $ $ + & @ $ @ * = % -   . + @ # @ @ + $ $ % @ @ + @ @ & # @ @ @ + $ $ + @ @ @ + @ @ @ + @ @ + + @ $ $ @ @ + @ @ # $ $ & @ @ + $ $ $ + & @ $ @ * = % -   . + @ # @ @ + $ $ % @ @ + @ @ & # @ @ @ + $ $ + @ @ @ + @ @ @ + @ @ + + @ $ $ @ @ + @ @ # $ $ & @ @ + $ $ $ + & @ $ @ * = % -   . + @ # @ @ + $ $ % @ @ + @ @ & # @ @ @ + $ $ + @ @ @ + @ @ @ + @ @ + + @ $ $ @ @ + @ @ # $ $ & @ @ + $ $ $ + & @ $ @ * = % -   . + @ # @ @ + $ $ % @ @ + @ @ ",
"  . + @ # @ @ + $ $ % @ @ + @ @ & # @ @ @ @ + $ + @ @ @ + @ @ + @ @ + @ + @ $ $ @ @ + @ @ # $ $ & @ @ + $ $ $ + & @ $ @ * = % -   . + @ # @ @ + $ $ % @ @ + @ @ & # @ @ @ @ + $ + @ @ @ + @ @ + @ @ + @ + @ $ $ @ @ + @ @ # $ $ & @ @ + $ $ $ + & @ $ @ * = % -   . + @ # @ @ + $ $ % @ @ + @ @ & # @ @ @ @ + $ + @ @ @ + @ @ + @ @ + @ + @ $ $ @ @ + @ @ # $ $ & @ @ + $ $ $ + & @ $ @ * = % -   . + @ # @ @ + $ $ % @ @ + @ @ & # @ @ @ @ + $ + @ @ @ + @ @ + @ @ + @ + @ $ $ @ @ + @ @ # $ $ & @ @ + $ $ $ + & @ $ @ * = % -   . + @ # @ @ + $ $ % @ @ + @ @ & # @ @ @ @ + $ + @ @ @ + @ @ + @ @ + @ + @ $ $ @ @ + @ @ # $ $ & @ @ + $ $ $ + & @ $ @ * = % -   . + @ # @ @ + $ $ % @ @ + @ @ & # @ @ @ @ + $ + @ @ @ + @ @ + @ @ + @ + @ $ $ @ @ + @ @ # $ $ & @ @ + $ $ $ + & @ $ @ * = % -   . + @ # @ @ + $ $ % @ @ + @ @ ",
"  . + @ # @ @ + $ $ % @ @ + @ @ & # @ @ @ @ + $ + @ @ @ + @ @ + @ @ + @ + @ & $ @ @ + @ @ # $ $ & @ @ + $ $ $ + & @ $ @ * = % -   . + @ # @ @ + $ $ % @ @ + @ @ & # @ @ @ @ + $ + @ @ @ + @ @ + @ @ + @ + @ & $ @ @ + @ @ # $ $ & @ @ + $ $ $ + & @ $ @ * = % -   . + @ # @ @ + $ $ % @ @ + @ @ & # @ @ @ @ + $ + @ @ @ + @ @ + @ @ + @ + @ & $ @ @ + @ @ # $ $ & @ @ + $ $ $ + & @ $ @ * = % -   . + @ # @ @ + $ $ % @ @ + @ @ & # @ @ @ @ + $ + @ @ @ + @ @ + @ @ + @ + @ & $ @ @ + @ @ # $ $ & @ @ + $ $ $ + & @ $ @ * = % -   . + @ # @ @ + $ $ % @ @ + @ @ & # @ @ @ @ + $ + @ @ @ + @ @ + @ @ + @ + @ & $ @ @ + @ @ # $ $ & @ @ + $ $ $ + & @ $ @ * = % -   . + @ # @ @ + $ $ % @ @ + @ @ & # @ @ @ @ + $ + @ @ @ + @ @ + @ @ + @ + @ & $ @ @ + @ @ # $ $ & @ @ + $ $ $ + & @ $ @ * = % -   . + @ # @ @ + $ $ % @ @ + @ @ ",
"  . + @ # @ @ + $ $ % @ @ + @ @ & # @ @ @ @ + $ + @ @ @ + @ + @ @ @ + # + @ @ $ @ @ + @ @ # $ $ & @ @ + $ $ $ + & @ $ @ * = % -   . + @ # @ @ + $ $ % @ @ + @ @ & # @ @ @ @ + $ + @ @ @ + @ + @ @ @ + # + @ @ $ @ @ + @ @ # $ $ & @ @ + $ $ $ + & @ $ @ * = % -   . + @ # @ @ + $ $ % @ @ + @ @ & # @ @ @ @ + $ + @ @ @ + @ + @ @ @ + # + @ @ $ @ @ + @ @ # $ $ & @ @ + $ $ $ + & @ $ @ * = % -   . + @ # @ @ + $ $ % @ @ + @ @ & # @ @ @ @ + $ + @ @ @ + @ + @ @ @ + # + @ @ $ @ @ + @ @ # $ $ & @ @ + $ $ $ + & @ $ @ * = % -   . + @ # @ @ + $ $ % @ @ + @ @ & # @ @ @ @ + $ + @ @ @ + @ + @ @ @ + # + @ @ $ @ @ + @ @ # $ $ & @ @ + $ $ $ + & @ $ @ * = % -   . + @ # @ @ + $ $ % @ @ + @ @ & # @ @ @ @ + $ + @ @ @ + @ + @ @ @ + # + @ @ $ @ @ + @ @ # $ $ & @ @ + $ $ $ + & @ $ @ * = % -   . + @ # @ @ + $ $ % @ @ + @ @ ",
"  . + @ # @ @ + $ $ % @ @ + @ @ & # @ @ @ @ + $ + @ @ @ + @ + @ @ @ + # @ + @ $ & @ + @ @ # $ $ & @ @ + $ $ $ + & @ $ @ * = % -   . + @ # @ @ + $ $ % @ @ + @ @ & # @ @ @ @ + $ + @ @ @ + @ + @ @ @ + # @ + @ $ & @ + @ @ # $ $ & @ @ + $ $ $ + & @ $ @ * = % -   . + @ # @ @ + $ $ % @ @ + @ @ & # @ @ @ @ + $ + @ @ @ + @ + @ @ @ + # @ + @ $ & @ + @ @ # $ $ & @ @ + $ $ $ + & @ $ @ * = % -   . + @ # @ @ + $ $ % @ @ + @ @ & # @ @ @ @ + $ + @ @ @ + @ + @ @ @ + # @ + @ $ & @ + @ @ # $ $ & @ @ + $ $ $ + & @ $ @ * = % -   . + @ # @ @ + $ $ % @ @ + @ @ & # @ @ @ @ + $ + @ @ @ + @ + @ @ @ + # @ + @ $ & @ + @ @ # $ $ & @ @ + $ $ $ + & @ $ @ * = % -   . + @ # @ @ + $ $ % @ @ + @ @ & # @ @ @ @ + $ + @ @ @ + @ + @ @ @ + # @ + @ $ & @ + @ @ # $ $ & @ @ + $ $ $ + & @ $ @ * = % -   . + @ # @ @ + $ $ % @ @ + @ @ ",
"  . + @ # @ @ + $ $ % @ @ + @ @ & # @ @ @ @ + $ + @ @ @ + @ + @ @ % @ # @ + @ $ $ @ + @ @ # $ $ & @ @ + $ $ $ + & @ $ @ * = % -   . + @ # @ @ + $ $ % @ @ + @ @ & # @ @ @ @ + $ + @ @ @ + @ + @ @ % @ # @ + @ $ $ @ + @ @ # $ $ & @ @ + $ $ $ + & @ $ @ * = % -   . + @ # @ @ + $ $ % @ @ + @ @ & # @ @ @ @ + $ + @ @ @ + @ + @ @ % @ # @ + @ $ $ @ + @ @ # $ $ & @ @ + $ $ $ + & @ $ @ * = % -   . + @ # @ @ + $ $ % @ @ + @ @ & # @ @ @ @ + $ + @ @ @ + @ + @ @ % @ # @ + @ $ $ @ + @ @ # $ $ & @ @ + $ $ $ + & @ $ @ * = % -   . + @ # @ @ + $ $ % @ @ + @ @ & # @ @ @ @ + $ + @ @ @ + @ + @ @ % @ # @ + @ $ $ @ + @ @ # $ $ & @ @ + $ $ $ + & @ $ @ * = % -   . + @ # @ @ + $ $ % @ @ + @ @ & # @ @ @ @ + $ + @ @ @ + @ + @ @ % @ # @ + @ $ $ @ + @ @ # $ $ & @ @ + $ $ $ + & @ $ @ * = % -   . + @ # @ @ + $ $ % @ @ + @ @ ",
"  . + @ # @ @ + $ $ % @ @ + @ @ & # @ @ @ @ + $ + @ @ @ + @ + @ @ % @ # @ + @ $ $ @ + @ @ # $ $ & @ @ + $ $ $ + & @ $ @ * = % -   . + @ # @ @ + $ $ % @ @ + @ @ & # @ @ @ @ + $ + @ @ @ + @ + @ @ % @ # @ + @ $ $ @ + @ @ # $ $ & @ @ + $ $ $ + & @ $ @ * = % -   . + @ # @ @ + $ $ % @ @ + @ @ & # @ @ @ @ + $ + @ @ @ + @ + @ @ % @ # @ + @ $ $ @ + @ @ # $ $ & @ @ + $ $ $ + & @ $ @ * = % -   . + @ # @ @ + $ $ % @ @ + @ @ & # @ @ @ @ + $ + @ @ @ + @ + @ @ % @ # @ + @ $ $ @ + @ @ # $ $ & @ @ + $ $ $ + & @ $ @ * = % -   . + @ # @ @ + $ $ % @ @ + @ @ & # @ @ @ @ + $ + @ @ @ + @ + @ @ % @ # @ + @ $ $ @ + @ @ # $ $ & @ @ + $ $ $ + & @ $ @ * = % -   . + @ # @ @ + $ $ % @ @ + @ @ & # @ @ @ @ + $ + @ @ @ + @ + @ @ % @ # @ + @ $ $ @ + @ @ # $ $ & @ @ + $ $ $ + & @ $ @ * = % -   . + @ # @ @ + $ $ % @ @ + @ @ ",
"  . + @ # @ @ + $ $ % @ @ + @ @ & # @ @ @ @ + $ + @ @ @ + @ + @ @ % @ # @ + @ @ $ @ + @ @ # $ $ & @ @ + $ $ $ + & @ $ @ * = % -   . + @ # @ @ + $ $ % @ @ + @ @ & # @ @ @ @ + $ + @ @ @ + @ + @ @ % @ # @ + @ @ $ @ + @ @ # $ $ & @ @ + $ $ $ + & @ $ @ * = % -   . + @ # @ @ + $ $ % @ @ + @ @ & # @ @ @ @ + $ + @ @ @ + @ + @ @ % @ # @ + @ @ $ @ + @ @ # $ $ & @ @ + $ $ $ + & @ $ @ * = % -   . + @ # @ @ + $ $ % @ @ + @ @ & # @ @ @ @ + $ + @ @ @ + @ + @ @ % @ # @ + @ @ $ @ + @ @ # $ $ & @ @ + $ $ $ + & @ $ @ * = % -   . + @ # @ @ + $ $ % @ @ + @ @ & # @ @ @ @ + $ + @ @ @ + @ + @ @ % @ # @ + @ @ $ @ + @ @ # $ $ & @ @ + $ $ $ + & @ $ @ * = % -   . + @ # @ @ + $ $ % @ @ + @ @ & # @ @ @ @ + $ + @ @ @ + @ + @ @ % @ # @ + @ @ $ @ + @ @ # $ $ & @ @ + $ $ $ + & @ $ @ * = % -   . + @ # @ @ + $ $ % @ @ + @ @ ",
"  . + @ # @ @ + $ $ % @ @ + @ @ & # @ @ @ @ + $ + @ @ @ + @ + @ @ % @ @ @ @ % @ $ @ + @ @ # $ $ & @ @ + $ $ $ + & @ $ @ * = % -   . + @ # @ @ + $ $ % @ @ + @ @ & # @ @ @ @ + $ + @ @ @ + @ + @ @ % @ @ @ @ % @ $ @ + @ @ # $ $ & @ @ + $ $ $ + & @ $ @ * = % -   . + @ # @ @ + $ $ % @ @ + @ @ & # @ @ @ @ + $ + @ @ @ + @ + @ @ % @ @ @ @ % @ $ @ + @ @ # $ $ & @ @ + $ $ $ + & @ $ @ * = % -   . + @ # @ @ + $ $ % @ @ + @ @ & # @ @ @ @ + $ + @ @ @ + @ + @ @ % @ @ @ @ % @ $ @ + @ @ # $ $ & @ @ + $ $ $ + & @ $ @ * = % -   . + @ # @ @ + $ $ % @ @ + @ @ & # @ @ @ @ + $ + @ @ @ + @ + @ @ % @ @ @ @ % @ $ @ + @ @ # $ $ & @ @ + $ $ $ + & @ $ @ * = % -   . + @ # @ @ + $ $ % @ @ + @ @ & # @ @ @ @ + $ + @ @ @ + @ + @ @ % @ @ @ @ % @ $ @ + @ @ # $ $ & @ @ + $ $ $ + & @ $ @ * = % -   . + @ # @ @ + $ $ % @ @ + @ @ ",
"  . + @ # @ @ + $ $ % @ @ + @ @ & # @ @ @ @ + $ + @ @ @ + @ + @ @ % @ % # @ % @ $ @ + @ @ # $ $ & @ @ + $ $ $ + & @ $ @ * = % -   . + @ # @ @ + $ $ % @ @ + @ @ & # @ @ @ @ + $ + @ @ @ + @ + @ @ % @ % # @ % @ $ @ + @ @ # $ $ & @ @ + $ $ $ + & @ $ @ * = % -   . + @ # @ @ + $ $ % @ @ + @ @ & # @ @ @ @ + $ + @ @ @ + @ + @ @ % @ % # @ % @ $ @ + @ @ # $ $ & @ @ + $ $ $ + & @ $ @ * = % -   . + @ # @ @ + $ $ % @ @ + @ @ & # @ @ @ @ + $ + @ @ @ + @ + @ @ % @ % # @ % @ $ @ + @ @ # $ $ & @ @ + $ $ $ + & @ $ @ * = % -   . + @ # @ @ + $ $ % @ @ + @ @ & # @ @ @ @ + $ + @ @ @ + @ + @ @ % @ % # @ % @ $ @ + @ @ # $ $ & @ @ + $ $ $ + & @ $ @ * = % -   . + @ # @ @ + $ $ % @ @ + @ @ & # @ @ @ @ + $ + @ @ @ + @ + @ @ % @ % # @ % @ $ @ + @ @ # $ $ & @ @ + $ $ $ + & @ $ @ * = % -   . + @ # @ @ + $ $ % @ @ + @ @ ",
"  . + @ # @ @ + $ $ % @ @ + @ @ & # @ @ @ @ + $ + @ @ @ + @ + @ % # @ % % @ % @ $ @ + @ @ # $ $ & @ @ + $ $ $ + & @ $ @ * = % -   . + @ # @ @ + $ $ % @ @ + @ @ & # @ @ @ @ + $ + @ @ @ + @ + @ % # @ % % @ % @ $ @ + @ @ # $ $ & @ @ + $ $ $ + & @ $ @ * = % -   . + @ # @ @ + $ $ % @ @ + @ @ & # @ @ @ @ + $ + @ @ @ + @ + @ % # @ % % @ % @ $ @ + @ @ # $ $ & @ @ + $ $ $ + & @ $ @ * = % -   . + @ # @ @ + $ $ % @ @ + @ @ & # @ @ @ @ + $ + @ @ @ + @ + @ % # @ % % @ % @ $ @ + @ @ # $ $ & @ @ + $ $ $ + & @ $ @ * = % -   . + @ # @ @ + $ $ % @ @ + @ @ & # @ @ @ @ + $ + @ @ @ + @ + @ % # @ % % @ % @ $ @ + @ @ # $ $ & @ @ + $ $ $ + & @ $ @ * = % -   . + @ # @ @ + $ $ % @ @ + @ @ & # @ @ @ @ + $ + @ @ @ + @ + @ % # @ % % @ % @ $ @ + @ @ # $ $ & @ @ + $ $ $ + & @ $ @ * = % -   . + @ # @ @ + $ $ % @ @ + @ @ ",
"  . + @ # @ @ + $ $ % @ @ + @ @ & # @ @ @ @ + $ + @ @ @ + @ + @ % @ % % ; % @ % @ & + @ @ # $ $ & @ @ + $ $ $ + & @ $ @ * = % -   . + @ # @ @ + $ $ % @ @ + @ @ & # @ @ @ @ + $ + @ @ @ + @ + @ % @ % % ; % @ % @ & + @ @ # $ $ & @ @ + $ $ $ + & @ $ @ * = % -   . + @ # @ @ + $ $ % @ @ + @ @ & # @ @ @ @ + $ + @ @ @ + @ + @ % @ % % ; % @ % @ & + @ @ # $ $ & @ @ + $ $ $ + & @ $ @ * = % -   . + @ # @ @ + $ $ % @ @ + @ @ & # @ @ @ @ + $ + @ @ @ + @ + @ % @ % % ; % @ % @ & + @ @ # $ $ & @ @ + $ $ $ + & @ $ @ * = % -   . + @ # @ @ + $ $ % @ @ + @ @ & # @ @ @ @ + $ + @ @ @ + @ + @ % @ % % ; % @ % @ & + @ @ # $ $ & @ @ + $ $ $ + & @ $ @ * = % -   . + @ # @ @ + $ $ % @ @ + @ @ & # @ @ @ @ + $ + @ @ @ + @ + @ % @ % % ; % @ % @ & + @ @ # $ $ & @ @ + $ $ $ + & @ $ @ * = % -   . + @ # @ @ + $ $ % @ @ + @ @ ",
"  . + @ # @ @ + $ $ % @ @ + @ @ & # @ @ @ @ + $ + @ @ @ + @ + @ % @ > ; % % @ % @ & @ + @ # $ $ & @ @ @ + $ $ + & @ $ @ * = % -   . + @ # @ @ + $ $ % @ @ + @ @ & # @ @ @ @ + $ + @ @ @ + @ + @ % @ > ; % % @ % @ & @ + @ # $ $ & @ @ @ + $ $ + & @ $ @ * = % -   . + @ # @ @ + $ $ % @ @ + @ @ & # @ @ @ @ + $ + @ @ @ + @ + @ % @ > ; % % @ % @ & @ + @ # $ $ & @ @ @ + $ $ + & @ $ @ * = % -   . + @ # @ @ + $ $ % @ @ + @ @ & # @ @ @ @ + $ + @ @ @ + @ + @ % @ > ; % % @ % @ & @ + @ # $ $ & @ @ @ + $ $ + & @ $ @ * = % -   . + @ # @ @ + $ $ % @ @ + @ @ & # @ @ @ @ + $ + @ @ @ + @ + @ % @ > ; % % @ % @ & @ + @ # $ $ & @ @ @ + $ $ + & @ $ @ * = % -   . + @ # @ @ + $ $ % @ @ + @ @ & # @ @ @ @ + $ + @ @ @ + @ + @ % @ > ; % % @ % @ & @ + @ # $ $ & @ @ @ + $ $ + & @ $ @ * = % -   . + @ # @ @ + $ $ % @ @ + @ @ ",
"  . + @ # @ @ + $ $ % @ @ + @ @ & # @ @ @ @ + $ + @ @ + @ @ + @ % @ % + % @ @ % @ & @ + @ # $ $ & @ @ @ + $ $ + & @ $ @ * = % -   . + @ # @ @ + $ $ % @ @ + @ @ & # @ @ @ @ + $ + @ @ + @ @ + @ % @ % + % @ @ % @ & @ + @ # $ $ & @ @ @ + $ $ + & @ $ @ * = % -   . + @ # @ @ + $ $ % @ @ + @ @ & # @ @ @ @ + $ + @ @ + @ @ + @ % @ % + % @ @ % @ & @ + @ # $ $ & @ @ @ + $ $ + & @ $ @ * = % -   . + @ # @ @ + $ $ % @ @ + @ @ & # @ @ @ @ + $ + @ @ + @ @ + @ % @ % + % @ @ % @ & @ + @ # $ $ & @ @ @ + $ $ + & @ $ @ * = % -   . + @ # @ @ + $ $ % @ @ + @ @ & # @ @ @ @ + $ + @ @ + @ @ + @ % @ % + % @ @ % @ & @ + @ # $ $ & @ @ @ + $ $ + & @ $ @ * = % -   . + @ # @ @ + $ $ % @ @ + @ @ & # @ @ @ @ + $ + @ @ + @ @ + @ % @ % + % @ @ % @ & @ + @ # $ $ & @ @ @ + $ $ + & @ $ @ * = % -   . + @ # @ @ + $ $ % @ @ + @ @ ",
"  . + @ # @ @ + $ $ % @ @ + @ @ & # @ @ @ @ + $ + @ @ + @ @ + @ % @ % + % @ @ % @ & @ + @ # $ $ & @ @ @ + $ $ + & @ $ @ * = % -   . + @ # @ @ + $ $ % @ @ + @ @ & # @ @ @ @ + $ + @ @ + @ @ + @ % @ % + % @ @ % @ & @ + @ # $ $ & @ @ @ + $ $ + & @ $ @ * = % -   . + @ # @ @ + $ $ % @ @ + @ @ & # @ @ @ @ + $ + @ @ + @ @ + @ % @ % + % @ @ % @ & @ + @ # $ $ & @ @ @ + $ $ + & @ $ @ * = % -   . + @ # @ @ + $ $ % @ @ + @ @ & # @ @ @ @ + $ + @ @ + @ @ + @ % @ % + % @ @ % @ & @ + @ # $ $ & @ @ @ + $ $ + & @ $ @ * = % -   . + @ # @ @ + $ $ % @ @ + @ @ & # @ @ @ @ + $ + @ @ + @ @ + @ % @ % + % @ @ % @ & @ + @ # $ $ & @ @ @ + $ $ + & @ $ @ * = % -   . + @ # @ @ + $ $ % @ @ + @ @ & # @ @ @ @ + $ + @ @ + @ @ + @ % @ % + % @ @ % @ & @ + @ # $ $ & @ @ @ + $ $ + & @ $ @ * = % -   . + @ # @ @ + $ $ % @ @ + @ @ ",
"  . + @ # @ @ + $ $ % @ @ + @ @ & # @ @ @ @ + $ $ + @ + @ @ + @ % @ % + > @ @ % @ & @ + @ # $ $ & @ @ @ + $ $ + & @ $ @ * = % -   . + @ # @ @ + $ $ % @ @ + @ @ & # @ @ @ @ + $ $ + @ + @ @ + @ % @ % + > @ @ % @ & @ + @ # $ $ & @ @ @ + $ $ + & @ $ @ * = % -   . + @ # @ @ + $ $ % @ @ + @ @ & # @ @ @ @ + $ $ + @ + @ @ + @ % @ % + > @ @ % @ & @ + @ # $ $ & @ @ @ + $ $ + & @ $ @ * = % -   . + @ # @ @ + $ $ % @ @ + @ @ & # @ @ @ @ + $ $ + @ + @ @ + @ % @ % + > @ @ % @ & @ + @ # $ $ & @ @ @ + $ $ + & @ $ @ * = % -   . + @ # @ @ + $ $ % @ @ + @ @ & # @ @ @ @ + $ $ + @ + @ @ + @ % @ % + > @ @ % @ & @ + @ # $ $ & @ @ @ + $ $ + & @ $ @ * = % -   . + @ # @ @ + $ $ % @ @ + @ @ & # @ @ @ @ + $ $ + @ + @ @ + @ % @ % + > @ @ % @ & @ + @ # $ $ & @ @ @ + $ $ + & @ $ @ * = % -   . + @ # @ @ + $ $ % @ @ + @ @ ",
"  . + @ # @ @ + $ $ % @ @ + @ @ & # @ @ @ @ + $ $ + @ + @ @ + @ % @ % + % @ @ % @ & @ + @ # $ $ & @ @ @ + $ $ + & @ $ @ * = % -   . + @ # @ @ + $ $ % @ @ + @ @ & # @ @ @ @ + $ $ + @ + @ @ + @ % @ % + % @ @ % @ & @ + @ # $ $ & @ @ @ + $ $ + & @ $ @ * = % -   . + @ # @ @ + $ $ % @ @ + @ @ & # @ @ @ @ + $ $ + @ + @ @ + @ % @ % + % @ @ % @ & @ + @ # $ $ & @ @ @ + $ $ + & @ $ @ * = % -   . + @ # @ @ + $ $ % @ @ + @ @ & # @ @ @ @ + $ $ + @ + @ @ + @ % @ % + % @ @ % @ & @ + @ # $ $ & @ @ @ + $ $ + & @ $ @ * = % -   . + @ # @ @ + $ $ % @ @ + @ @ & # @ @ @ @ + $ $ + @ + @ @ + @ % @ % + % @ @ % @ & @ + @ # $ $ & @ @ @ + $ $ + & @ $ @ * = % -   . + @ # @ @ + $ $ % @ @ + @ @ & # @ @ @ @ + $ $ + @ + @ @ + @ % @ % + % @ @ % @ & @ + @ # $ $ & @ @ @ + $ $ + & @ $ @ * = % -   . + @ # @ @ + $ $ % @ @ + @ @ ",
"  . + @ # @ @ + $ $ % @ @ + @ @ & # @ @ @ @ + $ $ + @ + @ @ + @ % @ % + > @ % @ @ & @ + @ # $ $ & @ @ @ + $ $ + & @ $ @ * = % -   . + @ # @ @ + $ $ % @ @ + @ @ & # @ @ @ @ + $ $ + @ + @ @ + @ % @ % + > @ % @ @ & @ + @ # $ $ & @ @ @ + $ $ + & @ $ @ * = % -   . + @ # @ @ + $ $ % @ @ + @ @ & # @ @ @ @ + $ $ + @ + @ @ + @ % @ % + > @ % @ @ & @ + @ # $ $ & @ @ @ + $ $ + & @ $ @ * = % -   . + @ # @ @ + $ $ % @ @ + @ @ & # @ @ @ @ + $ $ + @ + @ @ + @ % @ % + > @ % @ @ & @ + @ # $ $ & @ @ @ + $ $ + & @ $ @ * = % -   . + @ # @ @ + $ $ % @ @ + @ @ & # @ @ @ @ + $ $ + @ + @ @ + @ % @ % + > @ % @ @ & @ + @ # $ $ & @ @ @ + $ $ + & @ $ @ * = % -   . + @ # @ @ + $ $ % @ @ + @ @ & # @ @ @ @ + $ $ + @ + @ @ + @ % @ % + > @ % @ @ & @ + @ # $ $ & @ @ @ + $ $ + & @ $ @ * = % -   . + @ # @ @ + $ $ % @ @ + @ @ ",
"  . + @ # @ @ + $ $ % @ @ + @ @ & # @ @ @ @ + $ $ + @ + @ @ + @ % @ % % % @ % @ @ & @ + @ # $ $ & @ @ @ + $ $ + & @ $ @ * = % -   . + @ # @ @ + $ $ % @ @ + @ @ & # @ @ @ @ + $ $ + @ + @ @ + @ % @ % % % @ % @ @ & @ + @ # , ' ) ! ~ { ] ^ / ( _ : < [ } | 1 2 3 4 5 6 7 8 9 0 a b c d @ + @ @ & # @ @ @ @ + $ $ + @ + @ @ + @ % @ % % % @ % @ @ & @ + @ # $ $ & @ @ @ + $ $ + & @ $ @ * = % -   . + @ # @ @ + $ $ % @ @ + @ @ & # @ @ @ @ + $ $ + @ + @ @ + @ % @ % % % @ % @ @ & @ + @ # $ $ & @ @ @ + , e f g h i j k l m 2 n o p [ q r s t u v w x y z A B C # @ @ @ @ + $ $ + @ + @ @ + @ % @ % % % @ % @ @ & @ + @ # $ $ & @ @ @ + $ $ + & @ $ @ * = % -   . + @ # @ @ + $ $ % @ @ + @ @ & # @ @ @ @ + $ $ + @ + @ @ + @ % @ % % % @ % @ @ & @ + @ # $ $ & @ @ @ + $ $ + & @ $ @ * = % -   . + @ # @ @ + $ $ % @ @ + @ @ ",
"  . + @ # @ @ + $ $ % @ @ + @ @ & # @ @ @ @ + $ $ + @ + @ @ + @ @ % @ % @ @ % @ @ $ @ + @ # $ $ & @ @ @ + $ $ + & @ $ @ * = % -   . + @ # @ @ + $ $ % @ @ + @ @ & # @ @ @ @ + $ $ + @ + @ @ + @ @ % @ % @ @ % @ @ , D E F G H I I I I I I I I I I I I I I I I I I I I I I I I I I I I I J K L M N O P Q @ @ + $ $ + @ + @ @ + @ @ % @ % @ @ % @ @ $ @ + @ # $ $ & @ @ @ + $ $ + & @ $ @ * = % -   . + @ # @ @ + $ $ % @ @ + @ @ & # @ @ @ @ + $ $ + @ + @ @ + @ @ % @ % @ @ % @ @ $ @ + @ # $ $ R S T x U V I I I I I I I I I I I I I I I I I I I I I I I I I I I W X Y Z ` + $ $ + @ + @ @ + @ @ % @ % @ @ % @ @ $ @ + @ # $ $ & @ @ @ + $ $ + & @ $ @ * = % -   . + @ # @ @ + $ $ % @ @ + @ @ & # @ @ @ @ + $ $ + @ + @ @ + @ @ % @ % @ @ % @ @ $ @ + @ # $ $ & @ @ @ + $ $ + & @ $ @ * = % -   . + @ # @ @ + $ $ % @ @ + @ @ ",
"  . + @ # @ @ + $ $ % @ @ + @ @ & # @ @ @ @ + $ $ + @ + @ @ + @ @ % @ @ @ @ % @ @ $ @ + @ # $ $ & @ @ @ + $ $ + & @ $ @ * = % -   . + @ # @ @ + $ $ % @ @ + @ @ & # @ @ @ @ + $ $ + @ + @ @ + @ @ % @ @ @ @  ...+.@.I I I I I I I I I I I I I I I I I I I I I I I I I I I I I I I I I I I I I I I I I #.$.j %.&.*.+ @ + @ @ + @ @ % @ @ @ @ % @ @ $ @ + @ # $ $ & @ @ @ + $ $ + & @ $ @ * = % -   . + @ # @ @ + $ $ % @ @ + @ @ & # @ @ @ @ + $ $ + @ + @ @ + @ @ % @ @ @ @ % @ @ $ @ + =.-.;.^ >.I I I I I I I I I I I I I I I I I I I I I I I I I I I I I I I I I I I I I ,.'.).!.@ + @ @ + @ @ % @ @ @ @ % @ @ $ @ + @ # $ $ & @ @ @ + $ $ + & @ $ @ * = % -   . + @ # @ @ + $ $ % @ @ + @ @ & # @ @ @ @ + $ $ + @ + @ @ + @ @ % @ @ @ @ % @ @ $ @ + @ # $ $ & @ @ @ + $ $ + & @ $ @ * = % -   . + @ # @ @ + $ $ % @ @ + @ @ ",
"  . + @ # @ @ + $ $ % @ @ + @ @ & # @ @ @ + $ $ $ + @ + @ @ + @ @ @ % @ @ @ % @ @ $ @ + @ # $ $ & @ @ @ + $ $ + & @ $ @ * = % -   . + @ # @ @ + $ $ % @ @ + @ @ & # @ @ @ + $ $ $ + @ + @ @ + @ @ @ % ~.{.].^.I I I I I I I I I I I I I I I I I I I I I I I I I I I I I I I I I I I I I I I I I I I I I I I I I I /.(._.:.<.+ @ @ @ % @ @ @ % @ @ $ @ + @ # $ $ & @ @ @ + $ $ + & @ $ @ * = % -   . + @ # @ @ + $ $ % @ @ + @ @ & # @ @ @ + $ $ $ + @ + @ @ + @ @ @ % @ @ @ % @ @ [.}.|.1.I I I I I I I I I I I I I I I I I I I I I I I I I I I I I I I I I I I I I I I I I I I I I 2.3.D @ + @ @ @ % @ @ @ % @ @ $ @ + @ # $ $ & @ @ @ + $ $ + & @ $ @ * = % -   . + @ # @ @ + $ $ % @ @ + @ @ & # @ @ @ + $ $ $ + @ + @ @ + @ @ @ % @ @ @ % @ @ $ @ + @ # $ $ & @ @ @ + $ $ + & @ $ @ * = % -   . + @ # @ @ + $ $ % @ @ + @ @ ",
"  . + @ # @ @ + $ $ % @ @ + @ @ & # @ @ @ + $ $ $ + @ + @ @ + @ @ @ % @ @ @ % @ # $ @ + @ # $ $ & @ @ @ + $ $ + & @ $ @ * = % -   . + @ # @ @ + $ $ % @ @ + @ @ & # @ @ @ + $ $ $ + @ + @ @ + @ @ 4.5.6.I I I I I I I I I I I I I I I I I I I I I I I I I I I I I I I I I I I I I I I I I I I I I I I I I I I I I I I I I I 7.8.9.0.a.@ @ @ % @ # $ @ + @ # $ $ & @ @ @ + $ $ + & @ $ @ * = % -   . + @ # @ @ + $ $ % @ @ + @ @ & # @ @ @ + $ $ $ + @ + @ @ + @ @ @ % @ @ @ b.c.d.V I I I I I I I I I I I I I I I I I I I I I I I I I I I I I I I I I I I I I I I I I I I I I I I I I I I e.f.g.@ @ % @ @ @ % @ # $ @ + @ # $ $ & @ @ @ + $ $ + & @ $ @ * = % -   . + @ # @ @ + $ $ % @ @ + @ @ & # @ @ @ + $ $ $ + @ + @ @ + @ @ @ % @ @ @ % @ # $ @ + @ # $ $ & @ @ @ + $ $ + & @ $ @ * = % -   . + @ # @ @ + $ $ % @ @ + @ @ ",
"  . + @ # @ + $ $ $ % @ @ + @ @ & # @ @ @ + $ $ + @ @ + @ @ + @ @ @ @ % % % @ @ $ $ @ + @ # $ $ & @ @ + $ $ $ + & @ $ @ * = % -   . + @ # @ + $ $ $ % @ @ + @ @ & # @ @ @ + $ $ + @ @ + @ @ + h.i.I I I I I I I I I I I I I I I I I I I I I I I I I I I I I I I I I I I I I I I I I I I I I I I I I I I I I I I I I I I I I I I I I j.k.l.m.n.@ $ $ @ + @ # $ $ & @ @ + $ $ $ + & @ $ @ * = % -   . + @ # @ + $ $ $ % @ @ + @ @ & # @ @ @ + $ $ + @ @ + @ @ + @ @ @ @ % o.l.p.I I I I I I I I I I I I I I I I I I I I I I I I I I I I I I I I I I I I I I I I I I I I I I I I I I I I I I I I q.r.s.@ % % % @ @ $ $ @ + @ # $ $ & @ @ + $ $ $ + & @ $ @ * = % -   . + @ # @ + $ $ $ % @ @ + @ @ & # @ @ @ + $ $ + @ @ + @ @ + @ @ @ @ % % % @ @ $ $ @ + @ # $ $ & @ @ + $ $ $ + & @ $ @ * = % -   . + @ # @ + $ $ $ % @ @ + @ @ ",
"  . + @ # @ + $ $ $ % @ @ + @ @ & # @ @ @ + $ $ + @ @ + @ @ + @ @ # @ @ @ @ @ # $ $ @ + @ # $ $ & @ @ + $ $ $ + & @ $ @ * = % -   . + @ # @ + $ $ $ % @ @ + @ @ & # @ @ @ + $ $ + @ @ + @ t.u.I I I I I I I I I I I I I I I I I I I I I I I I I I I I I I I I I I I I I I I I I I I I I I I I I I I I I I I I I I I I I I I I I I I I I I I v.# $ $ @ + @ # $ $ & @ @ + $ $ $ + & @ $ @ * = % -   . + @ # @ + $ $ $ % @ @ + @ @ & # @ @ @ + $ $ + @ @ + @ @ + @ @ # w.x.1.I I I I I I I I I I I I I I I I I I I I I I I I I I I I I I I I I I I I I I I I I I I I I I I I I I I I I I I I I I I I I y.z.@ @ @ # $ $ @ + @ # $ $ & @ @ + $ $ $ + & @ $ @ * = % -   . + @ # @ + $ $ $ % @ @ + @ @ & # @ @ @ + $ $ + @ @ + @ @ + @ @ # @ @ @ @ @ # $ $ @ + @ # $ $ & @ @ + $ $ $ + & @ $ @ * = % -   . + @ # @ + $ $ $ % @ @ + @ @ ",
"  . + @ # @ + $ $ $ % @ @ + @ @ & # @ @ @ + $ $ + @ @ + @ @ + @ @ # # @ @ @ @ # $ $ @ + @ # $ $ & @ @ + $ $ $ + & @ $ @ * = % -   . + @ # @ + $ $ $ % @ @ + @ @ & # @ @ @ + $ $ + @ @ A.B.C.I I I I I I I I I I I I I I I I I I I I I I I I I I I I I I I I I I I I I I I I I I I I I I I I I I I I I I I I I I I I I I I I I I I I I I I I 2.# $ $ @ + @ # $ $ & @ @ + $ $ $ + & @ $ @ * = % -   . + @ # @ + $ $ $ % @ @ + @ @ & # @ @ @ + $ $ + @ @ + @ @ + @ D.E.q I I I I I I I I I I I I I I I I I I I I I I I I I I I I I I I I I I I I I I I I I I I I I I I I I I I I I I I I I I I I I I I I I F.G.@ # $ $ @ + @ # $ $ & @ @ + $ $ $ + & @ $ @ * = % -   . + @ # @ + $ $ $ % @ @ + @ @ & # @ @ @ + $ $ + @ @ + @ @ + @ @ # # @ @ @ @ # $ $ @ + @ # $ $ & @ @ + $ $ $ + & @ $ @ * = % -   . + @ # @ + $ $ $ % @ @ + @ @ ",
"  . + @ # @ + $ $ $ % @ @ + @ @ & # @ @ @ + $ $ + @ @ + @ @ + @ @ @ # @ @ @ @ # $ $ @ + @ # $ $ & @ @ + $ $ $ + & @ $ @ * = % -   . + @ # @ + $ $ $ % @ @ + @ @ & # @ @ @ + $ $ + @ H.I.I I I I I I I I I I I I I I I I I I I I I I I I I I I I I I I I I I I I I I I I I I I I I I I I I I I I I I I I I I I I I I I I I I I I I I I I I I 2.# $ $ @ + @ # $ $ & @ @ + $ $ $ + & @ $ @ * = % -   . + @ # @ + $ $ $ % @ @ + @ @ & # @ @ @ + $ $ + @ @ + @ @ A.J.r I I I I I I I I I I I I I I I I I I I I I I I I I I I I I I I I I I I I I I I I I I I I I I I I I I I I I I I I I I I I I I I I I I I I I K.L.$ $ @ + @ # $ $ & @ @ + $ $ $ + & @ $ @ * = % -   . + @ # @ + $ $ $ % @ @ + @ @ & # @ @ @ + $ $ + @ @ + @ @ + @ @ @ # @ @ @ @ # $ $ @ + @ # $ $ & @ @ + $ $ $ + & @ $ @ * = % -   . + @ # @ + $ $ $ % @ @ + @ @ ",
"  . + @ # @ + $ $ $ % @ @ + @ @ & # @ @ @ + $ $ + @ @ @ + @ @ + @ @ @ $ @ @ # $ $ @ @ + @ # $ $ @ @ @ + $ $ $ + & @ $ @ * = % -   . + @ # @ + $ $ $ % @ @ + @ @ & # @ @ @ + $ $ + Z M.I I I I I I I I I I I I I I I I I I I I I I I I I I I I I I I I I I I I I I I I I I I I I I I I I I I I I I I I I I I I I I I I I I I I I I I I I I I N.$ $ @ @ + @ # $ $ @ @ @ + $ $ $ + & @ $ @ * = % -   . + @ # @ + $ $ $ % @ @ + @ @ & # @ @ @ + $ $ + @ @ @ + s.O.I I I I I I I I I I I I I I I I I I I I I I I I I I I I I I I I I I I I I I I I I I I I I I I I I I I I I I I I I I I I I I I I I I I I I I I I P.Q.R.@ + @ # $ $ @ @ @ + $ $ $ + & @ $ @ * = % -   . + @ # @ + $ $ $ % @ @ + @ @ & # @ @ @ + $ $ + @ @ @ + @ @ + @ @ @ $ @ @ # $ $ @ @ + @ # $ $ @ @ @ + $ $ $ + & @ $ @ * = % -   . + @ # @ + $ $ $ % @ @ + @ @ ",
"  . + @ # @ + $ $ $ % @ @ + @ @ & # @ @ @ + $ $ + @ @ @ + @ @ @ + @ @ $ # @ # $ $ @ + @ @ # $ $ @ @ @ + $ $ $ + & @ $ @ * = % -   . + @ # @ + $ $ $ % @ @ + @ @ & # @ @ @ + $ $ S.I I I I I I I I I I I I I I I I I I I I I I I I I I I I I I I I I I I I I I I I I I I I I I I I I I I I I I I I I I I I I I I I I I I I I I I I I I I I I N.$ $ @ + @ @ # $ $ @ @ @ + $ $ $ + & @ $ @ * = % -   . + @ # @ + $ $ $ % @ @ + @ @ & # @ @ @ + $ $ + @ @ R.T.[ I I I I I I I I I I I I I I I I I I I I I I I I I I I I I I I I I I I I I I I I I I I I I I I I I I I I I I I I I I I I I I I I I I I I I I I I I I I U.V.@ @ # $ $ @ @ @ + $ $ $ + & @ $ @ * = % -   . + @ # @ + $ $ $ % @ @ + @ @ & # @ @ @ + $ $ + @ @ @ + @ @ @ + @ @ $ # @ # $ $ @ + @ @ # $ $ @ @ @ + $ $ $ + & @ $ @ * = % -   . + @ # @ + $ $ $ % @ @ + @ @ ",
"  . + @ # @ + $ $ $ % @ @ + @ @ & # @ @ @ + $ $ + @ @ @ + @ @ @ + @ @ $ $ @ $ $ @ @ + @ @ # $ $ @ @ @ + $ $ $ + & @ $ @ * = % -   . + @ # @ + $ $ $ % @ @ + @ @ & # @ @ @ + $ Q.I I I I I I I I I I I I I I I I I I I I I I I I I I I I I I I I I I I I I I I I I I I I I I I I I I I I I I I I I I I I I I I I I I I I I I I I I I I I I I W.$ @ @ + @ @ # $ $ @ @ @ + $ $ $ + & @ $ @ * = % -   . + @ # @ + $ $ $ % @ @ + @ @ & # @ @ @ + $ $ + @ X.U.I I I I I I I I I I I I I I I I I I I I I I I I I I I I I I I I I I I I I I I I I I I I I I I I I I I I I I I I I I I I I I I I I I I I I I I I I I I I I I Y.Z.Q # $ $ @ @ @ + $ $ $ + & @ $ @ * = % -   . + @ # @ + $ $ $ % @ @ + @ @ & # @ @ @ + $ $ + @ @ @ + @ @ @ + @ @ $ $ @ $ $ @ @ + @ @ # $ $ @ @ @ + $ $ $ + & @ $ @ * = % -   . + @ # @ + $ $ $ % @ @ + @ @ ",
"  . + @ # @ + $ $ $ % @ @ + @ @ & # @ @ @ + $ $ + @ @ @ + @ @ @ + @ @ $ $ $ $ $ @ @ + @ @ # $ $ @ @ @ + $ $ $ + & @ $ @ * = % -   . + @ # @ + $ $ $ % @ @ + @ @ & # @ @ @ + `.I I I I I I I I I I I I I I I I I I I I I I I I I I I I I I I I I I I I I I I I I I I I I I I I I I I I I I I I I I I I I I I I I I I I I I I I I I I I I I I W.$ @ @ + @ @ # $ $ @ @ @ + $ $ $ + & @ $ @ * = % -   . + @ # @ + $ $ $ % @ @ + @ @ & # @ @ @ + $ $ +  +C.I I I I I I I I I I I I I I I I I I I I I I I I I I I I I I I I I I I I I I I I I I I I I I I I I I I I I I I I I I I I I I I I I I I I I I I I I I I I I I I I I .+++$ $ @ @ @ + $ $ $ + & @ $ @ * = % -   . + @ # @ + $ $ $ % @ @ + @ @ & # @ @ @ + $ $ + @ @ @ + @ @ @ + @ @ $ $ $ $ $ @ @ + @ @ # $ $ @ @ @ + $ $ $ + & @ $ @ * = % -   . + @ # @ + $ $ $ % @ @ + @ @ ",
"  . + @ # @ + $ $ $ % @ @ + @ @ & # @ @ @ + $ $ + @ @ @ + @ @ @ @ + @ @ $ $ $ $ @ @ + @ @ # $ $ @ @ @ + $ $ $ + & @ $ @ * = % -   . + @ # @ + $ $ $ % @ @ + @ @ & # @ @ @ @+I I I I I I I I I I I I I I I I I I I I I I I I I I I I I I I I I I I I I I I I I I I I I I I I I I I I I I I I I I I I I I I I I I I I I I I I I I I I I I I I W.$ @ @ + @ @ # $ $ @ @ @ + $ $ $ + & @ $ @ * = % -   . + @ # @ + $ $ $ % @ @ + @ @ & # @ @ @ + $ #+$+I I I I I I I I I I I I I I I I I I I I I I I I I I I I I I I I I I I I I I I I I I I I I I I I I I I I I I I I I I I I I I I I I I I I I I I I I I I I I I I I I I I I %+&+$ @ @ @ + $ $ $ + & @ $ @ * = % -   . + @ # @ + $ $ $ % @ @ + @ @ & # @ @ @ + $ $ + @ @ @ + @ @ @ @ + @ @ $ $ $ $ @ @ + @ @ # $ $ @ @ @ + $ $ $ + & @ $ @ * = % -   . + @ # @ + $ $ $ % @ @ + @ @ ",
"  . + @ # @ + $ $ $ % @ @ + @ @ & # @ @ @ + $ $ + @ @ @ + @ @ @ @ + @ @ $ $ @ $ @ @ + @ @ # $ $ @ @ @ + $ $ $ + & @ $ @ * = % -   . + @ # @ + $ $ $ % @ @ + @ @ & # @ @ *+I I I I I I I I I I I I I I I I I I I I I I I I I I I I I I I I I I I I I I I I I I I I I I I I I I I I I I I I I I I I I I I I I I I I I I I I I I I I I I I I I 2.$ @ @ + @ @ # $ $ @ @ @ + $ $ $ + & @ $ @ * = % -   . + @ # @ + $ $ $ % @ @ + @ @ & # @ @ @ + =+-+I I I I I I I I I I I I I I I I I I I I I I I I I I I I I I I I I I I I I I I I I I I I I I I I I I I I I I I I I I I I I I I I I I I I I I I I I I I I I I I I I I I I I I H ;+@ @ @ + $ $ $ + & @ $ @ * = % -   . + @ # @ + $ $ $ % @ @ + @ @ & # @ @ @ + $ $ + @ @ @ + @ @ @ @ + @ @ $ $ @ $ @ @ + @ @ # $ $ @ @ @ + $ $ $ + & @ $ @ * = % -   . + @ # @ + $ $ $ % @ @ + @ @ ",
"  . + @ # @ + $ $ $ % @ @ + @ @ & # @ @ @ + $ $ + @ @ @ + @ @ @ @ + @ @ $ $ $ $ @ @ + @ @ # $ $ @ @ @ + $ $ $ + & @ $ @ * = % -   . + @ # @ + $ $ $ % @ @ + @ @ & # @ B >+I I I I I I I I I I I I I I I I I I I I I I I I I I I I I I I I I I I I I I I I I I I I I I I I I I I I I I I I I I I I I I I I I I I I I I I I I I I I I I I I I W.$ @ @ + @ @ # $ $ @ @ @ + $ $ $ + & @ $ @ * = % -   . + @ # @ + $ $ $ % @ @ + @ @ & # @ @ @ ,+u I I I I I I I I I I I I I I I I I I I I I I I I I I I I I I I I I I I I I I I I I I I I I I I I I I I I I I I I I I I I I I I I I I I I I I I I I I I I I I I I I I I I I I I I '+)+@ @ + $ $ $ + & @ $ @ * = % -   . + @ # @ + $ $ $ % @ @ + @ @ & # @ @ @ + $ $ + @ @ @ + @ @ @ @ + @ @ $ $ $ $ @ @ + @ @ # $ $ @ @ @ + $ $ $ + & @ $ @ * = % -   . + @ # @ + $ $ $ % @ @ + @ @ ",
"  . + @ # @ + $ $ $ % @ @ + @ @ & # @ @ @ + $ $ + @ @ @ + @ @ @ @ + @ @ $ $ $ @ @ @ + @ @ # $ $ @ @ @ + $ $ $ + & @ $ @ * = % -   . + @ # @ + $ $ $ % @ @ + @ @ & # Q y.I I I I I I I I I I I I I I I I I I I I I I I I I I I I I I I I I I I I I I I I I I I I I I I I I I I I I I I I I I I I I I I I I I I I I I I I I I I I I I I I I I W.@ @ @ + @ @ # $ $ @ @ @ + $ $ $ + & @ $ @ * = % -   . + @ # @ + $ $ $ % @ @ + @ @ & # @ @ ` !+I I I I I I I I I I I I I I I I I I I I I I I I I I I I I I I I I I I I I I I I I I I I I I I I I I I I I I I I I I I I I I I I I I I I I I I I I I I I I I I I I I I I I I I I I I I J.@ + $ $ $ + & @ $ @ * = % -   . + @ # @ + $ $ $ % @ @ + @ @ & # @ @ @ + $ $ + @ @ @ + @ @ @ @ + @ @ $ $ $ @ @ @ + @ @ # $ $ @ @ @ + $ $ $ + & @ $ @ * = % -   . + @ # @ + $ $ $ % @ @ + @ @ ",
"  . + @ # @ + $ $ $ % @ @ + @ @ & # @ @ @ + $ $ + @ @ @ + @ & @ @ + @ @ $ $ $ @ @ @ + @ @ # $ $ @ @ @ + $ $ $ + & @ $ @ * = % -   . + @ # @ + $ $ $ % @ @ + @ @ & # ~+I I I I I I I I I I I I I I I I I I I I I I I I I I I I I I I I I I I I I I I I I I I I I I I I I I I I I I I I I I I I I I I I I I I I I I I I I I I I I I I I I I I W.@ @ @ + @ @ # $ $ @ @ @ + $ $ $ + & @ $ @ * = % -   . + @ # @ + $ $ $ % @ @ + @ @ & # @ w.{+I I I I I I I I I I I I I I I I I I I I I I I I I I I I I I I I I I I I I I I I I I I I I I I I I I I I I I I I I I I I I I I I I I I I I I I I I I I I I I I I I I I I I I I I I I I I I J.+ $ $ $ + & @ $ @ * = % -   . + @ # @ + $ $ $ % @ @ + @ @ & # @ @ @ + $ $ + @ @ @ + @ & @ @ + @ @ $ $ $ @ @ @ + @ @ # $ $ @ @ @ + $ $ $ + & @ $ @ * = % -   . + @ # @ + $ $ $ % @ @ + @ @ ",
"  . + @ # @ + $ $ $ % @ @ + @ @ & # @ @ @ + $ $ + @ @ @ + @ & @ @ + @ @ @ $ $ @ @ @ + @ @ # $ $ @ @ @ + $ $ $ + & @ $ @ * = % -   . + @ # @ + $ $ $ % @ @ + @ @ & ]+>+I I I I I I I I I I I I I I I I I I I I I I I I I I I I I I I I I I I I I I I I I I I I I I I I I I I I I I I I I I I I I I I I I I I I I I I I I I I I I I I I I I I W.@ @ @ + @ @ # $ $ @ @ @ + $ $ $ + & @ $ @ * = % -   . + @ # @ + $ $ $ % @ @ + @ @ & # D.^+I I I I I I I I I I I I I I I I I I I I I I I I I I I I I I I I I I I I I I I I I I I I I I I I I I I I I I I I I I I I I I I I I I I I I I I I I I I I I I I I I I I I I I I I I I I I I I I /+$ $ $ + & @ $ @ * = % -   . + @ # @ + $ $ $ % @ @ + @ @ & # @ @ @ + $ $ + @ @ @ + @ & @ @ + @ @ @ $ $ @ @ @ + @ @ # $ $ @ @ @ + $ $ $ + & @ $ @ * = % -   . + @ # @ + $ $ $ % @ @ + @ @ ",
"  . + @ # @ + $ $ $ % @ @ + @ @ & # @ @ @ + $ $ + @ @ @ + @ & @ @ + @ @ @ $ $ @ @ @ + @ @ # $ $ @ @ @ + $ $ $ + & @ $ @ * = % -   . + @ # @ + $ $ $ % @ @ + @ @ & (+I I I I I I I I I I I I I I I I I I I I I I I I I I I I I I I I I I I I I I I I I I I I I I I I I I I I I I I I I I I I I I I I I I I I I I I I I I I I I I I I I I I I W.@ @ @ + @ @ # $ $ @ @ @ + $ $ $ + & @ $ @ * = % -   . + @ # @ + $ $ $ % @ @ + @ @ & _+:+I I I I I I I I I I I I I I I I I I I I I I I I I I I I I I I I I I I I I I I I I I I I I I I I I I I I I I I I I I I I I I I I I I I I I I I I I I I I I I I I I I I I I I I I I I I I I I I I Y.<+$ $ + & @ $ @ * = % -   . + @ # @ + $ $ $ % @ @ + @ @ & # @ @ @ + $ $ + @ @ @ + @ & @ @ + @ @ @ $ $ @ @ @ + @ @ # $ $ @ @ @ + $ $ $ + & @ $ @ * = % -   . + @ # @ + $ $ $ % @ @ + @ @ ",
"  . + @ # @ @ + $ $ % @ @ + @ @ & # @ @ @ + $ $ + @ @ @ + @ & @ @ + @ @ @ $ $ @ @ @ + @ @ # $ $ @ @ @ + $ $ $ + & @ $ @ * = % -   . + @ # @ @ + $ $ % @ @ + @ @ [+}+I I I I I I I I I I I I I I I I I I I I I I I I I I I I I I I I I I I I I I I I I I I I I I I I I I I I I I I I I I I I I I I I I I I I I I I I I I I I I I I I I I I I W.@ @ @ + @ @ # $ $ @ @ @ + $ $ $ + & @ $ @ * = % -   . + @ # @ @ + $ $ % @ @ + @ @ |+1+I I I I I I I I I I I I I I I I I I I I I I I I I I I I I I I I I I I I I I I I I I I I I I I I I I I I I I I I I I I I I I I I I I I I I I I I I I I I I I I I I I I I I I I I I I I I I I I I I I 2+3+$ + & @ $ @ * = % -   . + @ # @ @ + $ $ % @ @ + @ @ & # @ @ @ + $ $ + @ @ @ + @ & @ @ + @ @ @ $ $ @ @ @ + @ @ # $ $ @ @ @ + $ $ $ + & @ $ @ * = % -   . + @ # @ @ + $ $ % @ @ + @ @ ",
"  . + @ # @ @ + $ $ % @ @ + @ @ & # @ @ @ + $ $ + @ @ @ + @ & @ @ + @ @ @ $ $ @ @ @ + @ @ # $ $ @ @ @ + $ $ $ + & @ $ @ * = % -   . + @ # @ @ + $ $ % @ @ + @ @ 4+I I I I I I I I I I I I I I I I I I I I I I I I I I I I I I I I I I I I I I I I I I I I I I I I I I I I I I I I I I I I I I I I I I I I I I I I I I I I I I I I I I I I I W.@ @ @ + @ @ # $ $ @ @ @ + $ $ $ + & @ $ @ * = % -   . + @ # @ @ + $ $ % @ @ + @ @ 5+I I I I I I I I I I I I I I I I I I I I I I I I I I I I I I I I I I I I I I I I I I I I I I I I I I I I I I I I I I I I I I I I I I I I I I I I I I I I I I I I I I I I I I I I I I I I I I I I I I I I 6+7++ & @ $ @ * = % -   . + @ # @ @ + $ $ % @ @ + @ @ & # @ @ @ + $ $ + @ @ @ + @ & @ @ + @ @ @ $ $ @ @ @ + @ @ # $ $ @ @ @ + $ $ $ + & @ $ @ * = % -   . + @ # @ @ + $ $ % @ @ + @ @ ",
"  . + @ # @ @ + $ $ % @ @ @ + @ & # @ @ @ + $ $ + @ @ @ + @ & @ @ + @ @ @ $ $ @ @ @ + @ @ # $ $ @ @ @ + $ $ $ + & @ $ @ * = % -   . + @ # @ @ + $ $ % @ @ @ + 8+9+I I I I I I I I I I I I I I I I I I I I I I I I I I I I I I I I I I I I I I I I I I I I I I I I I I I I I I I I I I I I I I I I I I I I I I I I I I I I I I I I I I I I I W.@ @ @ + @ @ # $ $ @ @ @ + $ $ $ + & @ $ @ * = % -   . + @ # @ @ + $ $ % @ @ @ + G.I I I I I I I I I I I I I I I I I I I I I I I I I I I I I I I I I I I I I I I I I I I I I I I I I I I I I I I I I I I I I I I I I I I I I I I I I I I I I I I I I I I I I I I I I I I I I I I I I I I I I I 0+a+& @ $ @ * = % -   . + @ # @ @ + $ $ % @ @ @ + @ & # @ @ @ + $ $ + @ @ @ + @ & @ @ + @ @ @ $ $ @ @ @ + @ @ # $ $ @ @ @ + $ $ $ + & @ $ @ * = % -   . + @ # @ @ + $ $ % @ @ @ + @ ",
"  . + @ # @ @ + $ $ % @ @ @ + @ & # @ @ @ @ + $ $ + @ @ + @ & @ @ + @ @ @ $ $ @ @ @ + @ @ # $ $ @ @ @ + $ $ $ + & @ $ @ * = % -   . + @ # @ @ + $ $ % @ @ @ + b+I I I I I I I I I I I I I I I I I I I I I I I I I I I I I I I I I I I I I c+d+e+f+g+h+i+j+k+l+m+  n+o+D.p+D q+r+s+t+u+v+[ I I I I I I I I I I I I I I I I I I I I I I I I I W.@ @ @ + @ @ # $ $ @ @ @ + $ $ $ + & @ $ @ * = % -   . + @ # @ @ + $ $ % @ @ @ w+x+I I I I I I I I I I I I I I I I I I I I I I I I I I I I I I I I I I I I I I I I I I I p.y+z+A+B+C+D+E+Q F+g.G+H+I+t+J+6.I I I I I I I I I I I I I I I I I I I I I I I I I I I I I I I I I I I I I I I I I I I K+& @ $ @ * = % -   . + @ # @ @ + $ $ % @ @ @ + @ & # @ @ @ @ + $ $ + @ @ + @ & @ @ + @ @ @ $ $ @ @ @ + @ @ # $ $ @ @ @ + $ $ $ + & @ $ @ * = % -   . + @ # @ @ + $ $ % @ @ @ + @ ",
"  . + @ # @ @ + $ $ % @ @ @ + @ & # @ @ @ @ + $ $ + @ @ + @ & @ @ + @ @ @ $ $ @ @ @ + @ @ # $ $ @ @ @ + $ $ $ + & @ $ @ * = % -   . + @ # @ @ + $ $ % @ @ @ + L+I I I I I I I I I I I I I I I I I I I I I I I I I I I I I I I I I I ^+M+N+O+$ + & @ $ @ * = % -   . + @ # @ @ + $ $ % @ P+Q+R+S+T+U+I I I I I I I I I I I I I I I I I I I I W.@ @ @ + @ @ # $ $ @ @ @ + $ $ $ + & @ $ @ * = % -   . + @ # @ @ + $ $ % @ @ @ V+I I I I I I I I I I I I I I I I I I I I I I I I I I I I I I I I I I I I I I I I I W+X+Y+@ * = % -   . + @ # @ @ + $ $ % Z+G.`+ @I I I I I I I I I I I I I I I I I I I I I I I I I I I I I I I I I I I I I I I I p .@@ $ @ * = % -   . + @ # @ @ + $ $ % @ @ @ + @ & # @ @ @ @ + $ $ + @ @ + @ & @ @ + @ @ @ $ $ @ @ @ + @ @ # $ $ @ @ @ + $ $ $ + & @ $ @ * = % -   . + @ # @ @ + $ $ % @ @ @ + @ ",
"  . + @ # @ @ + $ $ % @ @ @ + @ & # @ @ @ @ + $ $ + @ @ + @ & @ @ + @ @ @ $ $ @ @ @ + @ @ # $ $ @ @ @ + $ $ $ + & @ $ @ * = % -   . + @ # @ @ + $ $ % @ @ @ +@@@I I I I I I I I I I I I I I I I I I I I I I I I I I I I I I I I r.#@@ + $ $ $ + & @ $ @ * = % -   . + @ # @ @ + $ $ % @ @ @ + @ & $@D %@&@: I I I I I I I I I I I I I I I I W.@ @ @ + @ @ # $ $ @ @ @ + $ $ $ + & @ $ @ * = % -   . + @ # @ @ + $ $ % @ @ )+I I I I I I I I I I I I I I I I I I I I I I I I I I I I I I I I I I I I I I I V *@=@& @ $ @ * = % -   . + @ # @ @ + $ $ % @ @ @ -@;@>@I I I I I I I I I I I I I I I I I I I I I I I I I I I I I I I I I I I I I I I ,@'@$ @ * = % -   . + @ # @ @ + $ $ % @ @ @ + @ & # @ @ @ @ + $ $ + @ @ + @ & @ @ + @ @ @ $ $ @ @ @ + @ @ # $ $ @ @ @ + $ $ $ + & @ $ @ * = % -   . + @ # @ @ + $ $ % @ @ @ + @ ",
"  . + @ # @ @ + $ $ % @ @ @ + @ & # @ @ @ @ + $ $ + @ @ + @ & @ @ + @ @ @ $ $ @ @ @ + @ @ # $ $ @ @ @ + $ $ $ + & @ $ @ * = % -   . + @ # @ @ + $ $ % @ @ @ )@I I I I I I I I I I I I I I I I I I I I I I I I I I I I I I I !@~@@ @ @ + $ $ $ + & @ $ @ * = % -   . + @ # @ @ + $ $ % @ @ @ + @ & # @ @ @ {@]@^@/@(@I I I I I I I I I I I I W.@ @ @ + @ @ # $ $ @ @ @ + $ $ $ + & @ $ @ * = % -   . + @ # @ @ + $ $ % @ _@r I I I I I I I I I I I I I I I I I I I I I I I I I I I I I I I I I I I I I I :@<@$ + & @ $ @ * = % -   . + @ # @ @ + $ $ % @ @ @ + @ |+[@}@I I I I I I I I I I I I I I I I I I I I I I I I I I I I I I I I I I I I I I |@$ @ * = % -   . + @ # @ @ + $ $ % @ @ @ + @ & # @ @ @ @ + $ $ + @ @ + @ & @ @ + @ @ @ $ $ @ @ @ + @ @ # $ $ @ @ @ + $ $ $ + & @ $ @ * = % -   . + @ # @ @ + $ $ % @ @ @ + @ ",
"  . + @ # @ @ + $ $ % @ @ @ + @ & # @ @ @ @ + $ $ + @ @ + @ & @ @ + @ @ @ $ $ @ @ @ + @ @ # $ $ @ @ @ + $ $ $ + & @ $ @ * = % -   . + @ # @ @ + $ $ % @ @ @ 1@I I I I I I I I I I I I I I I I I I I I I I I I I I I I I I 2@O+$ @ @ @ + $ $ $ + & @ $ @ * = % -   . + @ # @ @ + $ $ % @ @ @ + @ & # @ @ @ @ + $ $ 3@4@5@6@I I I I I I I I I W.@ @ @ + @ @ # $ $ @ @ @ + $ $ $ + & @ $ @ * = % -   . + @ # @ @ + $ $ % @ 7@I I I I I I I I I I I I I I I I I I I I I I I I I I I I I I I I I I I I I v+8@$ $ $ + & @ $ @ * = % -   . + @ # @ @ + $ $ % @ @ @ + @ & # R.9@I I I I I I I I I I I I I I I I I I I I I I I I I I I I I I I I I I I I I >+' @ * = % -   . + @ # @ @ + $ $ % @ @ @ + @ & # @ @ @ @ + $ $ + @ @ + @ & @ @ + @ @ @ $ $ @ @ @ + @ @ # $ $ @ @ @ + $ $ $ + & @ $ @ * = % -   . + @ # @ @ + $ $ % @ @ @ + @ ",
"  . + @ # @ @ + $ $ % @ @ @ + @ & # @ @ @ @ + $ $ + @ @ + @ & @ @ @ + @ @ $ $ @ @ @ + @ @ # $ $ @ @ @ + $ $ $ + & @ $ @ * = % -   . + @ # @ @ + $ $ % @ @ @ 0@I I I I I I I I I I I I I I I I I I I I I I I I I I I I I &@a@$ $ @ @ @ + $ $ $ + & @ $ @ * = % -   . + @ # @ @ + $ $ % @ @ @ + @ & # @ @ @ @ + $ $ + @ @ -@b@c@q.I I I I I I W.@ @ @ + @ @ # $ $ @ @ @ + $ $ $ + & @ $ @ * = % -   . + @ # @ @ + $ $ % S I I I I I I I I I I I I I I I I I I I I I I I I I I I I I I I I I I I I I d@e@+ $ $ $ + & @ $ @ * = % -   . + @ # @ @ + $ $ % @ @ @ + @ & # @ @ A x+I I I I I I I I I I I I I I I I I I I I I I I I I I I I I I I I I I I I f@@ * = % -   . + @ # @ @ + $ $ % @ @ @ + @ & # @ @ @ @ + $ $ + @ @ + @ & @ @ @ + @ @ $ $ @ @ @ + @ @ # $ $ @ @ @ + $ $ $ + & @ $ @ * = % -   . + @ # @ @ + $ $ % @ @ @ + @ ",
"  . + @ # @ @ + $ $ % @ @ @ + @ & # @ @ @ @ + $ $ + @ @ + @ & @ @ @ + @ @ $ $ @ @ @ + @ @ # $ $ @ @ @ + $ $ $ + & @ $ @ * = % -   . + @ # @ @ + $ $ % @ @ R.(@I I I I I I I I I I I I I I I I I I I I I I I I I I I I v+Z+# $ $ @ @ @ + $ $ $ + & @ $ @ * = % -   . + @ # @ @ + $ $ % @ @ @ + @ & # @ @ @ @ + $ $ + @ @ + @ & D.g@:+I I I I W.@ @ @ + @ @ # $ $ @ @ @ + $ $ $ + & @ $ @ * = % -   . + @ # @ @ + $ $ % h@I I I I I I I I I I I I I I I I I I I I I I I I I I I I I I I I I I I I ~ @ @ + $ $ $ + & @ $ @ * = % -   . + @ # @ @ + $ $ % @ @ @ + @ & # @ @ @ t.i@I I I I I I I I I I I I I I I I I I I I I I I I I I I I I I I I I I I I j@* = % -   . + @ # @ @ + $ $ % @ @ @ + @ & # @ @ @ @ + $ $ + @ @ + @ & @ @ @ + @ @ $ $ @ @ @ + @ @ # $ $ @ @ @ + $ $ $ + & @ $ @ * = % -   . + @ # @ @ + $ $ % @ @ @ + @ ",
"  . + @ # @ @ + $ $ % @ @ @ + @ & # @ @ @ @ + $ $ + @ @ + @ & @ @ @ + @ @ $ $ @ @ @ + @ @ # $ $ @ @ @ + $ $ $ + & @ $ @ * = % -   . + @ # @ @ + $ $ % @ @ Q+I I I I I I I I I I I I I I I I I I I I I I I I I I I I I :.@ # $ $ @ @ @ + $ $ $ + & @ $ @ * = % -   . + @ # @ @ + $ $ % @ @ @ + @ & # @ @ @ @ + $ $ + @ @ + @ & @ @ @ ]@k@J I W.@ @ @ + @ @ # $ $ @ @ @ + $ $ $ + & @ $ @ * = % -   . + @ # @ @ + $ $ l@I I I I I I I I I I I I I I I I I I I I I I I I I I I I I I I I I I I I m@@ @ @ + $ $ $ + & @ $ @ * = % -   . + @ # @ @ + $ $ % @ @ @ + @ & # @ @ @ @ n@W.I I I I I I I I I I I I I I I I I I I I I I I I I I I I I I I I I I I .+* = % -   . + @ # @ @ + $ $ % @ @ @ + @ & # @ @ @ @ + $ $ + @ @ + @ & @ @ @ + @ @ $ $ @ @ @ + @ @ # $ $ @ @ @ + $ $ $ + & @ $ @ * = % -   . + @ # @ @ + $ $ % @ @ @ + @ ",
"  . + @ # @ @ + $ $ % @ @ @ + @ & # @ @ @ @ + $ $ + @ @ + @ & @ @ @ + @ @ $ $ @ @ @ + @ @ # $ $ @ @ @ + $ $ $ + & @ $ @ * = % -   . + @ # @ @ + $ $ % @ @ o@I I I I I I I I I I I I I I I I I I I I I I I I I I I I p@{@@ # $ $ @ @ @ + $ $ $ + & @ $ @ * = % -   . + @ # @ @ + $ $ % @ @ @ + @ & # @ @ @ @ + $ $ + @ @ + @ & @ @ @ + @ q@r@s@@ @ @ + @ @ # $ $ @ @ @ + $ $ $ + & @ $ @ * = % -   . + @ # @ @ + $ $ t@I I I I I I I I I I I I I I I I I I I I I I I I I I I I I I I I I I I u@$ @ @ @ + $ $ $ + & @ $ @ * = % -   . + @ # @ @ + $ $ % @ @ @ + @ & # @ @ @ @ + v@w@I I I I I I I I I I I I I I I I I I I I I I I I I I I I I I I I I I I x@= % -   . + @ # @ @ + $ $ % @ @ @ + @ & # @ @ @ @ + $ $ + @ @ + @ & @ @ @ + @ @ $ $ @ @ @ + @ @ # $ $ @ @ @ + $ $ $ + & @ $ @ * = % -   . + @ # @ @ + $ $ % @ @ @ + @ ",
"  . + @ # @ @ + $ $ % @ @ @ + @ & # @ @ @ @ + $ + @ @ @ + @ @ @ @ @ + @ @ $ & @ @ + @ @ @ # $ $ @ @ @ + $ $ $ + & @ $ @ * = % -   . + @ # @ @ + $ $ % @ @ y@I I I I I I I I I I I I I I I I I I I I I I I I I I I I 9@@ @ # $ $ @ @ @ + $ $ $ + & @ $ @ * = % -   . + @ # @ @ + $ $ % @ @ @ + @ & # @ @ @ @ + $ + @ @ @ + @ @ @ @ @ + @ @ $ & @ @ + @ @ @ # $ $ @ @ @ + $ $ $ + & @ $ @ * = % -   . + @ # @ @ + $ z@I I I I I I I I I I I I I I I I I I I I I I I I I I I I I I I I I I I A@$ $ @ @ @ + $ $ $ + & @ $ @ * = % -   . + @ # @ @ + $ $ % @ @ @ + @ & # @ @ @ @ + $ B@C@I I I I I I I I I I I I I I I I I I I I I I I I I I I I I I I I I I D@= % -   . + @ # @ @ + $ $ % @ @ @ + @ & # @ @ @ @ + $ + @ @ @ + @ @ @ @ @ + @ @ $ & @ @ + @ @ @ # $ $ @ @ @ + $ $ $ + & @ $ @ * = % -   . + @ # @ @ + $ $ % @ @ @ + @ ",
"  . + @ # @ @ + $ $ % @ @ @ + @ & # @ @ @ + $ $ + @ @ @ + @ @ @ @ @ + @ @ $ & @ @ @ + @ @ # $ $ & @ @ + $ $ $ + & @ $ @ * = % -   . + @ # @ @ + $ $ % @ @ 9@I I I I I I I I I I I I I I I I I I I I I I I I I I I I E@@ @ # $ $ & @ @ + $ $ $ + & @ $ @ * = % -   . + @ # @ @ + $ $ % @ @ @ + @ & # @ @ @ + $ $ + @ @ @ + @ @ @ @ @ + @ @ $ & @ @ @ + @ @ # $ $ & @ @ + $ $ $ + & @ $ @ * = % -   . + @ # @ @ + $ F@I I I I I I I I I I I I I I I I I I I I I I I I I I I I I I I I I I i.G@$ $ & @ @ + $ $ $ + & @ $ @ * = % -   . + @ # @ @ + $ $ % @ @ @ + @ & # @ @ @ + $ $ + H@@@I I I I I I I I I I I I I I I I I I I I I I I I I I I I I I I I I I I@% -   . + @ # @ @ + $ $ % @ @ @ + @ & # @ @ @ + $ $ + @ @ @ + @ @ @ @ @ + @ @ $ & @ @ @ + @ @ # $ $ & @ @ + $ $ $ + & @ $ @ * = % -   . + @ # @ @ + $ $ % @ @ @ + @ ",
"  . + @ # @ @ + $ $ % @ @ @ + @ & # @ @ @ + $ $ + @ @ @ + @ @ @ @ @ + @ @ $ $ @ @ @ + @ @ # $ $ & @ @ + $ $ $ + & @ $ @ * = % -   . + @ # @ @ + $ $ % @ @ J@I I I I I I I I I I I I I I I I I I I I I I I I I I I I 8@@ @ # $ $ & @ @ + $ $ $ + & @ $ @ * = % -   . + @ # @ @ + $ $ % @ @ @ + @ & # @ @ @ + $ $ + @ @ @ + @ @ @ @ @ + @ @ $ $ @ @ @ + @ @ # $ $ & @ @ + $ $ $ + & @ $ @ * = % -   . + @ # @ @ + K@I I I I I I I I I I I I I I I I I I I I I I I I I I I I I I I I I I C@_@# $ $ & @ @ + $ $ $ + & @ $ @ * = % -   . + @ # @ @ + $ $ % @ @ @ + @ & # @ @ @ + $ $ + @ 9 I I I I I I I I I I I I I I I I I I I I I I I I I I I I I I I I I I L@% -   . + @ # @ @ + $ $ % @ @ @ + @ & # @ @ @ + $ $ + @ @ @ + @ @ @ @ @ + @ @ $ $ @ @ @ + @ @ # $ $ & @ @ + $ $ $ + & @ $ @ * = % -   . + @ # @ @ + $ $ % @ @ @ + @ ",
"  . + @ # @ @ + $ $ % @ @ @ + @ & # @ @ @ + $ $ + @ @ @ + @ @ @ @ + @ @ @ @ $ $ @ @ + @ @ # $ $ & @ @ + $ $ $ + & @ $ @ * = % -   . + @ # @ @ + $ $ % @ @ &@I I I I I I I I I I I I I I I I I I I I I I I I I I I I =@@ @ # $ $ & @ @ + $ $ $ + & @ $ @ * = % -   . + @ # @ @ + $ $ % @ @ @ + @ & # @ @ @ + $ $ + @ @ @ + @ @ @ @ + @ @ @ @ $ $ @ @ + @ @ # $ $ & @ @ + $ $ $ + & @ $ @ * = % -   . + @ # @ @ + *@I I I I I I I I I I I I I I I I I I I I I I I I I I I I I I I I I I b+@ # $ $ & @ @ + $ $ $ + & @ $ @ * = % -   . + @ # @ @ + $ $ % @ @ @ + @ & # @ @ @ + $ $ + @ '@M@I I I I I I I I I I I I I I I I I I I I I I I I I I I I I I I I I N@O@-   . + @ # @ @ + $ $ % @ @ @ + @ & # @ @ @ + $ $ + @ @ @ + @ @ @ @ + @ @ @ @ $ $ @ @ + @ @ # $ $ & @ @ + $ $ $ + & @ $ @ * = % -   . + @ # @ @ + $ $ % @ @ @ + @ ",
"  . + @ # @ @ + $ $ % @ @ + @ @ & # @ @ @ + $ $ + @ @ @ + @ @ @ + @ @ + @ @ $ $ @ @ + @ @ # $ $ & @ @ + $ $ $ + & @ $ @ * = % -   . + @ # @ @ + $ $ % @ @ P@I I I I I I I I I I I I I I I I I I I I I I I I I I I I 8@@ @ # $ $ & @ @ + $ $ $ + & @ $ @ * = % -   . + @ # @ @ + $ $ % @ @ + @ @ & # @ @ @ + $ $ + @ @ @ + @ @ @ + @ @ + @ @ $ $ @ @ + @ @ # $ $ & @ @ + $ $ $ + & @ $ @ * = % -   . + @ # @ @ E+@.I I I I I I I I I I I I I I I I I I I I I I I I I I I I I I I I I P@@ @ # $ $ & @ @ + $ $ $ + & @ $ @ * = % -   . + @ # @ @ + $ $ % @ @ + @ @ & # @ @ @ + $ $ + @ @ 0.I I I I I I I I I I I I I I I I I I I I I I I I I I I I I I I I I I Q@-   . + @ # @ @ + $ $ % @ @ + @ @ & # @ @ @ + $ $ + @ @ @ + @ @ @ + @ @ + @ @ $ $ @ @ + @ @ # $ $ & @ @ + $ $ $ + & @ $ @ * = % -   . + @ # @ @ + $ $ % @ @ + @ @ ",
"  . + @ # @ @ + $ $ % @ @ + @ @ & # @ @ @ + $ $ + @ @ @ + @ @ @ + @ @ + + @ $ $ @ @ + @ @ # $ $ & @ @ + $ $ $ + & @ $ @ * = % -   . + @ # @ @ + $ $ % @ @ R@I I I I I I I I I I I I I I I I I I I I I I I I I I I I S@@ @ # $ $ & @ @ + $ $ $ + & @ $ @ * = % -   . + @ # @ @ + $ $ % @ @ + @ @ & # @ @ @ + $ $ + @ @ @ + @ @ @ + @ @ + + @ $ $ @ @ + @ @ # $ $ & @ @ + $ $ $ + & @ $ @ * = % -   . + @ # @ @ T@I I I I I I I I I I I I I I I I I I I I I I I I I I I I I I I I I [ =@@ @ # $ $ & @ @ + $ $ $ + & @ $ @ * = % -   . + @ # @ @ + $ $ % @ @ + @ @ & # @ @ @ + $ $ + @ @ @ U@I I I I I I I I I I I I I I I I I I I I I I I I I I I I I I I I I V@-   . + @ # @ @ + $ $ % @ @ + @ @ & # @ @ @ + $ $ + @ @ @ + @ @ @ + @ @ + + @ $ $ @ @ + @ @ # $ $ & @ @ + $ $ $ + & @ $ @ * = % -   . + @ # @ @ + $ $ % @ @ + @ @ ",
"  . + @ # @ @ + $ $ % @ @ + @ @ & # @ @ @ + $ $ + @ @ @ + @ @ @ + @ @ + + @ $ $ @ @ + @ @ # $ $ & @ @ + $ $ $ + & @ $ @ * = % -   . + @ # @ @ + $ $ % @ @ W@I I I I I I I I I I I I I I I I I I I I I I I I I I I I 3.@ @ # $ $ & @ @ + $ $ $ + & @ $ @ * = % -   . + @ # @ @ + $ $ % @ @ + @ @ & # @ @ @ + $ $ + @ @ @ + @ @ @ + @ @ + + @ $ $ @ @ + @ @ # $ $ & @ @ + $ $ $ + & @ $ @ * = % -   . + @ # @ @ u.I I I I I I I I I I I I I I I I I I I I I I I I I I I I I I I I I J@+ @ @ # $ $ & @ @ + $ $ $ + & @ $ @ * = % -   . + @ # @ @ + $ $ % @ @ + @ @ & # @ @ @ + $ $ + @ @ @ X@q.I I I I I I I I I I I I I I I I I I I I I I I I I I I I I I I I I Y@  . + @ # @ @ + $ $ % @ @ + @ @ & # @ @ @ + $ $ + @ @ @ + @ @ @ + @ @ + + @ $ $ @ @ + @ @ # $ $ & @ @ + $ $ $ + & @ $ @ * = % -   . + @ # @ @ + $ $ % @ @ + @ @ ",
"  . + @ # @ @ + $ $ % @ @ + @ @ & # @ @ @ @ + $ + @ @ @ + @ @ + @ @ + @ + @ $ $ @ @ + @ @ # $ $ & @ @ + $ $ $ + & @ $ @ * = % -   . + @ # @ @ + $ $ % @ @ V+I I I I I I I I I I I I I I I I I I I I I I I I I I I I Z@@ @ # $ $ & @ @ + $ $ $ + & @ $ @ * = % -   . + @ # @ @ + $ $ % @ @ + @ @ & # @ @ @ @ + $ + @ @ @ + @ @ + @ @ + @ + @ $ $ @ @ + @ @ # $ $ & @ @ + $ $ $ + & @ $ @ * = % -   . + @ # @ Z+`@I I I I I I I I I I I I I I I I I I I I I I I I I I I I I I I I q.t.+ @ @ # $ $ & @ @ + $ $ $ + & @ $ @ * = % -   . + @ # @ @ + $ $ % @ @ + @ @ & # @ @ @ @ + $ + @ @ @ + k@I I I I I I I I I I I I I I I I I I I I I I I I I I I I I I I I I  #  . + @ # @ @ + $ $ % @ @ + @ @ & # @ @ @ @ + $ + @ @ @ + @ @ + @ @ + @ + @ $ $ @ @ + @ @ # $ $ & @ @ + $ $ $ + & @ $ @ * = % -   . + @ # @ @ + $ $ % @ @ + @ @ ",
"  . + @ # @ @ + $ $ % @ @ + @ @ & # @ @ @ @ + $ + @ @ @ + @ @ + @ @ + @ + @ & $ @ @ + @ @ # $ $ & @ @ + $ $ $ + & @ $ @ * = % -   . + @ # @ @ + $ $ % @ @ .#I I I I I I I I I I I I I I I I I I I I I I I I I I I I I +#@ # $ $ & @ @ + $ $ $ + & @ $ @ * = % -   . + @ # @ @ + $ $ % @ @ + @ @ & # @ @ @ @ + $ + @ @ @ + @ @ + @ @ + @ + @ & $ @ @ + @ @ # $ $ & @ @ + $ $ $ + & @ $ @ * = % -   . + @ # @ z.I I I I I I I I I I I I I I I I I I I I I I I I I I I I I I I I I 8.@ + @ @ # $ $ & @ @ + $ $ $ + & @ $ @ * = % -   . + @ # @ @ + $ $ % @ @ + @ @ & # @ @ @ @ + $ + @ @ @ + Q+I I I I I I I I I I I I I I I I I I I I I I I I I I I I I I I I I @#  . + @ # @ @ + $ $ % @ @ + @ @ & # @ @ @ @ + $ + @ @ @ + @ @ + @ @ + @ + @ & $ @ @ + @ @ # $ $ & @ @ + $ $ $ + & @ $ @ * = % -   . + @ # @ @ + $ $ % @ @ + @ @ ",
"  . + @ # @ @ + $ $ % @ @ + @ @ & # @ @ @ @ + $ + @ @ @ + @ + @ @ @ + # + @ @ $ @ @ + @ @ # $ $ & @ @ + $ $ $ + & @ $ @ * = % -   . + @ # @ @ + $ $ % @ @ ##I I I I I I I I I I I I I I I I I I I I I I I I I I I I I }@8+# $ $ & @ @ + $ $ $ + & @ $ @ * = % -   . + @ # @ @ + $ $ % @ @ + @ @ & # @ @ @ @ + $ + @ @ @ + @ + @ @ @ + # + @ @ $ @ @ + @ @ # $ $ & @ @ + $ $ $ + & @ $ @ * = % -   . + @ # @ k@I I I I I I I I I I I I I I I I I I I I I I I I I I I I I I I I I $#@ + @ @ # $ $ & @ @ + $ $ $ + & @ $ @ * = % -   . + @ # @ @ + $ $ % @ @ + @ @ & # @ @ @ @ + $ + @ @ @ + @ %#I I I I I I I I I I I I I I I I I I I I I I I I I I I I I I I I &#*#. + @ # @ @ + $ $ % @ @ + @ @ & # @ @ @ @ + $ + @ @ @ + @ + @ @ @ + # + @ @ $ @ @ + @ @ # $ $ & @ @ + $ $ $ + & @ $ @ * = % -   . + @ # @ @ + $ $ % @ @ + @ @ ",
"  . + @ # @ @ + $ $ % @ @ + @ @ & # @ @ @ @ + $ + @ @ @ + @ + @ @ @ + # @ + @ $ & @ + @ @ # $ $ & @ @ + $ $ $ + & @ $ @ * = % -   . + @ # @ @ + $ $ % @ @ =#I I I I I I I I I I I I I I I I I I I I I I I I I I I I I I -#F+$ $ & @ @ + $ $ $ + & @ $ @ * = % -   . + @ # @ @ + $ $ % @ @ + @ @ & # @ @ @ @ + $ + @ @ @ + @ + @ @ @ + # @ + @ $ & @ + @ @ # $ $ & @ @ + $ $ $ + & @ $ @ * = % -   . + @ # @ ;#I I I I I I I I I I I I I I I I I I I I I I I I I I I I I I I I >#& @ + @ @ # $ $ & @ @ + $ $ $ + & @ $ @ * = % -   . + @ # @ @ + $ $ % @ @ + @ @ & # @ @ @ @ + $ + @ @ @ + @ ,#I I I I I I I I I I I I I I I I I I I I I I I I I I I I I I I I I '#. + @ # @ @ + $ $ % @ @ + @ @ & # @ @ @ @ + $ + @ @ @ + @ + @ @ @ + # @ + @ $ & @ + @ @ # $ $ & @ @ + $ $ $ + & @ $ @ * = % -   . + @ # @ @ + $ $ % @ @ + @ @ ",
"  . + @ # @ @ + $ $ % @ @ + @ @ & # @ @ @ @ + $ + @ @ @ + @ + @ @ % @ # @ + @ $ $ @ + @ @ # $ $ & @ @ + $ $ $ + & @ $ @ * = % -   . + @ # @ @ + $ $ % @ @ )#I I I I I I I I I I I I I I I I I I I I I I I I I I I I I I I G !#$ & @ @ + $ $ $ + & @ $ @ * = % -   . + @ # @ @ + $ $ % @ @ + @ @ & # @ @ @ @ + $ + @ @ @ + @ + @ @ % @ # @ + @ $ $ @ + @ @ # $ $ & @ @ + $ $ $ + & @ $ @ * = % -   . + @ # ~#I I I I I I I I I I I I I I I I I I I I I I I I I I I I I I I I I {#$ @ + @ @ # $ $ & @ @ + $ $ $ + & @ $ @ * = % -   . + @ # @ @ + $ $ % @ @ + @ @ & # @ @ @ @ + $ + @ @ @ + @ E+j.I I I I I I I I I I I I I I I I I I I I I I I I I I I I I I I I ]#. + @ # @ @ + $ $ % @ @ + @ @ & # @ @ @ @ + $ + @ @ @ + @ + @ @ % @ # @ + @ $ $ @ + @ @ # $ $ & @ @ + $ $ $ + & @ $ @ * = % -   . + @ # @ @ + $ $ % @ @ + @ @ ",
"  . + @ # @ @ + $ $ % @ @ + @ @ & # @ @ @ @ + $ + @ @ @ + @ + @ @ % @ # @ + @ $ $ @ + @ @ # $ $ & @ @ + $ $ $ + & @ $ @ * = % -   . + @ # @ @ + $ $ % @ @ ^#I I I I I I I I I I I I I I I I I I I I I I I I I I I I I I I I H /#(#@ @ + $ $ $ + & @ $ @ * = % -   . + @ # @ @ + $ $ % @ @ + @ @ & # @ @ @ @ + $ + @ @ @ + @ + @ @ % @ # @ + @ $ $ @ + @ @ # $ $ & @ @ + $ $ $ + & @ $ @ * = % -   . + @ # _#I I I I I I I I I I I I I I I I I I I I I I I I I I I I I I I I I :#$ @ + @ @ # $ $ & @ @ + $ $ $ + & @ $ @ * = % -   . + @ # @ @ + $ $ % @ @ + @ @ & # @ @ @ @ + $ + @ @ @ + @ + &@I I I I I I I I I I I I I I I I I I I I I I I I I I I I I I I I <#. + @ # @ @ + $ $ % @ @ + @ @ & # @ @ @ @ + $ + @ @ @ + @ + @ @ % @ # @ + @ $ $ @ + @ @ # $ $ & @ @ + $ $ $ + & @ $ @ * = % -   . + @ # @ @ + $ $ % @ @ + @ @ ",
"  . + @ # @ @ + $ $ % @ @ + @ @ & # @ @ @ @ + $ + @ @ @ + @ + @ @ % @ # @ + @ @ $ @ + @ @ # $ $ & @ @ + $ $ $ + & @ $ @ * = % -   . + @ # @ @ + $ $ % @ @ B@I I I I I I I I I I I I I I I I I I I I I I I I I I I I I I I I I I [#}#|#+ $ $ $ + & @ $ @ * = % -   . + @ # @ @ + $ $ % @ @ + @ @ & # @ @ @ @ + $ + @ @ @ + @ + @ @ % @ # @ + @ @ $ @ + @ @ # $ $ & @ @ + $ $ $ + & @ $ @ * = % -   . + @ # x I I I I I I I I I I I I I I I I I I I I I I I I I I I I I I I I {+@ $ @ + @ @ # $ $ & @ @ + $ $ $ + & @ $ @ * = % -   . + @ # @ @ + $ $ % @ @ + @ @ & # @ @ @ @ + $ + @ @ @ + @ + 1#I I I I I I I I I I I I I I I I I I I I I I I I I I I I I I I I 2#3#+ @ # @ @ + $ $ % @ @ + @ @ & # @ @ @ @ + $ + @ @ @ + @ + @ @ % @ # @ + @ @ $ @ + @ @ # $ $ & @ @ + $ $ $ + & @ $ @ * = % -   . + @ # @ @ + $ $ % @ @ + @ @ ",
"  . + @ # @ @ + $ $ % @ @ + @ @ & # @ @ @ @ + $ + @ @ @ + @ + @ @ % @ @ @ @ % @ $ @ + @ @ # $ $ & @ @ + $ $ $ + & @ $ @ * = % -   . + @ # @ @ + $ $ % @ @ a+M.I I I I I I I I I I I I I I I I I I I I I I I I I I I I I I I I I I I I 4#5#~@, + & @ $ @ * = % -   . + @ # @ @ + $ $ % @ @ + @ @ & # @ @ @ @ + $ + @ @ @ + @ + @ @ % @ @ @ @ % @ $ @ + @ @ # $ $ & @ @ + $ $ $ + & @ $ @ * = % -   . + @ # ^+I I I I I I I I I I I I I I I I I I I I I I I I I I I I I I I I 6#@ $ @ + @ @ # $ $ & @ @ + $ $ $ + & @ $ @ * = % -   . + @ # @ @ + $ $ % @ @ + @ @ & # @ @ @ @ + $ + @ @ @ + @ + 7#@@I I I I I I I I I I I I I I I I I I I I I I I I I I I I I I I I 8#+ @ # @ @ + $ $ % @ @ + @ @ & # @ @ @ @ + $ + @ @ @ + @ + @ @ % @ @ @ @ % @ $ @ + @ @ # $ $ & @ @ + $ $ $ + & @ $ @ * = % -   . + @ # @ @ + $ $ % @ @ + @ @ ",
"  . + @ # @ @ + $ $ % @ @ + @ @ & # @ @ @ @ + $ + @ @ @ + @ + @ @ % @ % # @ % @ $ @ + @ @ # $ $ & @ @ + $ $ $ + & @ $ @ * = % -   . + @ # @ @ + $ $ % @ @ + (.I I I I I I I I I I I I I I I I I I I I I I I I I I I I I I I I I I I I I I I 9#U@0#X.#+@ * = % -   . + @ # @ @ + $ $ % @ @ + @ @ & # @ @ @ @ + $ + @ @ @ + @ + @ @ % @ % # @ % @ $ @ + @ @ # $ $ & @ @ + $ $ $ + & @ $ @ * = % -   . + @ _+[ I I I I I I I I I I I I I I I I I I I I I I I I I I I I I I I I a#@ $ @ + @ @ # $ $ & @ @ + $ $ $ + & @ $ @ * = % -   . + @ # @ @ + $ $ % @ @ + @ @ & # @ @ @ @ + $ + @ @ @ + @ + @ v.I I I I I I I I I I I I I I I I I I I I I I I I I I I I I I I I b#+ @ # @ @ + $ $ % @ @ + @ @ & # @ @ @ @ + $ + @ @ @ + @ + @ @ % @ % # @ % @ $ @ + @ @ # $ $ & @ @ + $ $ $ + & @ $ @ * = % -   . + @ # @ @ + $ $ % @ @ + @ @ ",
"  . + @ # @ @ + $ $ % @ @ + @ @ & # @ @ @ @ + $ + @ @ @ + @ + @ % # @ % % @ % @ $ @ + @ @ # $ $ & @ @ + $ $ $ + & @ $ @ * = % -   . + @ # @ @ + $ $ % @ @ + ~ I I I I I I I I I I I I I I I I I I I I I I I I I I I I I I I I I I I I I I I I I I I < c#d#e#f#m+  . + @ # @ @ + $ $ % @ @ + @ @ & # @ @ @ @ + $ + @ @ @ + @ + @ % # @ % % @ % @ $ @ + @ @ # $ $ & @ @ + $ $ $ + & @ $ @ * = % -   . + @ g#I I I I I I I I I I I I I I I I I I I I I I I I I I I I I I I I I h#@ $ @ + @ @ # $ $ & @ @ + $ $ $ + & @ $ @ * = % -   . + @ # @ @ + $ $ % @ @ + @ @ & # @ @ @ @ + $ + @ @ @ + @ + @ i#I I I I I I I I I I I I I I I I I I I I I I I I I I I I I I I I j#+ @ # @ @ + $ $ % @ @ + @ @ & # @ @ @ @ + $ + @ @ @ + @ + @ % # @ % % @ % @ $ @ + @ @ # $ $ & @ @ + $ $ $ + & @ $ @ * = % -   . + @ # @ @ + $ $ % @ @ + @ @ ",
"  . + @ # @ @ + $ $ % @ @ + @ @ & # @ @ @ @ + $ + @ @ @ + @ + @ % @ % % ; % @ % @ & + @ @ # $ $ & @ @ + $ $ $ + & @ $ @ * = % -   . + @ # @ @ + $ $ % @ @ + X.I I I I I I I I I I I I I I I I I I I I I I I I I I I I I I I I I I I I I I I I I I I I I I I I k#l#m#E@~#a@@ @ + $ $ % @ @ + @ @ & # @ @ @ @ + $ + @ @ @ + @ + @ % @ % % ; % @ % @ & + @ @ # $ $ & @ @ + $ $ $ + & @ $ @ * = % -   . + @ n#I I I I I I I I I I I I I I I I I I I I I I I I I I I I I I I I o#@ % @ & + @ @ # $ $ & @ @ + $ $ $ + & @ $ @ * = % -   . + @ # @ @ + $ $ % @ @ + @ @ & # @ @ @ @ + $ + @ @ @ + @ + @ p#I I I I I I I I I I I I I I I I I I I I I I I I I I I I I I I I q#+ @ # @ @ + $ $ % @ @ + @ @ & # @ @ @ @ + $ + @ @ @ + @ + @ % @ % % ; % @ % @ & + @ @ # $ $ & @ @ + $ $ $ + & @ $ @ * = % -   . + @ # @ @ + $ $ % @ @ + @ @ ",
"  . + @ # @ @ + $ $ % @ @ + @ @ & # @ @ @ @ + $ + @ @ @ + @ + @ % @ > ; % % @ % @ & @ + @ # $ $ & @ @ @ + $ $ + & @ $ @ * = % -   . + @ # @ @ + $ $ % @ @ + @ r#I I I I I I I I I I I I I I I I I I I I I I I I I I I I I I I I I I I I I I I I I I I I I I I I I I I I s#-#S+,#t#, % @ @ + @ @ & # @ @ @ @ + $ + @ @ @ + @ + @ % @ > ; % % @ % @ & @ + @ # $ $ & @ @ @ + $ $ + & @ $ @ * = % -   . + @ u#I I I I I I I I I I I I I I I I I I I I I I I I I I I I I I I I v#@ % @ & @ + @ # $ $ & @ @ @ + $ $ + & @ $ @ * = % -   . + @ # @ @ + $ $ % @ @ + @ @ & # @ @ @ @ + $ + @ @ @ + @ + @ w#I I I I I I I I I I I I I I I I I I I I I I I I I I I I I I I I x#a+@ # @ @ + $ $ % @ @ + @ @ & # @ @ @ @ + $ + @ @ @ + @ + @ % @ > ; % % @ % @ & @ + @ # $ $ & @ @ @ + $ $ + & @ $ @ * = % -   . + @ # @ @ + $ $ % @ @ + @ @ ",
"  . + @ # @ @ + $ $ % @ @ + @ @ & # @ @ @ @ + $ + @ @ + @ @ + @ % @ % + % @ @ % @ & @ + @ # $ $ & @ @ @ + $ $ + & @ $ @ * = % -   . + @ # @ @ + $ $ % @ @ + @ y#I I I I I I I I I I I I I I I I I I I I I I I I I I I I I I I I I I I I I I I I I I I I I I I I I I I I I I I I I z#A#~ q+B#@ @ & # @ @ @ @ + $ + @ @ + @ @ + @ % @ % + % @ @ % @ & @ + @ # $ $ & @ @ @ + $ $ + & @ $ @ * = % -   . + @ C#I I I I I I I I I I I I I I I I I I I I I I I I I I I I I I I I D#@ % @ & @ + @ # $ $ & @ @ @ + $ $ + & @ $ @ * = % -   . + @ # @ @ + $ $ % @ @ + @ @ & # @ @ @ @ + $ + @ @ + @ @ + @ b.#.I I I I I I I I I I I I I I I I I I I I I I I I I I I I I I I I E#@ # @ @ + $ $ % @ @ + @ @ & # @ @ @ @ + $ + @ @ + @ @ + @ % @ % + % @ @ % @ & @ + @ # $ $ & @ @ @ + $ $ + & @ $ @ * = % -   . + @ # @ @ + $ $ % @ @ + @ @ ",
"  . + @ # @ @ + $ $ % @ @ + @ @ & # @ @ @ @ + $ + @ @ + @ @ + @ % @ % + % @ @ % @ & @ + @ # $ $ & @ @ @ + $ $ + & @ $ @ * = % -   . + @ # @ @ + $ $ % @ @ + @ ` F#I I I I I I I I I I I I I I I I I I I I I I I I I I I I I I I I I I I I I I I I I I I I I I I I I I I I I I I I I I I I Y.G#y#H#I#@ @ @ @ + $ + @ @ + @ @ + @ % @ % + % @ @ % @ & @ + @ # $ $ & @ @ @ + $ $ + & @ $ @ * = % -   . + @ J#I I I I I I I I I I I I I I I I I I I I I I I I I I I I I I I I :.@ % @ & @ + @ # $ $ & @ @ @ + $ $ + & @ $ @ * = % -   . + @ # @ @ + $ $ % @ @ + @ @ & # @ @ @ @ + $ + @ @ + @ @ + @ % $.I I I I I I I I I I I I I I I I I I I I I I I I I I I I I I I I K#@ # @ @ + $ $ % @ @ + @ @ & # @ @ @ @ + $ + @ @ + @ @ + @ % @ % + % @ @ % @ & @ + @ # $ $ & @ @ @ + $ $ + & @ $ @ * = % -   . + @ # @ @ + $ $ % @ @ + @ @ ",
"  . + @ # @ @ + $ $ % @ @ + @ @ & # @ @ @ @ + $ $ + @ + @ @ + @ % @ % + > @ @ % @ & @ + @ # $ $ & @ @ @ + $ $ + & @ $ @ * = % -   . + @ # @ @ + $ $ % @ @ + @ @ L#I I I I I I I I I I I I I I I I I I I I I I I I I I I I I I I I I I I I I I I I I I I I I I I I I I I I I I I I I I I I I I I I M#N#O#D.@ + $ $ + @ + @ @ + @ % @ % + > @ @ % @ & @ + @ # $ $ & @ @ @ + $ $ + & @ $ @ * = % -   . + @ s#I I I I I I I I I I I I I I I I I I I I I I I I I I I I I I I I D @ % @ & @ + @ # $ $ & @ @ @ + $ $ + & @ $ @ * = % -   . + @ # @ @ + $ $ % @ @ + @ @ & # @ @ @ @ + $ $ + @ + @ @ + @ % &@I I I I I I I I I I I I I I I I I I I I I I I I I I I I I I I I r+@ # @ @ + $ $ % @ @ + @ @ & # @ @ @ @ + $ $ + @ + @ @ + @ % @ % + > @ @ % @ & @ + @ # $ $ & @ @ @ + $ $ + & @ $ @ * = % -   . + @ # @ @ + $ $ % @ @ + @ @ ",
"  . + @ # @ @ + $ $ % @ @ + @ @ & # @ @ @ @ + $ $ + @ + @ @ + @ % @ % + % @ @ % @ & @ + @ # $ $ & @ @ @ + $ $ + & @ $ @ * = % -   . + @ # @ @ + $ $ % @ @ + @ @ .@I I I I I I I I I I I I I I I I I I I I I I I I I I I I I I I I I I I I I I I I I I I I I I I I I I I I I I I I I I I I I I I I I I I [ .+z v@$ + @ + @ @ + @ % @ % + % @ @ % @ & @ + @ # $ $ & @ @ @ + $ $ + & @ $ @ * = % -   . + 8+I I I I I I I I I I I I I I I I I I I I I I I I I I I I I I I I I R.@ % @ & @ + @ # $ $ & @ @ @ + $ $ + & @ $ @ * = % -   . + @ # @ @ + $ $ % @ @ + @ @ & # @ @ @ @ + $ $ + @ + @ @ + @ % Y I I I I I I I I I I I I I I I I I I I I I I I I I I I I I I I I f.@ # @ @ + $ $ % @ @ + @ @ & # @ @ @ @ + $ $ + @ + @ @ + @ % @ % + % @ @ % @ & @ + @ # $ $ & @ @ @ + $ $ + & @ $ @ * = % -   . + @ # @ @ + $ $ % @ @ + @ @ ",
"  . + @ # @ @ + $ $ % @ @ + @ @ & # @ @ @ @ + $ $ + @ + @ @ + @ % @ % + > @ % @ @ & @ + @ # $ $ & @ @ @ + $ $ + & @ $ @ * = % -   . + @ # @ @ + $ $ % @ @ + @ @ & P#I I I I I I I I I I I I I I I I I I I I I I I I I I I I I I I I I I I I I I I I I I I I I I I I I I I I I I I I I I I I I I I I I I I I I Q#R#S#T#+ @ @ + @ % @ % + > @ % @ @ & @ + @ # $ $ & @ @ @ + $ $ + & @ $ @ * = % -   . + P I I I I I I I I I I I I I I I I I I I I I I I I I I I I I I I I U#@ % @ @ & @ + @ # $ $ & @ @ @ + $ $ + & @ $ @ * = % -   . + @ # @ @ + $ $ % @ @ + @ @ & # @ @ @ @ + $ $ + @ + @ @ + @ % %@I I I I I I I I I I I I I I I I I I I I I I I I I I I I I I I I 1@@ # @ @ + $ $ % @ @ + @ @ & # @ @ @ @ + $ $ + @ + @ @ + @ % @ % + > @ % @ @ & @ + @ # $ $ & @ @ @ + $ $ + & @ $ @ * = % -   . + @ # @ @ + $ $ % @ @ + @ @ ",
"  . + @ # @ @ + $ $ % @ @ + @ @ & # @ @ @ @ + $ $ + @ + @ @ + @ % @ % % % @ % @ @ & @ + @ # $ $ & @ @ @ + $ $ + & @ $ @ * = % -   . + @ # @ @ + $ $ % @ @ + @ @ & V#j.I I I I I I I I I I I I I I I I I I I I I I I I I I I I I I I I I I I I I I I I I I I I I I I I I I I I I I I I I I I I I I I I I I I I I I I v+W#P+@ + @ % @ % % % @ % @ @ & @ + @ # $ $ & @ @ @ + $ $ + & @ $ @ * = % -   . + #@I I I I I I I I I I I I I I I I I I I I I I I I I I I I I I I I X#@ % @ @ & @ + @ # $ $ & @ @ @ + $ $ + & @ $ @ * = % -   . + @ # @ @ + $ $ % @ @ + @ @ & # @ @ @ @ + $ $ + @ + @ @ + @ % :.I I I I I I I I I I I I I I I I I I I I I I I I I I I I I I I I Y#@ # @ @ + $ $ % @ @ + @ @ & # @ @ @ @ + $ $ + @ + @ @ + @ % @ % % % @ % @ @ & @ + @ # $ $ & @ @ @ + $ $ + & @ $ @ * = % -   . + @ # @ @ + $ $ % @ @ + @ @ ",
"  . + @ # @ @ + $ $ % @ @ + @ @ & # @ @ @ @ + $ $ + @ + @ @ + @ @ % @ % @ @ % @ @ $ @ + @ # $ $ & @ @ @ + $ $ + & @ $ @ * = % -   . + @ # @ @ + $ $ % @ @ + @ @ & # _#I I I I I I I I I I I I I I I I I I I I I I I I I I I I I I I I I I I I I I I I I I I I I I I I I I I I I I I I I I I I I I I I I I I I I I I I I Z#`# $@ @ % @ % @ @ % @ @ $ @ + @ # $ $ & @ @ @ + $ $ + & @ $ @ * = % -   . + +#I I I I I I I I I I I I I I I I I I I I I I I I I I I I I I I I ].@ % @ @ $ @ + @ # $ $ & @ @ @ + $ $ + & @ $ @ * = % -   . + @ # @ @ + $ $ % @ @ + @ @ & # @ @ @ @ + $ $ + @ + @ @ + @ @ .$I I I I I I I I I I I I I I I I I I I I I I I I I I I I I I I I +$@ # @ @ + $ $ % @ @ + @ @ & # @ @ @ @ + $ $ + @ + @ @ + @ @ % @ % @ @ % @ @ $ @ + @ # $ $ & @ @ @ + $ $ + & @ $ @ * = % -   . + @ # @ @ + $ $ % @ @ + @ @ ",
"  . + @ # @ @ + $ $ % @ @ + @ @ & # @ @ @ @ + $ $ + @ + @ @ + @ @ % @ @ @ @ % @ @ $ @ + @ # $ $ & @ @ @ + $ $ + & @ $ @ * = % -   . + @ # @ @ + $ $ % @ @ + @ @ & # @ @$I I I I I I I I I I I I I I I I I I I I I I I I I I I I I I I I I I I I I I I I I I I I I I I I I I I I I I I I I I I I I I I I I I I I I I I I I I #$;@T#% @ @ @ @ % @ @ $ @ + @ # $ $ & @ @ @ + $ $ + & @ $ @ * = % -   . + }.I I I I I I I I I I I I I I I I I I I I I I I I I I I I I I I I &@@ % @ @ $ @ + @ # $ $ & @ @ @ + $ $ + & @ $ @ * = % -   . + @ # @ @ + $ $ % @ @ + @ @ & # @ @ @ @ + $ $ + @ + @ @ + @ @ $$I I I I I I I I I I I I I I I I I I I I I I I I I I I I I I I I %$@ # @ @ + $ $ % @ @ + @ @ & # @ @ @ @ + $ $ + @ + @ @ + @ @ % @ @ @ @ % @ @ $ @ + @ # $ $ & @ @ @ + $ $ + & @ $ @ * = % -   . + @ # @ @ + $ $ % @ @ + @ @ ",
"  . + @ # @ @ + $ $ % @ @ + @ @ & # @ @ @ + $ $ $ + @ + @ @ + @ @ @ % @ @ @ % @ @ $ @ + @ # $ $ & @ @ @ + $ $ + & @ $ @ * = % -   . + @ # @ @ + $ $ % @ @ + @ @ & # @ q@2.I I I I I I I I I I I I I I I I I I I I I I I I I I I I I I I I I I I I I I I I I I I I I I I I I I I I I I I I I I I I I I I I I I I I I I I I I I I :+&$% @ @ @ % @ @ $ @ + @ # $ $ & @ @ @ + $ $ + & @ $ @ * = % -   . +  +I I I I I I I I I I I I I I I I I I I I I I I I I I I I I I I I *$@ % @ @ $ @ + @ # $ $ & @ @ @ + $ $ + & @ $ @ * = % -   . + @ # @ @ + $ $ % @ @ + @ @ & # @ @ @ + $ $ $ + @ + @ @ + @ @ g.I I I I I I I I I I I I I I I I I I I I I I I I I I I I I I I I =$@ # @ @ + $ $ % @ @ + @ @ & # @ @ @ + $ $ $ + @ + @ @ + @ @ @ % @ @ @ % @ @ $ @ + @ # $ $ & @ @ @ + $ $ + & @ $ @ * = % -   . + @ # @ @ + $ $ % @ @ + @ @ ",
"  . + @ # @ @ + $ $ % @ @ + @ @ & # @ @ @ + $ $ $ + @ + @ @ + @ @ @ % @ @ @ % @ # $ @ + @ # $ $ & @ @ @ + $ $ + & @ $ @ * = % -   . + @ # @ @ + $ $ % @ @ + @ @ & # @ @ <.-$I I I I I I I I I I I I I I I I I I I I I I I I I I I I I I I I I I I I I I I I I I I I I I I I I I I I I I I I I I I I I I I I I I I I I I I I I I I q.;$Q @ @ % @ # $ @ + @ # $ $ & @ @ @ + $ $ + & @ $ @ * = % -   . + J.I I I I I I I I I I I I I I I I I I I I I I I I I I I I I I I I }#@ % @ # $ @ + @ # $ $ & @ @ @ + $ $ + & @ $ @ * = % -   . + @ # @ @ + $ $ % @ @ + @ @ & # @ @ @ + $ $ $ + @ + @ @ + @ @ >$I I I I I I I I I I I I I I I I I I I I I I I I I I I I I I I I -$@ # @ @ + $ $ % @ @ + @ @ & # @ @ @ + $ $ $ + @ + @ @ + @ @ @ % @ @ @ % @ # $ @ + @ # $ $ & @ @ @ + $ $ + & @ $ @ * = % -   . + @ # @ @ + $ $ % @ @ + @ @ ",
"  . + @ # @ + $ $ $ % @ @ + @ @ & # @ @ @ + $ $ + @ @ + @ @ + @ @ @ @ % % % @ @ $ $ @ + @ # $ $ & @ @ + $ $ $ + & @ $ @ * = % -   . + @ # @ + $ $ $ % @ @ + @ @ & # @ @ @ ,$'$I I I I I I I I I I I I I I I I I I I I I I I I I I I I I I I I I I I I I I I I I I I I I I I I I I I I I I I I I I I I I I I I I I I I I I I I I I I I )$!$% @ @ $ $ @ + @ # $ $ & @ @ + $ $ $ + & @ $ @ * = % -   . + ~$I I I I I I I I I I I I I I I I I I I I I I I I I I I I I I I I {$% @ @ $ $ @ + @ # $ $ & @ @ + $ $ $ + & @ $ @ * = % -   . + @ # @ + $ $ $ % @ @ + @ @ & # @ @ @ + $ $ + @ @ + @ @ + @ @ Z+I I I I I I I I I I I I I I I I I I I I I I I I I I I I I I I I ]$@ # @ + $ $ $ % @ @ + @ @ & # @ @ @ + $ $ + @ @ + @ @ + @ @ @ @ % % % @ @ $ $ @ + @ # $ $ & @ @ + $ $ $ + & @ $ @ * = % -   . + @ # @ + $ $ $ % @ @ + @ @ ",
"  . + @ # @ + $ $ $ % @ @ + @ @ & # @ @ @ + $ $ + @ @ + @ @ + @ @ # @ @ @ @ @ # $ $ @ + @ # $ $ & @ @ + $ $ $ + & @ $ @ * = % -   . + @ # @ + $ $ $ % @ @ + @ @ & # @ @ @ + ' w@I I I I I I I I I I I I I I I I I I I I I I I I I I I I I I I I I I I I I I I I I I I I I I I I I I I I I I I I I I I I I I I I I I I I I I I I I I I I }@D @ # $ $ @ + @ # $ $ & @ @ + $ $ $ + & @ $ @ * = % -   . + ^$I I I I I I I I I I I I I I I I I I I I I I I I I I I I I I I I Y @ @ # $ $ @ + @ # $ $ & @ @ + $ $ $ + & @ $ @ * = % -   . + @ # @ + $ $ $ % @ @ + @ @ & # @ @ @ + $ $ + @ @ + @ @ + @ @ /$I I I I I I I I I I I I I I I I I I I I I I I I I I I I I I I I ($@ # @ + $ $ $ % @ @ + @ @ & # @ @ @ + $ $ + @ @ + @ @ + @ @ # @ @ @ @ @ # $ $ @ + @ # $ $ & @ @ + $ $ $ + & @ $ @ * = % -   . + @ # @ + $ $ $ % @ @ + @ @ ",
"  . + @ # @ + $ $ $ % @ @ + @ @ & # @ @ @ + $ $ + @ @ + @ @ + @ @ # # @ @ @ @ # $ $ @ + @ # $ $ & @ @ + $ $ $ + & @ $ @ * = % -   . + @ # @ + $ $ $ % @ @ + @ @ & # @ @ @ + $ 7+_$I I I I I I I I I I I I I I I I I I I I I I I I I I I I I I I I I I I I I I I I I I I I I I I I I I I I I I I I I I I I I I I I I I I I I I I I I I I I M.h.# $ $ @ + @ # $ $ & @ @ + $ $ $ + & @ $ @ * = % -   . + :$I I I I I I I I I I I I I I I I I I I I I I I I I I I I I I I I ~ @ @ # $ $ @ + @ # $ $ & @ @ + $ $ $ + & @ $ @ * = % -   . + @ # @ + $ $ $ % @ @ + @ @ & # @ @ @ + $ $ + @ @ + @ @ + @ @ # I I I I I I I I I I I I I I I I I I I I I I I I I I I I I I I I <$@ # @ + $ $ $ % @ @ + @ @ & # @ @ @ + $ $ + @ @ + @ @ + @ @ # # @ @ @ @ # $ $ @ + @ # $ $ & @ @ + $ $ $ + & @ $ @ * = % -   . + @ # @ + $ $ $ % @ @ + @ @ ",
"  . + @ # @ + $ $ $ % @ @ + @ @ & # @ @ @ + $ $ + @ @ + @ @ + @ @ @ # @ @ @ @ # $ $ @ + @ # $ $ & @ @ + $ $ $ + & @ $ @ * = % -   . + @ # @ + $ $ $ % @ @ + @ @ & # @ @ @ + $ $ [$y#[ I I I I I I I I I I I I I I I I I I I I I I I I I I I I I I I I I I I I I I I I I I I I I I I I I I I I I I I I I I I I I I I I I I I I I I I I I I I r }$$ $ @ + @ # $ $ & @ @ + $ $ $ + & @ $ @ * = % -   . + :$I I I I I I I I I I I I I I I I I I I I I I I I I I I I I I I I ^$@ @ # $ $ @ + @ # $ $ & @ @ + $ $ $ + & @ $ @ * = % -   . + @ # @ + $ $ $ % @ @ + @ @ & # @ @ @ + $ $ + @ @ + @ @ + @ @ @ |$I I I I I I I I I I I I I I I I I I I I I I I I I I I I I I I <$@ # @ + $ $ $ % @ @ + @ @ & # @ @ @ + $ $ + @ @ + @ @ + @ @ @ # @ @ @ @ # $ $ @ + @ # $ $ & @ @ + $ $ $ + & @ $ @ * = % -   . + @ # @ + $ $ $ % @ @ + @ @ ",
"  . + @ # @ + $ $ $ % @ @ + @ @ & # @ @ @ + $ $ + @ @ @ + @ @ + @ @ @ $ @ @ # $ $ @ @ + @ # $ $ @ @ @ + $ $ $ + & @ $ @ * = % -   . + @ # @ + $ $ $ % @ @ + @ @ & # @ @ @ + $ $ + @ 1${+I I I I I I I I I I I I I I I I I I I I I I I I I I I I I I I I I I I I I I I I I I I I I I I I I I I I I I I I I I I I I I I I I I I I I I I I I I I 2$!#@ @ + @ # $ $ @ @ @ + $ $ $ + & @ $ @ * = % -   . + ^$I I I I I I I I I I I I I I I I I I I I I I I I I I I I I I I I y @ # $ $ @ @ + @ # $ $ @ @ @ + $ $ $ + & @ $ @ * = % -   . + @ # @ + $ $ $ % @ @ + @ @ & # @ @ @ + $ $ + @ @ @ + @ @ + @ n.I I I I I I I I I I I I I I I I I I I I I I I I I I I I I I I I /.@ # @ + $ $ $ % @ @ + @ @ & # @ @ @ + $ $ + @ @ @ + @ @ + @ @ @ $ @ @ # $ $ @ @ + @ # $ $ @ @ @ + $ $ $ + & @ $ @ * = % -   . + @ # @ + $ $ $ % @ @ + @ @ ",
"  . + @ # @ + $ $ $ % @ @ + @ @ & # @ @ @ + $ $ + @ @ @ + @ @ @ + @ @ $ # @ # $ $ @ + @ @ # $ $ @ @ @ + $ $ $ + & @ $ @ * = % -   . + @ # @ + $ $ $ % @ @ + @ @ & # @ @ @ + $ $ + @ @ R.M+6.I I I I I I I I I I I I I I I I I I I I I I I I I I I I I I I I I I I I I I I I I I I I I I I I I I I I I I I I I I I I I I I I I I I I I I I I I I 3$'@+ @ @ # $ $ @ @ @ + $ $ $ + & @ $ @ * = % -   . + h I I I I I I I I I I I I I I I I I I I I I I I I I I I I I I I I 4$@ # $ $ @ + @ @ # $ $ @ @ @ + $ $ $ + & @ $ @ * = % -   . + @ # @ + $ $ $ % @ @ + @ @ & # @ @ @ + $ $ + @ @ @ + @ @ @ + Z+I I I I I I I I I I I I I I I I I I I I I I I I I I I I I I I I 5$@ # @ + $ $ $ % @ @ + @ @ & # @ @ @ + $ $ + @ @ @ + @ @ @ + @ @ $ # @ # $ $ @ + @ @ # $ $ @ @ @ + $ $ $ + & @ $ @ * = % -   . + @ # @ + $ $ $ % @ @ + @ @ ",
"  . + @ # @ + $ $ $ % @ @ + @ @ & # @ @ @ + $ $ + @ @ @ + @ @ @ + @ @ $ $ @ $ $ @ @ + @ @ # $ $ @ @ @ + $ $ $ + & @ $ @ * = % -   . + @ # @ + $ $ $ % @ @ + @ @ & # @ @ @ + $ $ + @ @ @ + 6$7$[ I I I I I I I I I I I I I I I I I I I I I I I I I I I I I I I I I I I I I I I I I I I I I I I I I I I I I I I I I I I I I I I I I I I I I I I I I x.+ @ @ # $ $ @ @ @ + $ $ $ + & @ $ @ * = % -   . + J.I I I I I I I I I I I I I I I I I I I I I I I I I I I I I I I I i @ $ $ @ @ + @ @ # $ $ @ @ @ + $ $ $ + & @ $ @ * = % -   . + @ # @ + $ $ $ % @ @ + @ @ & # @ @ @ + $ $ + @ @ @ + @ @ @ + 7#I I I I I I I I I I I I I I I I I I I I I I I I I I I I I I I I ,.@ # @ + $ $ $ % @ @ + @ @ & # @ @ @ + $ $ + @ @ @ + @ @ @ + @ @ $ $ @ $ $ @ @ + @ @ # $ $ @ @ @ + $ $ $ + & @ $ @ * = % -   . + @ # @ + $ $ $ % @ @ + @ @ ",
"  . + @ # @ + $ $ $ % @ @ + @ @ & # @ @ @ + $ $ + @ @ @ + @ @ @ + @ @ $ $ $ $ $ @ @ + @ @ # $ $ @ @ @ + $ $ $ + & @ $ @ * = % -   . + @ # @ + $ $ $ % @ @ + @ @ & # @ @ @ + $ $ + @ @ @ + @ @ Q+u.[ I I I I I I I I I I I I I I I I I I I I I I I I I I I I I I I I I I I I I I I I I I I I I I I I I I I I I I I I I I I I I I I I I I I I I I I I 8$@ @ # $ $ @ @ @ + $ $ $ + & @ $ @ * = % -   . + X+I I I I I I I I I I I I I I I I I I I I I I I I I I I I I I I I 9$$ $ $ @ @ + @ @ # $ $ @ @ @ + $ $ $ + & @ $ @ * = % -   . + @ # @ + $ $ $ % @ @ + @ @ & # @ @ @ + $ $ + @ @ @ + @ @ @ + ~.I I I I I I I I I I I I I I I I I I I I I I I I I I I I I I I I 0$@ # @ + $ $ $ % @ @ + @ @ & # @ @ @ + $ $ + @ @ @ + @ @ @ + @ @ $ $ $ $ $ @ @ + @ @ # $ $ @ @ @ + $ $ $ + & @ $ @ * = % -   . + @ # @ + $ $ $ % @ @ + @ @ ",
"  . + @ # @ + $ $ $ % @ @ + @ @ & # @ @ @ + $ $ + @ @ @ + @ @ @ @ + @ @ $ $ $ $ @ @ + @ @ # $ $ @ @ @ + $ $ $ + & @ $ @ * = % -   . + @ # @ + $ $ $ % @ @ + @ @ & # @ @ @ + $ $ + @ @ @ + @ @ @ @ a$b$C@I I I I I I I I I I I I I I I I I I I I I I I I I I I I I I I I I I I I I I I I I I I I I I I I I I I I I I I I I I I I I I I I I I I I I I I.T#@ # $ $ @ @ @ + $ $ $ + & @ $ @ * = % -   . + }.I I I I I I I I I I I I I I I I I I I I I I I I I I I I I I I I c$$ $ $ @ @ + @ @ # $ $ @ @ @ + $ $ $ + & @ $ @ * = % -   . + @ # @ + $ $ $ % @ @ + @ @ & # @ @ @ + $ $ + @ @ @ + @ @ @ @ d$I I I I I I I I I I I I I I I I I I I I I I I I I I I I I I I I 5 @ # @ + $ $ $ % @ @ + @ @ & # @ @ @ + $ $ + @ @ @ + @ @ @ @ + @ @ $ $ $ $ @ @ + @ @ # $ $ @ @ @ + $ $ $ + & @ $ @ * = % -   . + @ # @ + $ $ $ % @ @ + @ @ ",
"  . + @ # @ + $ $ $ % @ @ + @ @ & # @ @ @ + $ $ + @ @ @ + @ @ @ @ + @ @ $ $ @ $ @ @ + @ @ # $ $ @ @ @ + $ $ $ + & @ $ @ * = % -   . + @ # @ + $ $ $ % @ @ + @ @ & # @ @ @ + $ $ + @ @ @ + @ @ @ @ + @ R.).e$[ I I I I I I I I I I I I I I I I I I I I I I I I I I I I I I I I I I I I I I I I I I I I I I I I I I I I I I I I I I I I I I I I I I I I }.@ # $ $ @ @ @ + $ $ $ + & @ $ @ * = % -   . + f$I I I I I I I I I I I I I I I I I I I I I I I I I I I I I I I I e$$ @ $ @ @ + @ @ # $ $ @ @ @ + $ $ $ + & @ $ @ * = % -   . + @ # @ + $ $ $ % @ @ + @ @ & # @ @ @ + $ $ + @ @ @ + @ @ @ @ f I I I I I I I I I I I I I I I I I I I I I I I I I I I I I I I I V+@ # @ + $ $ $ % @ @ + @ @ & # @ @ @ + $ $ + @ @ @ + @ @ @ @ + @ @ $ $ @ $ @ @ + @ @ # $ $ @ @ @ + $ $ $ + & @ $ @ * = % -   . + @ # @ + $ $ $ % @ @ + @ @ ",
"  . + @ # @ + $ $ $ % @ @ + @ @ & # @ @ @ + $ $ + @ @ @ + @ @ @ @ + @ @ $ $ $ $ @ @ + @ @ # $ $ @ @ @ + $ $ $ + & @ $ @ * = % -   . + @ # @ + $ $ $ % @ @ + @ @ & # @ @ @ + $ $ + @ @ @ + @ @ @ @ + @ @ $ $ g$h$i$[ I I I I I I I I I I I I I I I I I I I I I I I I I I I I I I I I I I I I I I I I I I I I I I I I I I I I I I I I I I I I I I I I I 2.@ # $ $ @ @ @ + $ $ $ + & @ $ @ * = % -   . + S I I I I I I I I I I I I I I I I I I I I I I I I I I I I I I I I / $ $ $ @ @ + @ @ # $ $ @ @ @ + $ $ $ + & @ $ @ * = % -   . + @ # @ + $ $ $ % @ @ + @ @ & # @ @ @ + $ $ + @ @ @ + @ @ @ @ )@I I I I I I I I I I I I I I I I I I I I I I I I I I I I I I I I U@@ # @ + $ $ $ % @ @ + @ @ & # @ @ @ + $ $ + @ @ @ + @ @ @ @ + @ @ $ $ $ $ @ @ + @ @ # $ $ @ @ @ + $ $ $ + & @ $ @ * = % -   . + @ # @ + $ $ $ % @ @ + @ @ ",
"  . + @ # @ + $ $ $ % @ @ + @ @ & # @ @ @ + $ $ + @ @ @ + @ @ @ @ + @ @ $ $ $ @ @ @ + @ @ # $ $ @ @ @ + $ $ $ + & @ $ @ * = % -   . + @ # @ + $ $ $ % @ @ + @ @ & # @ @ @ + $ $ + @ @ @ + @ @ @ @ + @ @ $ $ $ @ @ D.j$k$: I I I I I I I I I I I I I I I I I I I I I I I I I I I I I I I I I I I I I I I I I I I I I I I I I I I I I I I I I I I I I I I l$# $ $ @ @ @ + $ $ $ + & @ $ @ * = % -   . + G+I I I I I I I I I I I I I I I I I I I I I I I I I I I I I I I I m$$ $ @ @ @ + @ @ # $ $ @ @ @ + $ $ $ + & @ $ @ * = % -   . + @ # @ + $ $ $ % @ @ + @ @ & # @ @ @ + $ $ + @ @ @ + @ @ @ @ W#I I I I I I I I I I I I I I I I I I I I I I I I I I I I I I I I T.@ # @ + $ $ $ % @ @ + @ @ & # @ @ @ + $ $ + @ @ @ + @ @ @ @ + @ @ $ $ $ @ @ @ + @ @ # $ $ @ @ @ + $ $ $ + & @ $ @ * = % -   . + @ # @ + $ $ $ % @ @ + @ @ ",
"  . + @ # @ + $ $ $ % @ @ + @ @ & # @ @ @ + $ $ + @ @ @ + @ & @ @ + @ @ $ $ $ @ @ @ + @ @ # $ $ @ @ @ + $ $ $ + & @ $ @ * = % -   . + @ # @ + $ $ $ % @ @ + @ @ & # @ @ @ + $ $ + @ @ @ + @ & @ @ + @ @ $ $ $ @ @ @ + @ {@n$I+o$;#I I I I I I I I I I I I I I I I I I I I I I I I I I I I I I I I I I I I I I I I I I I I I I I I I I I I I I I I I I I &@# $ $ @ @ @ + $ $ $ + & @ $ @ * = % -   . + p$I I I I I I I I I I I I I I I I I I I I I I I I I I I I I I I I I q$$ @ @ @ + @ @ # $ $ @ @ @ + $ $ $ + & @ $ @ * = % -   . + @ # @ + $ $ $ % @ @ + @ @ & # @ @ @ + $ $ + @ @ @ + @ & @ @ 3.I I I I I I I I I I I I I I I I I I I I I I I I I I I I I I I I f.@ # @ + $ $ $ % @ @ + @ @ & # @ @ @ + $ $ + @ @ @ + @ & @ @ + @ @ $ $ $ @ @ @ + @ @ # $ $ @ @ @ + $ $ $ + & @ $ @ * = % -   . + @ # @ + $ $ $ % @ @ + @ @ ",
"  . + @ # @ + $ $ $ % @ @ + @ @ & # @ @ @ + $ $ + @ @ @ + @ & @ @ + @ @ @ $ $ @ @ @ + @ @ # $ $ @ @ @ + $ $ $ + & @ $ @ * = % -   . + @ # @ + $ $ $ % @ @ + @ @ & # @ @ @ + $ $ + @ @ @ + @ & @ @ + @ @ @ $ $ @ @ @ + @ @ # $ $ @ r$*+=#^ Q#I I I I I I I I I I I I I I I I I I I I I I I I I I I I I I I I I I I I I I I I I I I I I I I I I I I I I I C.s$$ $ @ @ @ + $ $ $ + & @ $ @ * = % -   . + @ U+I I I I I I I I I I I I I I I I I I I I I I I I I I I I I I I I t$$ @ @ @ + @ @ # $ $ @ @ @ + $ $ $ + & @ $ @ * = % -   . + @ # @ + $ $ $ % @ @ + @ @ & # @ @ @ + $ $ + @ @ @ + @ & @ @ U@I I I I I I I I I I I I I I I I I I I I I I I I I I I I I I I I u$@ # @ + $ $ $ % @ @ + @ @ & # @ @ @ + $ $ + @ @ @ + @ & @ @ + @ @ @ $ $ @ @ @ + @ @ # $ $ @ @ @ + $ $ $ + & @ $ @ * = % -   . + @ # @ + $ $ $ % @ @ + @ @ ",
"  . + @ # @ + $ $ $ % @ @ + @ @ & # @ @ @ + $ $ + @ @ @ + @ & @ @ + @ @ @ $ $ @ @ @ + @ @ # $ $ @ @ @ + $ $ $ + & @ $ @ * = % -   . + @ # @ + $ $ $ % @ @ + @ @ & # @ @ @ + $ $ + @ @ @ + @ & @ @ + @ @ @ $ $ @ @ @ + @ @ # $ $ @ @ @ + $ v$w$)#x$p.I I I I I I I I I I I I I I I I I I I I I I I I I I I I I I I I I I I I I I I I I I I I I I I I I I I y$$ $ @ @ @ + $ $ $ + & @ $ @ * = % -   . + @ N.I I I I I I I I I I I I I I I I I I I I I I I I I I I I I I I I ;+$ @ @ @ + @ @ # $ $ @ @ @ + $ $ $ + & @ $ @ * = % -   . + @ # @ + $ $ $ % @ @ + @ @ & # @ @ @ + $ $ + @ @ @ + @ & @ @ z$I I I I I I I I I I I I I I I I I I I I I I I I I I I I I I I I A$@ # @ + $ $ $ % @ @ + @ @ & # @ @ @ + $ $ + @ @ @ + @ & @ @ + @ @ @ $ $ @ @ @ + @ @ # $ $ @ @ @ + $ $ $ + & @ $ @ * = % -   . + @ # @ + $ $ $ % @ @ + @ @ ",
"  . + @ # @ @ + $ $ % @ @ + @ @ & # @ @ @ + $ $ + @ @ @ + @ & @ @ + @ @ @ $ $ @ @ @ + @ @ # $ $ @ @ @ + $ $ $ + & @ $ @ * = % -   . + @ # @ @ + $ $ % @ @ + @ @ & # @ @ @ + $ $ + @ @ @ + @ & @ @ + @ @ @ $ $ @ @ @ + @ @ # $ $ @ @ @ + $ $ $ + & @ B$C$D$E$F$I I I I I I I I I I I I I I I I I I I I I I I I I I I I I I I I I I I I I I I I I I I I I I G$$ $ @ @ @ + $ $ $ + & @ $ @ * = % -   . + @ H$I I I I I I I I I I I I I I I I I I I I I I I I I I I I I I I I I$$ @ @ @ + @ @ # $ $ @ @ @ + $ $ $ + & @ $ @ * = % -   . + @ # @ @ + $ $ % @ @ + @ @ & # @ @ @ + $ $ + @ @ @ + @ & @ {@`@I I I I I I I I I I I I I I I I I I I I I I I I I I I I I I I I J$@ # @ @ + $ $ % @ @ + @ @ & # @ @ @ + $ $ + @ @ @ + @ & @ @ + @ @ @ $ $ @ @ @ + @ @ # $ $ @ @ @ + $ $ $ + & @ $ @ * = % -   . + @ # @ @ + $ $ % @ @ + @ @ ",
"  . + @ # @ @ + $ $ % @ @ + @ @ & # @ @ @ + $ $ + @ @ @ + @ & @ @ + @ @ @ $ $ @ @ @ + @ @ # $ $ @ @ @ + $ $ $ + & @ $ @ * = % -   . + @ # @ @ + $ $ % @ @ + @ @ & # @ @ @ + $ $ + @ @ @ + @ & @ @ + @ @ @ $ $ @ @ @ + @ @ # $ $ @ @ @ + $ $ $ + & @ $ @ * = K$L$M$N$O$I I I I I I I I I I I I I I I I I I I I I I I I I I I I I I I I I I I I I I I I I I P$$ $ @ @ @ + $ $ $ + & @ $ @ * = % -   . + @ E.I I I I I I I I I I I I I I I I I I I I I I I I I I I I I I I I Q$$ @ @ @ + @ @ # $ $ @ @ @ + $ $ $ + & @ $ @ * = % -   . + @ # @ @ + $ $ % @ @ + @ @ & # @ @ @ + $ $ + @ @ @ + @ & @ R$I I I I I I I I I I I I I I I I I I I I I I I I I I I I I I I I S$T$@ # @ @ + $ $ % @ @ + @ @ & # @ @ @ + $ $ + @ @ @ + @ & @ @ + @ @ @ $ $ @ @ @ + @ @ # $ $ @ @ @ + $ $ $ + & @ $ @ * = % -   . + @ # @ @ + $ $ % @ @ + @ @ ",
"  . + @ # @ @ + $ $ % @ @ @ + @ & # @ @ @ + $ $ + @ @ @ + @ & @ @ + @ @ @ $ $ @ @ @ + @ @ # $ $ @ @ @ + $ $ $ + & @ $ @ * = % -   . + @ # @ @ + $ $ % @ @ @ + @ & # @ @ @ + $ $ + @ @ @ + @ & @ @ + @ @ @ $ $ @ @ @ + @ @ # $ $ @ @ @ + $ $ $ + & @ $ @ * = % -   .  $C$U$C@I I I I I I I I I I I I I I I I I I I I I I I I I I I I I I I I I I I I I I I I v@$ @ @ @ + $ $ $ + & @ $ @ * = % -   . + @ V$I I I I I I I I I I I I I I I I I I I I I I I I I I I I I I I I W$$ @ @ @ + @ @ # $ $ @ @ @ + $ $ $ + & @ $ @ * = % -   . + @ # @ @ + $ $ % @ @ @ + @ & # @ @ @ + $ $ + @ @ @ + @ & @ }.I I I I I I I I I I I I I I I I I I I I I I I I I I I I I I I I X$+ @ # @ @ + $ $ % @ @ @ + @ & # @ @ @ + $ $ + @ @ @ + @ & @ @ + @ @ @ $ $ @ @ @ + @ @ # $ $ @ @ @ + $ $ $ + & @ $ @ * = % -   . + @ # @ @ + $ $ % @ @ @ + @ ",
"  . + @ # @ @ + $ $ % @ @ @ + @ & # @ @ @ @ + $ $ + @ @ + @ & @ @ + @ @ @ $ $ @ @ @ + @ @ # $ $ @ @ @ + $ $ $ + & @ $ @ * = % -   . + @ # @ @ + $ $ % @ @ @ + @ & # @ @ @ @ + $ $ + @ @ + @ & @ @ + @ @ @ $ $ @ @ @ + @ @ # $ $ @ @ @ + $ $ $ + & @ $ @ * = % -   . + @ # '@o@Y$'+I I I I I I I I I I I I I I I I I I I I I I I I I I I I I I I I I I I I I Z$$ @ @ @ + $ $ $ + & @ $ @ * = % -   . + @ `$I I I I I I I I I I I I I I I I I I I I I I I I I I I I I I I I I 7+@ @ @ + @ @ # $ $ @ @ @ + $ $ $ + & @ $ @ * = % -   . + @ # @ @ + $ $ % @ @ @ + @ & # @ @ @ @ + $ $ + @ @ + @ & @ M I I I I I I I I I I I I I I I I I I I I I I I I I I I I I I I I  %+ @ # @ @ + $ $ % @ @ @ + @ & # @ @ @ @ + $ $ + @ @ + @ & @ @ + @ @ @ $ $ @ @ @ + @ @ # $ $ @ @ @ + $ $ $ + & @ $ @ * = % -   . + @ # @ @ + $ $ % @ @ @ + @ ",
"  . + @ # @ @ + $ $ % @ @ @ + @ & # @ @ @ @ + $ $ + @ @ + @ & @ @ + @ @ @ $ $ @ @ @ + @ @ # $ $ @ @ @ + $ $ $ + & @ $ @ * = % -   . + @ # @ @ + $ $ % @ @ @ + @ & # @ @ @ @ + $ $ + @ @ + @ & @ @ + @ @ @ $ $ @ @ @ + @ @ # $ $ @ @ @ + $ $ $ + & @ $ @ * = % -   . + @ # @ @ + ' .%+%I I I I I I I I I I I I I I I I I I I I I I I I I I I I I I I I I I I ^@$ @ @ @ + $ $ $ + & @ $ @ * = % -   . + @ @%I I I I I I I I I I I I I I I I I I I I I I I I I I I I I I I I I #%@ @ @ + @ @ # $ $ @ @ @ + $ $ $ + & @ $ @ * = % -   . + @ # @ @ + $ $ % @ @ @ + @ & # @ @ @ @ + $ $ + @ @ + @ & @ G#I I I I I I I I I I I I I I I I I I I I I I I I I I I I I I I I $%+ @ # @ @ + $ $ % @ @ @ + @ & # @ @ @ @ + $ $ + @ @ + @ & @ @ + @ @ @ $ $ @ @ @ + @ @ # $ $ @ @ @ + $ $ $ + & @ $ @ * = % -   . + @ # @ @ + $ $ % @ @ @ + @ ",
"  . + @ # @ @ + $ $ % @ @ @ + @ & # @ @ @ @ + $ $ + @ @ + @ & @ @ + @ @ @ $ $ @ @ @ + @ @ # $ $ @ @ @ + $ $ $ + & @ $ @ * = % -   . + @ # @ @ + $ $ % @ @ @ + @ & # @ @ @ @ + $ $ + @ @ + @ & @ @ + @ @ @ $ $ @ @ @ + @ @ # $ $ @ @ @ + $ $ $ + & @ $ @ * = % -   . + @ # @ @ + $ $ %%(.I I I I I I I I I I I I I I I I I I I I I I I I I I I I I I I I I I t+$ @ @ @ + $ $ $ + & @ $ @ * = % -   . + @ # &%I I I I I I I I I I I I I I I I I I I I I I I I I I I I I I I I Q.@ @ @ + @ @ # $ $ @ @ @ + $ $ $ + & @ $ @ * = % -   . + @ # @ @ + $ $ % @ @ @ + @ & # @ @ @ @ + $ $ + @ @ + @ & q@@@I I I I I I I I I I I I I I I I I I I I I I I I I I I I I I I I *%+ @ # @ @ + $ $ % @ @ @ + @ & # @ @ @ @ + $ $ + @ @ + @ & @ @ + @ @ @ $ $ @ @ @ + @ @ # $ $ @ @ @ + $ $ $ + & @ $ @ * = % -   . + @ # @ @ + $ $ % @ @ @ + @ ",
"  . + @ # @ @ + $ $ % @ @ @ + @ & # @ @ @ @ + $ $ + @ @ + @ & @ @ + @ @ @ $ $ @ @ @ + @ @ # $ $ @ @ @ + $ $ $ + & @ $ @ * = % -   . + @ # @ @ + $ $ % @ @ @ + @ & # @ @ @ @ + $ $ + @ @ + @ & @ @ + @ @ @ $ $ @ @ @ + @ @ # $ $ @ @ @ + $ $ $ + & @ $ @ * = % -   . + @ # @ @ + $ $ % T#y#I I I I I I I I I I I I I I I I I I I I I I I I I I I I I I I I I f@$ @ @ @ + $ $ $ + & @ $ @ * = % -   . + @ # =%I I I I I I I I I I I I I I I I I I I I I I I I I I I I I I I I W$@ @ @ + @ @ # $ $ @ @ @ + $ $ $ + & @ $ @ * = % -   . + @ # @ @ + $ $ % @ @ @ + @ & # @ @ @ @ + $ $ + @ @ + @ & }.I I I I I I I I I I I I I I I I I I I I I I I I I I I I I I I I I -%+ @ # @ @ + $ $ % @ @ @ + @ & # @ @ @ @ + $ $ + @ @ + @ & @ @ + @ @ @ $ $ @ @ @ + @ @ # $ $ @ @ @ + $ $ $ + & @ $ @ * = % -   . + @ # @ @ + $ $ % @ @ @ + @ ",
"  . + @ # @ @ + $ $ % @ @ @ + @ & # @ @ @ @ + $ $ + @ @ + @ & @ @ + @ @ @ $ $ @ @ @ + @ @ # $ $ @ @ @ + $ $ $ + & @ $ @ * = % -   . + @ # @ @ + $ $ % @ @ @ + @ & # @ @ @ @ + $ $ + @ @ + @ & @ @ + @ @ @ $ $ @ @ @ + @ @ # $ $ @ @ @ + $ $ $ + & @ $ @ * = % -   . + @ # @ @ + $ $ % @ @ x.I I I I I I I I I I I I I I I I I I I I I I I I I I I I I I I I ;%$ @ @ @ + $ $ $ + & @ $ @ * = % -   . + @ # )+I I I I I I I I I I I I I I I I I I I I I I I I I I I I I I I I I Q+@ @ + @ @ # $ $ @ @ @ + $ $ $ + & @ $ @ * = % -   . + @ # @ @ + $ $ % @ @ @ + @ & # @ @ @ @ + $ $ + @ @ + @ & j I I I I I I I I I I I I I I I I I I I I I I I I I I I I I I I I >%. + @ # @ @ + $ $ % @ @ @ + @ & # @ @ @ @ + $ $ + @ @ + @ & @ @ + @ @ @ $ $ @ @ @ + @ @ # $ $ @ @ @ + $ $ $ + & @ $ @ * = % -   . + @ # @ @ + $ $ % @ @ @ + @ ",
"  . + @ # @ @ + $ $ % @ @ @ + @ & # @ @ @ @ + $ $ + @ @ + @ & @ @ @ + @ @ $ $ @ @ @ + @ @ # $ $ @ @ @ + $ $ $ + & @ $ @ * = % -   . + @ # @ @ + $ $ % @ @ @ + @ & # @ @ @ @ + $ $ + @ @ + @ & @ @ @ + @ @ $ $ @ @ @ + @ @ # $ $ @ @ @ + $ $ $ + & @ $ @ * = % -   . + @ # @ @ + $ $ % @ @ @ ,%I I I I I I I I I I I I I I I I I I I I I I I I I I I I I I I '%$ @ @ @ + $ $ $ + & @ $ @ * = % -   . + @ # B I I I I I I I I I I I I I I I I I I I I I I I I I I I I I I I I I D#@ @ + @ @ # $ $ @ @ @ + $ $ $ + & @ $ @ * = % -   . + @ # @ @ + $ $ % @ @ @ + @ & # @ @ @ @ + $ $ + @ @ + @ )%1.I I I I I I I I I I I I I I I I I I I I I I I I I I I I I I I I !%. + @ # @ @ + $ $ % @ @ @ + @ & # @ @ @ @ + $ $ + @ @ + @ & @ @ @ + @ @ $ $ @ @ @ + @ @ # $ $ @ @ @ + $ $ $ + & @ $ @ * = % -   . + @ # @ @ + $ $ % @ @ @ + @ ",
"  . + @ # @ @ + $ $ % @ @ @ + @ & # @ @ @ @ + $ $ + @ @ + @ & @ @ @ + @ @ $ $ @ @ @ + @ @ # $ $ @ @ @ + $ $ $ + & @ $ @ * = % -   . + @ # @ @ + $ $ % @ @ @ + @ & # @ @ @ @ + $ $ + @ @ + @ & @ @ @ + @ @ $ $ @ @ @ + @ @ # $ $ @ @ @ + $ $ $ + & @ $ @ * = % -   . + @ # @ @ + $ $ % @ @ @ ~%[ I I I I I I I I I I I I I I I I I I I I I I I I I I I I I I {%$ @ @ @ + $ $ $ + & @ $ @ * = % -   . + @ # @ ]%I I I I I I I I I I I I I I I I I I I I I I I I I I I I I I I I ^+@ @ + @ @ # $ $ @ @ @ + $ $ $ + & @ $ @ * = % -   . + @ # @ @ + $ $ % @ @ @ + @ & # @ @ @ @ + $ $ + @ @ + @ ^%I I I I I I I I I I I I I I I I I I I I I I I I I I I I I I I I I /%. + @ # @ @ + $ $ % @ @ @ + @ & # @ @ @ @ + $ $ + @ @ + @ & @ @ @ + @ @ $ $ @ @ @ + @ @ # $ $ @ @ @ + $ $ $ + & @ $ @ * = % -   . + @ # @ @ + $ $ % @ @ @ + @ ",
"  . + @ # @ @ + $ $ % @ @ @ + @ & # @ @ @ @ + $ $ + @ @ + @ & @ @ @ + @ @ $ $ @ @ @ + @ @ # $ $ @ @ @ + $ $ $ + & @ $ @ * = % -   . + @ # @ @ + $ $ % @ @ @ + @ & # @ @ @ @ + $ $ + @ @ + @ & @ @ @ + @ @ $ $ @ @ @ + @ @ # $ $ @ @ @ + $ $ $ + & @ $ @ * = % -   . + @ # @ @ + $ $ % @ @ @ + r.I I I I I I I I I I I I I I I I I I I I I I I I I I I I I I @.$ @ @ @ + $ $ $ + & @ $ @ * = % -   . + @ # @ 8 I I I I I I I I I I I I I I I I I I I I I I I I I I I I I I I I I l$@ + @ @ # $ $ @ @ @ + $ $ $ + & @ $ @ * = % -   . + @ # @ @ + $ $ % @ @ @ + @ & # @ @ @ @ + $ $ + @ @ + @ (%I I I I I I I I I I I I I I I I I I I I I I I I I I I I I I I I _%:%. + @ # @ @ + $ $ % @ @ @ + @ & # @ @ @ @ + $ $ + @ @ + @ & @ @ @ + @ @ $ $ @ @ @ + @ @ # $ $ @ @ @ + $ $ $ + & @ $ @ * = % -   . + @ # @ @ + $ $ % @ @ @ + @ ",
"  . + @ # @ @ + $ $ % @ @ @ + @ & # @ @ @ @ + $ $ + @ @ + @ & @ @ @ + @ @ $ $ @ @ @ + @ @ # $ $ @ @ @ + $ $ $ + & @ $ @ * = % -   . + @ # @ @ + $ $ % @ @ @ + @ & # @ @ @ @ + $ $ + @ @ + @ & @ @ @ + @ @ $ $ @ @ @ + @ @ # $ $ @ @ @ + $ $ $ + & @ $ @ * = % -   . + @ # @ @ + $ $ % @ @ @ + <%I I I I I I I I I I I I I I I I I I I I I I I I I I I I I I V $ @ @ @ + $ $ $ + & @ $ @ * = % -   . + @ # @ *+I I I I I I I I I I I I I I I I I I I I I I I I I I I I I I I I I 7$@ + @ @ # $ $ @ @ @ + $ $ $ + & @ $ @ * = % -   . + @ # @ @ + $ $ % @ @ @ + @ & # @ @ @ @ + $ $ + @ @ + i+I I I I I I I I I I I I I I I I I I I I I I I I I I I I I I I I I [%  . + @ # @ @ + $ $ % @ @ @ + @ & # @ @ @ @ + $ $ + @ @ + @ & @ @ @ + @ @ $ $ @ @ @ + @ @ # $ $ @ @ @ + $ $ $ + & @ $ @ * = % -   . + @ # @ @ + $ $ % @ @ @ + @ ",
"  . + @ # @ @ + $ $ % @ @ @ + @ & # @ @ @ @ + $ + @ @ @ + @ @ @ @ @ + @ @ $ & @ @ + @ @ @ # $ $ @ @ @ + $ $ $ + & @ $ @ * = % -   . + @ # @ @ + $ $ % @ @ @ + @ & # @ @ @ @ + $ + @ @ @ + @ @ @ @ @ + @ @ $ & @ @ + @ @ @ # $ $ @ @ @ + $ $ $ + & @ $ @ * = % -   . + @ # @ @ + $ $ % @ @ @ + w.I I I I I I I I I I I I I I I I I I I I I I I I I I I I I I z#$ @ @ @ + $ $ $ + & @ $ @ * = % -   . + @ # @ 8+}%I I I I I I I I I I I I I I I I I I I I I I I I I I I I I I I I q.J$@ @ @ # $ $ @ @ @ + $ $ $ + & @ $ @ * = % -   . + @ # @ @ + $ $ % @ @ @ + @ & # @ @ @ @ + $ + @ @ @ + |%I I I I I I I I I I I I I I I I I I I I I I I I I I I I I I I I I 1%  . + @ # @ @ + $ $ % @ @ @ + @ & # @ @ @ @ + $ + @ @ @ + @ @ @ @ @ + @ @ $ & @ @ + @ @ @ # $ $ @ @ @ + $ $ $ + & @ $ @ * = % -   . + @ # @ @ + $ $ % @ @ @ + @ ",
"  . + @ # @ @ + $ $ % @ @ @ + @ & # @ @ @ + $ $ + @ @ @ + @ @ @ @ @ + @ @ $ & @ @ @ + @ @ # $ $ & @ @ + $ $ $ + & @ $ @ * = % -   . + @ # @ @ + $ $ % @ @ @ + @ & # @ @ @ + $ $ + @ @ @ + @ @ @ @ @ + @ @ $ & @ @ @ + @ @ # $ $ & @ @ + $ $ $ + & @ $ @ * = % -   . + @ # @ @ + $ $ % @ @ @ + @ 2%I I I I I I I I I I I I I I I I I I I I I I I I I I I I I {%$ & @ @ + $ $ $ + & @ $ @ * = % -   . + @ # @ @ 3%I I I I I I I I I I I I I I I I I I I I I I I I I I I I I I I I I 4%+ @ @ # $ $ & @ @ + $ $ $ + & @ $ @ * = % -   . + @ # @ @ + $ $ % @ @ @ + @ & # @ @ @ + $ $ + @ @ @ a$q.I I I I I I I I I I I I I I I I I I I I I I I I I I I I I I I I I Y@  . + @ # @ @ + $ $ % @ @ @ + @ & # @ @ @ + $ $ + @ @ @ + @ @ @ @ @ + @ @ $ & @ @ @ + @ @ # $ $ & @ @ + $ $ $ + & @ $ @ * = % -   . + @ # @ @ + $ $ % @ @ @ + @ ",
"  . + @ # @ @ + $ $ % @ @ @ + @ & # @ @ @ + $ $ + @ @ @ + @ @ @ @ @ + @ @ $ $ @ @ @ + @ @ # $ $ & @ @ + $ $ $ + & @ $ @ * = % -   . + @ # @ @ + $ $ % @ @ @ + @ & # @ @ @ + $ $ + @ @ @ + @ @ @ @ @ + @ @ $ $ @ @ @ + @ @ # $ $ & @ @ + $ $ $ + & @ $ @ * = % -   . + @ # @ @ + $ $ % @ @ @ + @ 5%I I I I I I I I I I I I I I I I I I I I I I I I I I I I I w@$ & @ @ + $ $ $ + & @ $ @ * = % -   . + @ # @ @ 6%I I I I I I I I I I I I I I I I I I I I I I I I I I I I I I I I I @@d$@ @ # $ $ & @ @ + $ $ $ + & @ $ @ * = % -   . + @ # @ @ + $ $ % @ @ @ + @ & # @ @ @ + $ $ + @ @ @ 7%I I I I I I I I I I I I I I I I I I I I I I I I I I I I I I I I I 8%-   . + @ # @ @ + $ $ % @ @ @ + @ & # @ @ @ + $ $ + @ @ @ + @ @ @ @ @ + @ @ $ $ @ @ @ + @ @ # $ $ & @ @ + $ $ $ + & @ $ @ * = % -   . + @ # @ @ + $ $ % @ @ @ + @ ",
"  . + @ # @ @ + $ $ % @ @ @ + @ & # @ @ @ + $ $ + @ @ @ + @ @ @ @ + @ @ @ @ $ $ @ @ + @ @ # $ $ & @ @ + $ $ $ + & @ $ @ * = % -   . + @ # @ @ + $ $ % @ @ @ + @ & # @ @ @ + $ $ + @ @ @ + @ @ @ @ + @ @ @ @ $ $ @ @ + @ @ # $ $ & @ @ + $ $ $ + & @ $ @ * = % -   . + @ # @ @ + $ $ % @ @ @ + @ 9%I I I I I I I I I I I I I I I I I I I I I I I I I I I I I 0%$ & @ @ + $ $ $ + & @ $ @ * = % -   . + @ # @ @ a%z#I I I I I I I I I I I I I I I I I I I I I I I I I I I I I I I I I Y$@ @ # $ $ & @ @ + $ $ $ + & @ $ @ * = % -   . + @ # @ @ + $ $ % @ @ @ + @ & # @ @ @ + $ $ + @ @ b%I I I I I I I I I I I I I I I I I I I I I I I I I I I I I I I I I I c%-   . + @ # @ @ + $ $ % @ @ @ + @ & # @ @ @ + $ $ + @ @ @ + @ @ @ @ + @ @ @ @ $ $ @ @ + @ @ # $ $ & @ @ + $ $ $ + & @ $ @ * = % -   . + @ # @ @ + $ $ % @ @ @ + @ ",
"  . + @ # @ @ + $ $ % @ @ + @ @ & # @ @ @ + $ $ + @ @ @ + @ @ @ + @ @ + @ @ $ $ @ @ + @ @ # $ $ & @ @ + $ $ $ + & @ $ @ * = % -   . + @ # @ @ + $ $ % @ @ + d%}.|+# @ @ @ + $ $ + @ @ @ + @ @ @ + @ @ + @ @ $ $ @ @ + @ @ # $ $ & @ @ + $ $ $ + & @ $ @ * = % -   . + @ # @ @ + $ $ % @ @ + @ @ e%I I I I I I I I I I I I I I I I I I I I I I I I I I I I I v $ & @ @ + $ $ $ + & @ $ @ * = % -   . + @ # @ @ + f%I I I I I I I I I I I I I I I I I I I I I I I I I I I I I I I I I I g+@ # $ $ & @ @ + $ $ $ + & @ $ @ * = % -   . + @ # @ @ + $ $ % @ @ + @ @ & # @ @ @ + $ $ + @ '@2.I I I I I I I I I I I I I I I I I I I I I I I I I I I I I I I I I g%O@-   . + @ # @ @ + $ $ % @ @ + @ @ & # @ @ @ + $ $ + @ @ @ + @ @ @ + @ @ + @ @ $ $ @ @ + @ @ # $ $ & @ @ + $ $ $ + & @ $ @ * = % -   . + @ # @ @ + $ $ % @ @ + @ @ ",
"  . + @ # @ @ + $ $ % @ @ + @ @ & # @ @ @ + $ $ + @ @ @ + @ @ @ + @ @ + + @ $ $ @ @ + @ @ # $ $ & @ @ + $ $ $ + & @ $ @ * = % -   . + @ # @ @ + $ $ % @ @ + L I h%i%@ @ @ + $ $ + @ @ @ + @ @ @ + @ @ + + @ $ $ @ @ + @ @ # $ $ & @ @ + $ $ $ + & @ $ @ * = % -   . + @ # @ @ + $ $ % @ @ + @ {@j%I I I I I I I I I I I I I I I I I I I I I I I I I I I I I o$$ & @ @ + $ $ $ + & @ $ @ * = % -   . + @ # @ @ + 3+I I I I I I I I I I I I I I I I I I I I I I I I I I I I I I I I I I s ~.# $ $ & @ @ + $ $ $ + & @ $ @ * = % -   . + @ # @ @ + $ $ % @ @ + @ @ & # @ @ @ + $ $ + @ y#I I I I I I I I I I I I I I I I I I I I I I I I I I I I I I I I I I k%% -   . + @ # @ @ + $ $ % @ @ + @ @ & # @ @ @ + $ $ + @ @ @ + @ @ @ + @ @ + + @ $ $ @ @ + @ @ # $ $ & @ @ + $ $ $ + & @ $ @ * = % -   . + @ # @ @ + $ $ % @ @ + @ @ ",
"  . + @ # @ @ + $ $ % @ @ + @ @ & # @ @ @ + $ $ + @ @ @ + @ @ @ + @ @ + + @ $ $ @ @ + @ @ # $ $ & @ @ + $ $ $ + & @ $ @ * = % -   . + @ # @ @ + $ $ % @ @ + L I I I G#l%@ + $ $ + @ @ @ + @ @ @ + @ @ + + @ $ $ @ @ + @ @ # $ $ & @ @ + $ $ $ + & @ $ @ * = % -   . + @ # @ @ + $ $ % @ @ + @ ~#I I I I I I I I I I I I I I I I I I I I I I I I I I I I I I m%$ & @ @ + $ $ $ + & @ $ @ * = % -   . + @ # @ @ + $ /@I I I I I I I I I I I I I I I I I I I I I I I I I I I I I I I I I I L+$@$ $ & @ @ + $ $ $ + & @ $ @ * = % -   . + @ # @ @ + $ $ % @ @ + @ @ & # @ @ @ + $ $ + n%@@I I I I I I I I I I I I I I I I I I I I I I I I I I I I I I I I I I o%% -   . + @ # @ @ + $ $ % @ @ + @ @ & # @ @ @ + $ $ + @ @ @ + @ @ @ + @ @ + + @ $ $ @ @ + @ @ # $ $ & @ @ + $ $ $ + & @ $ @ * = % -   . + @ # @ @ + $ $ % @ @ + @ @ ",
"  . + @ # @ @ + $ $ % @ @ + @ @ & # @ @ @ @ + $ + @ @ @ + @ @ + @ @ + @ + @ $ $ @ @ + @ @ # $ $ & @ @ + $ $ $ + & @ $ @ * = % -   . + @ # @ @ + $ $ % @ @ + L I I I I I :+b@[$$ + @ @ @ + @ @ + @ @ + @ + @ $ $ @ @ + @ @ # $ $ & @ @ + $ $ $ + & @ $ @ * = % -   . + @ # @ @ + $ $ % @ @ + @ 9.I I I I I I I I I I I I I I I I I I I I I I I I I I I I I I p%$ & @ @ + $ $ $ + & @ $ @ * = % -   . + @ # @ @ + $ q%I I I I I I I I I I I I I I I I I I I I I I I I I I I I I I I I I I I r%$ $ & @ @ + $ $ $ + & @ $ @ * = % -   . + @ # @ @ + $ $ % @ @ + @ @ & # @ @ @ @ + $ a$: I I I I I I I I I I I I I I I I I I I I I I I I I I I I I I I I I I k = % -   . + @ # @ @ + $ $ % @ @ + @ @ & # @ @ @ @ + $ + @ @ @ + @ @ + @ @ + @ + @ $ $ @ @ + @ @ # $ $ & @ @ + $ $ $ + & @ $ @ * = % -   . + @ # @ @ + $ $ % @ @ + @ @ ",
"  . + @ # @ @ + $ $ % @ @ + @ @ & # @ @ @ @ + $ + @ @ @ + @ @ + @ @ + @ + @ & $ @ @ + @ @ # $ $ & @ @ + $ $ $ + & @ $ @ * = % -   . + @ # @ @ + $ $ % @ @ + L I I I I I I I s%u@ $@ @ @ + @ @ + @ @ + @ + @ & $ @ @ + @ @ # $ $ & @ @ + $ $ $ + & @ $ @ * = % -   . + @ # @ @ + $ $ % @ @ + T#^+I I I I I I I I I I I I I I I I I I I I I I I I I I I I I I t%$ & @ @ + $ $ $ + & @ $ @ * = % -   . + @ # @ @ + $ , u%I I I I I I I I I I I I I I I I I I I I I I I I I I I I I I I I I I I v%$ & @ @ + $ $ $ + & @ $ @ * = % -   . + @ # @ @ + $ $ % @ @ + @ @ & # @ @ @ @ + =+0$I I I I I I I I I I I I I I I I I I I I I I I I I I I I I I I I I I I w%= % -   . + @ # @ @ + $ $ % @ @ + @ @ & # @ @ @ @ + $ + @ @ @ + @ @ + @ @ + @ + @ & $ @ @ + @ @ # $ $ & @ @ + $ $ $ + & @ $ @ * = % -   . + @ # @ @ + $ $ % @ @ + @ @ ",
"  . + @ # @ @ + $ $ % @ @ + @ @ & # @ @ @ @ + $ + @ @ @ + @ + @ @ @ + # + @ @ $ @ @ + @ @ # $ $ & @ @ + $ $ $ + & @ $ @ * = % -   . + @ # @ @ + $ $ % @ @ + L I I I I I I I I I /.y#r$@ + @ + @ @ @ + # + @ @ $ @ @ + @ @ # $ $ & @ @ + $ $ $ + & @ $ @ * = % -   . + @ # @ @ + $ $ % @ @ + 4@I I I I I I I I I I I I I I I I I I I I I I I I I I I I I I I *.$ & @ @ + $ $ $ + & @ $ @ * = % -   . + @ # @ @ + $ $ a#I I I I I I I I I I I I I I I I I I I I I I I I I I I I I I I I I I I '+v%& @ @ + $ $ $ + & @ $ @ * = % -   . + @ # @ @ + $ $ % @ @ + @ @ & # @ @ @ @ x%y%I I I I I I I I I I I I I I I I I I I I I I I I I I I I I I I I I I I z%* = % -   . + @ # @ @ + $ $ % @ @ + @ @ & # @ @ @ @ + $ + @ @ @ + @ + @ @ @ + # + @ @ $ @ @ + @ @ # $ $ & @ @ + $ $ $ + & @ $ @ * = % -   . + @ # @ @ + $ $ % @ @ + @ @ ",
"  . + @ # @ @ + $ $ % @ @ + @ @ & # @ @ @ @ + $ + @ @ @ + @ + @ @ @ + # @ + @ $ & @ + @ @ # $ $ & @ @ + $ $ $ + & @ $ @ * = % -   . + @ # @ @ + $ $ % @ @ + L I I I I I I I I I I I [ A%B%n.+ @ @ @ + # @ + @ $ & @ + @ @ # $ $ & @ @ + $ $ $ + & @ $ @ * = % -   . + @ # @ @ + $ $ % @ @ J$s I I I I I I I I I I I I I I I I I I I I I I I I I I I I I I C%$ $ & @ @ + $ $ $ + & @ $ @ * = % -   . + @ # @ @ + $ $ % D%I I I I I I I I I I I I I I I I I I I I I I I I I I I I I I I I I I I I E%@ @ + $ $ $ + & @ $ @ * = % -   . + @ # @ @ + $ $ % @ @ + @ @ & # @ @ @ ` !+I I I I I I I I I I I I I I I I I I I I I I I I I I I I I I I I I I I I s.* = % -   . + @ # @ @ + $ $ % @ @ + @ @ & # @ @ @ @ + $ + @ @ @ + @ + @ @ @ + # @ + @ $ & @ + @ @ # $ $ & @ @ + $ $ $ + & @ $ @ * = % -   . + @ # @ @ + $ $ % @ @ + @ @ ",
"  . + @ # @ @ + $ $ % @ @ + @ @ & # @ @ @ @ + $ + @ @ @ + @ + @ @ % @ # @ + @ $ $ @ + @ @ # $ $ & @ @ + $ $ $ + & @ $ @ * = % -   . + @ # @ @ + $ $ % @ @ + L I I I I I I I I I I I I I I Z#F%G+@ % @ # @ + @ $ $ @ + @ @ # $ $ & @ @ + $ $ $ + & @ $ @ * = % -   . + @ # @ @ + $ $ % @ d G%I I I I I I I I I I I I I I I I I I I I I I I I I I I I I I I 1+$ $ & @ @ + $ $ $ + & @ $ @ * = % -   . + @ # @ @ + $ $ % h.I I I I I I I I I I I I I I I I I I I I I I I I I I I I I I I I I I I I I 7@8++ $ $ $ + & @ $ @ * = % -   . + @ # @ @ + $ $ % @ @ + @ @ & # @ @ l%H%I I I I I I I I I I I I I I I I I I I I I I I I I I I I I I I I I I I I I%@ * = % -   . + @ # @ @ + $ $ % @ @ + @ @ & # @ @ @ @ + $ + @ @ @ + @ + @ @ % @ # @ + @ $ $ @ + @ @ # $ $ & @ @ + $ $ $ + & @ $ @ * = % -   . + @ # @ @ + $ $ % @ @ + @ @ ",
"  . + @ # @ @ + $ $ % @ @ + @ @ & # @ @ @ @ + $ + @ @ @ + @ + @ @ % @ # @ + @ $ $ @ + @ @ # $ $ & @ @ + $ $ $ + & @ $ @ * = % -   . + @ # @ @ + $ $ % @ @ + L I I I I I I I I I I I I I I I I I F.l.G+# @ + @ $ $ @ + @ @ # $ $ & @ @ + $ $ $ + & @ $ @ * = % -   . + @ # @ @ + $ $ % ~#&%I I I I I I I I I I I I I I I I I I I I I I I I I I I I I I I I J%$ $ & @ @ + $ $ $ + & @ $ @ * = % -   . + @ # @ @ + $ $ % @ d@I I I I I I I I I I I I I I I I I I I I I I I I I I I I I I I I I I I I I K%L%$ $ $ + & @ $ @ * = % -   . + @ # @ @ + $ $ % @ @ + @ @ & # P+b$I I I I I I I I I I I I I I I I I I I I I I I I I I I I I I I I I I I I I C.' @ * = % -   . + @ # @ @ + $ $ % @ @ + @ @ & # @ @ @ @ + $ + @ @ @ + @ + @ @ % @ # @ + @ $ $ @ + @ @ # $ $ & @ @ + $ $ $ + & @ $ @ * = % -   . + @ # @ @ + $ $ % @ @ + @ @ ",
"  . + @ # @ @ + $ $ % @ @ + @ @ & # @ @ @ @ + $ + @ @ @ + @ + @ @ % @ # @ + @ @ $ @ + @ @ # $ $ & @ @ + $ $ $ + & @ $ @ * = % -   . + @ # @ @ + $ $ % @ @ + L I I I I I I I I I I I I I I I I I I I I M%N%O%T#@ $ @ + @ @ # $ $ & @ @ + $ $ $ + & @ $ @ * = % -   . + @ # @ @ + $ #+P%J I I I I I I I I I I I I I I I I I I I I I I I I I I I I I I I I I Q%$ $ & @ @ + $ $ $ + & @ $ @ * = % -   . + @ # @ @ + $ $ % @ w.<$I I I I I I I I I I I I I I I I I I I I I I I I I I I I I I I I I I I I I Y.R%S%$ + & @ $ @ * = % -   . + @ # @ @ + $ $ % @ @ + @ @ |+T%p.I I I I I I I I I I I I I I I I I I I I I I I I I I I I I I I I I I I I I I U%$ @ * = % -   . + @ # @ @ + $ $ % @ @ + @ @ & # @ @ @ @ + $ + @ @ @ + @ + @ @ % @ # @ + @ @ $ @ + @ @ # $ $ & @ @ + $ $ $ + & @ $ @ * = % -   . + @ # @ @ + $ $ % @ @ + @ @ ",
"  . + @ # @ @ + $ $ % @ @ + @ @ & # @ @ @ @ + $ + @ @ @ + @ + @ @ % @ @ @ @ % @ $ @ + @ @ # $ $ & @ @ + $ $ $ + & @ $ @ * = % -   . + @ # @ @ + $ $ % @ @ + L I I I I I I I I I I I I I I I I I I I I I I I V%k$W%P + @ @ # $ $ & @ @ + $ $ $ + & @ $ @ * = % -   . + @ # @ @ E+X%Y%I I I I I I I I I I I I I I I I I I I I I I I I I I I I I I I I I I ;#a@$ $ & @ @ + $ $ $ + & @ $ @ * = % -   . + @ # @ @ + $ $ % @ @ Z%I I I I I I I I I I I I I I I I I I I I I I I I I I I I I I I I I I I I I I I < i ,$& @ $ @ * = % -   . + @ # @ @ + $ $ % @ @ + R.b+`%I I I I I I I I I I I I I I I I I I I I I I I I I I I I I I I I I I I I I I I  &'@$ @ * = % -   . + @ # @ @ + $ $ % @ @ + @ @ & # @ @ @ @ + $ + @ @ @ + @ + @ @ % @ @ @ @ % @ $ @ + @ @ # $ $ & @ @ + $ $ $ + & @ $ @ * = % -   . + @ # @ @ + $ $ % @ @ + @ @ ",
"  . + @ # @ @ + $ $ % @ @ + @ @ & # @ @ @ @ + $ + @ @ @ + @ + @ @ % @ % # @ % @ $ @ + @ @ # $ $ & @ @ + $ $ $ + & @ $ @ * = % -   . + @ # @ @ + $ $ % @ @ + L I I I I I I I I I I I I I I I I I I I I I I I I I I I t 8.D#.&e $ & @ @ + $ $ $ + & @ $ @ * = % -   . + @ @%G.*$($I I I I I I I I I I I I I I I I I I I I I I I I I I I I I I I I I I I I b$# $ $ & @ @ + $ $ $ + & @ $ @ * = % -   . + @ # @ @ + $ $ % @ @ + K.I I I I I I I I I I I I I I I I I I I I I I I I I I I I I I I I I I I I I I I I I +&! !#@ * = % -   . + @ # @ @ + $ $ % Z+c.@&C@I I I I I I I I I I I I I I I I I I I I I I I I I I I I I I I I I I I I I I I I (@#&@ $ @ * = % -   . + @ # @ @ + $ $ % @ @ + @ @ & # @ @ @ @ + $ + @ @ @ + @ + @ @ % @ % # @ % @ $ @ + @ @ # $ $ & @ @ + $ $ $ + & @ $ @ * = % -   . + @ # @ @ + $ $ % @ @ + @ @ ",
"  . + @ # @ @ + $ $ % @ @ + @ @ & # @ @ @ @ + $ + @ @ @ + @ + @ % # @ % % @ % @ $ @ + @ @ # $ $ & @ @ + $ $ $ + & @ $ @ * = % -   . + @ # @ @ + $ $ % @ @ + L I I I I I I I I I I I I I I I I I I I I I I I I I I I I I I I I $&(%F Y %&z@3+Y+w+&&R., Q *&=&-&;&>&,&$+G#}+I I I I I I I I I I I I I I I I I I I I I I I I I I I I I I I I I I I I I I I '&# $ $ & @ @ + $ $ $ + & @ $ @ * = % -   . + @ # @ @ + $ $ % @ @ + r$: I I I I I I I I I I I I I I I I I I I I I I I I I I I I I I I I I I I I I I I I I I I r#)&!&~&B+{&-%]&{@@%~.P A$p%^&/&6.I I I I I I I I I I I I I I I I I I I I I I I I I I I I I I I I I I I I I I I I I I I (&& @ $ @ * = % -   . + @ # @ @ + $ $ % @ @ + @ @ & # @ @ @ @ + $ + @ @ @ + @ + @ % # @ % % @ % @ $ @ + @ @ # $ $ & @ @ + $ $ $ + & @ $ @ * = % -   . + @ # @ @ + $ $ % @ @ + @ @ ",
"  . + @ # @ @ + $ $ % @ @ + @ @ & # @ @ @ @ + $ + @ @ @ + @ + @ % @ % % ; % @ % @ & + @ @ # $ $ & @ @ + $ $ $ + & @ $ @ * = % -   . + @ # @ @ + $ $ % @ @ + L I I I I I I I I I I I I I I I I I I I I I I I I I I I I I I I I I I I I I I I I I I I I I I I I I I I I I I I I I I I I I I I I I I I I I I I I I I I I I I I I I I I I I I I I I I I I K%T## $ $ & @ @ + $ $ $ + & @ $ @ * = % -   . + @ # @ @ + $ $ % @ @ + @ A I I I I I I I I I I I I I I I I I I I I I I I I I I I I I I I I I I I I I I I I I I I I I I I I I I I I I I I I I I I I I I I I I I I I I I I I I I I I I I I I I I I I I I I I I I I I I I I I I I I I I I -+a+& @ $ @ * = % -   . + @ # @ @ + $ $ % @ @ + @ @ & # @ @ @ @ + $ + @ @ @ + @ + @ % @ % % ; % @ % @ & + @ @ # $ $ & @ @ + $ $ $ + & @ $ @ * = % -   . + @ # @ @ + $ $ % @ @ + @ @ ",
"  . + @ # @ @ + $ $ % @ @ + @ @ & # @ @ @ @ + $ + @ @ @ + @ + @ % @ > ; % % @ % @ & @ + @ # $ $ & @ @ @ + $ $ + & @ $ @ * = % -   . + @ # @ @ + $ $ % @ @ + L I I I I I I I I I I I I I I I I I I I I I I I I I I I I I I I I I I I I I I I I I I I I I I I I I I I I I I I I I I I I I I I I I I I I I I I I I I I I I I I I I I I I I I I I I I I I %&@ # $ $ & @ @ @ + $ $ + & @ $ @ * = % -   . + @ # @ @ + $ $ % @ @ + @ @ _&I I I I I I I I I I I I I I I I I I I I I I I I I I I I I I I I I I I I I I I I I I I I I I I I I I I I I I I I I I I I I I I I I I I I I I I I I I I I I I I I I I I I I I I I I I I I I I I I I I I I {%:&+ & @ $ @ * = % -   . + @ # @ @ + $ $ % @ @ + @ @ & # @ @ @ @ + $ + @ @ @ + @ + @ % @ > ; % % @ % @ & @ + @ # $ $ & @ @ @ + $ $ + & @ $ @ * = % -   . + @ # @ @ + $ $ % @ @ + @ @ ",
"  . + @ # @ @ + $ $ % @ @ + @ @ & # @ @ @ @ + $ + @ @ + @ @ + @ % @ % + % @ @ % @ & @ + @ # $ $ & @ @ @ + $ $ + & @ $ @ * = % -   . + @ # @ @ + $ $ % @ @ + L I I I I I I I I I I I I I I I I I I I I I I I I I I I I I I I I I I I I I I I I I I I I I I I I I I I I I I I I I I I I I I I I I I I I I I I I I I I I I I I I I I I I I I I I I I I <&E+@ # $ $ & @ @ @ + $ $ + & @ $ @ * = % -   . + @ # @ @ + $ $ % @ @ + @ @ |+[&I I I I I I I I I I I I I I I I I I I I I I I I I I I I I I I I I I I I I I I I I I I I I I I I I I I I I I I I I I I I I I I I I I I I I I I I I I I I I I I I I I I I I I I I I I I I I I I I I I 6@}&$ + & @ $ @ * = % -   . + @ # @ @ + $ $ % @ @ + @ @ & # @ @ @ @ + $ + @ @ + @ @ + @ % @ % + % @ @ % @ & @ + @ # $ $ & @ @ @ + $ $ + & @ $ @ * = % -   . + @ # @ @ + $ $ % @ @ + @ @ ",
"  . + @ # @ @ + $ $ % @ @ + @ @ & # @ @ @ @ + $ + @ @ + @ @ + @ % @ % + % @ @ % @ & @ + @ # $ $ & @ @ @ + $ $ + & @ $ @ * = % -   . + @ # @ @ + $ $ % @ @ + L I I I I I I I I I I I I I I I I I I I I I I I I I I I I I I I I I I I I I I I I I I I I I I I I I I I I I I I I I I I I I I I I I I I I I I I I I I I I I I I I I I I I I I I I I I I ~++ @ # $ $ & @ @ @ + $ $ + & @ $ @ * = % -   . + @ # @ @ + $ $ % @ @ + @ @ & s$v.I I I I I I I I I I I I I I I I I I I I I I I I I I I I I I I I I I I I I I I I I I I I I I I I I I I I I I I I I I I I I I I I I I I I I I I I I I I I I I I I I I I I I I I I I I I I I I I I [ )@$ $ + & @ $ @ * = % -   . + @ # @ @ + $ $ % @ @ + @ @ & # @ @ @ @ + $ + @ @ + @ @ + @ % @ % + % @ @ % @ & @ + @ # $ $ & @ @ @ + $ $ + & @ $ @ * = % -   . + @ # @ @ + $ $ % @ @ + @ @ ",
"  . + @ # @ @ + $ $ % @ @ + @ @ & # @ @ @ @ + $ $ + @ + @ @ + @ % @ % + > @ @ % @ & @ + @ # $ $ & @ @ @ + $ $ + & @ $ @ * = % -   . + @ # @ @ + $ $ % @ @ + L I I I I I I I I I I I I I I I I I I I I I I I I I I I I I I I I I I I I I I I I I I I I I I I I I I I I I I I I I I I I I I I I I I I I I I I I I I I I I I I I I I I I I I I I I I |&Z++ @ # $ $ & @ @ @ + $ $ + & @ $ @ * = % -   . + @ # @ @ + $ $ % @ @ + @ @ & # ~.&%I I I I I I I I I I I I I I I I I I I I I I I I I I I I I I I I I I I I I I I I I I I I I I I I I I I I I I I I I I I I I I I I I I I I I I I I I I I I I I I I I I I I I I I I I I I I I I I X++ $ $ + & @ $ @ * = % -   . + @ # @ @ + $ $ % @ @ + @ @ & # @ @ @ @ + $ $ + @ + @ @ + @ % @ % + > @ @ % @ & @ + @ # $ $ & @ @ @ + $ $ + & @ $ @ * = % -   . + @ # @ @ + $ $ % @ @ + @ @ ",
"  . + @ # @ @ + $ $ % @ @ + @ @ & # @ @ @ @ + $ $ + @ + @ @ + @ % @ % + % @ @ % @ & @ + @ # $ $ & @ @ @ + $ $ + & @ $ @ * = % -   . + @ # @ @ + $ $ % @ @ + L I I I I I I I I I I I I I I I I I I I I I I I I I I I I I I I I I I I I I I I I I I I I I I I I I I I I I I I I I I I I I I I I I I I I I I I I I I I I I I I I I I I I I I I I I I 1&@ + @ # $ $ & @ @ @ + $ $ + & @ $ @ * = % -   . + @ # @ @ + $ $ % @ @ + @ @ & # @ r$p.I I I I I I I I I I I I I I I I I I I I I I I I I I I I I I I I I I I I I I I I I I I I I I I I I I I I I I I I I I I I I I I I I I I I I I I I I I I I I I I I I I I I I I I I I I I I I `#@ + $ $ + & @ $ @ * = % -   . + @ # @ @ + $ $ % @ @ + @ @ & # @ @ @ @ + $ $ + @ + @ @ + @ % @ % + % @ @ % @ & @ + @ # $ $ & @ @ @ + $ $ + & @ $ @ * = % -   . + @ # @ @ + $ $ % @ @ + @ @ ",
"  . + @ # @ @ + $ $ % @ @ + @ @ & # @ @ @ @ + $ $ + @ + @ @ + @ % @ % + > @ % @ @ & @ + @ # $ $ & @ @ @ + $ $ + & @ $ @ * = % -   . + @ # @ @ + $ $ % @ @ + L I I I I I I I I I I I I I I I I I I I I I I I I I I I I I I I I I I I I I I I I I I I I I I I I I I I I I I I I I I I I I I I I I I I I I I I I I I I I I I I I I I I I I I I I I d@& @ + @ # $ $ & @ @ @ + $ $ + & @ $ @ * = % -   . + @ # @ @ + $ $ % @ @ + @ @ & # @ @ t.v+I I I I I I I I I I I I I I I I I I I I I I I I I I I I I I I I I I I I I I I I I I I I I I I I I I I I I I I I I I I I I I I I I I I I I I I I I I I I I I I I I I I I I I I I I I I h @ @ + $ $ + & @ $ @ * = % -   . + @ # @ @ + $ $ % @ @ + @ @ & # @ @ @ @ + $ $ + @ + @ @ + @ % @ % + > @ % @ @ & @ + @ # $ $ & @ @ @ + $ $ + & @ $ @ * = % -   . + @ # @ @ + $ $ % @ @ + @ @ ",
"  . + @ # @ @ + $ $ % @ @ + @ @ & # @ @ @ @ + $ $ + @ + @ @ + @ % @ % % % @ % @ @ & @ + @ # $ $ & @ @ @ + $ $ + & @ $ @ * = % -   . + @ # @ @ + $ $ % @ @ + L I I I I I I I I I I I I I I I I I I I I I I I I I I I I I I I I I I I I I I I I I I I I I I I I I I I I I I I I I I I I I I I I I I I I I I I I I I I I I I I I I I I I I I I I 2&~.& @ + @ # $ $ & @ @ @ + $ $ + & @ $ @ * = % -   . + @ # @ @ + $ $ % @ @ + @ @ & # @ @ @ _@=$I I I I I I I I I I I I I I I I I I I I I I I I I I I I I I I I I I I I I I I I I I I I I I I I I I I I I I I I I I I I I I I I I I I I I I I I I I I I I I I I I I I I I I I I I 3&@ @ @ + $ $ + & @ $ @ * = % -   . + @ # @ @ + $ $ % @ @ + @ @ & # @ @ @ @ + $ $ + @ + @ @ + @ % @ % % % @ % @ @ & @ + @ # $ $ & @ @ @ + $ $ + & @ $ @ * = % -   . + @ # @ @ + $ $ % @ @ + @ @ ",
"  . + @ # @ @ + $ $ % @ @ + @ @ & # @ @ @ @ + $ $ + @ + @ @ + @ @ % @ % @ @ % @ @ $ @ + @ # $ $ & @ @ @ + $ $ + & @ $ @ * = % -   . + @ # @ @ + $ $ % @ @ + L I I I I I I I I I I I I I I I I I I I I I I I I I I I I I I I I I I I I I I I I I I I I I I I I I I I I I I I I I I I I I I I I I I I I I I I I I I I I I I I I I I I I I I I 4&b%@ $ @ + @ # $ $ & @ @ @ + $ $ + & @ $ @ * = % -   . + @ # @ @ + $ $ % @ @ + @ @ & # @ @ @ @ 5&/@I I I I I I I I I I I I I I I I I I I I I I I I I I I I I I I I I I I I I I I I I I I I I I I I I I I I I I I I I I I I I I I I I I I I I I I I I I I I I I I I I I I I I I < 6&& @ @ @ + $ $ + & @ $ @ * = % -   . + @ # @ @ + $ $ % @ @ + @ @ & # @ @ @ @ + $ $ + @ + @ @ + @ @ % @ % @ @ % @ @ $ @ + @ # $ $ & @ @ @ + $ $ + & @ $ @ * = % -   . + @ # @ @ + $ $ % @ @ + @ @ ",
"  . + @ # @ @ + $ $ % @ @ + @ @ & # @ @ @ @ + $ $ + @ + @ @ + @ @ % @ @ @ @ % @ @ $ @ + @ # $ $ & @ @ @ + $ $ + & @ $ @ * = % -   . + @ # @ @ + $ $ % @ @ + L I I I I I I I I I I I I I I I I I I I I I I I I I I I I I I I I I I I I I I I I I I I I I I I I I I I I I I I I I I I I I I I I I I I I I I I I I I I I I I I I I I I I I I I 7&@ @ $ @ + @ # $ $ & @ @ @ + $ $ + & @ $ @ * = % -   . + @ # @ @ + $ $ % @ @ + @ @ & # @ @ @ @ + #+8&I I I I I I I I I I I I I I I I I I I I I I I I I I I I I I I I I I I I I I I I I I I I I I I I I I I I I I I I I I I I I I I I I I I I I I I I I I I I I I I I I I I I 9&w$$ & @ @ @ + $ $ + & @ $ @ * = % -   . + @ # @ @ + $ $ % @ @ + @ @ & # @ @ @ @ + $ $ + @ + @ @ + @ @ % @ @ @ @ % @ @ $ @ + @ # $ $ & @ @ @ + $ $ + & @ $ @ * = % -   . + @ # @ @ + $ $ % @ @ + @ @ ",
"  . + @ # @ @ + $ $ % @ @ + @ @ & # @ @ @ + $ $ $ + @ + @ @ + @ @ @ % @ @ @ % @ @ $ @ + @ # $ $ & @ @ @ + $ $ + & @ $ @ * = % -   . + @ # @ @ + $ $ % @ @ + L I I I I I I I I I I I I I I I I I I I I I I I I I I I I I I I I I I I I I I I I I I I I I I I I I I I I I I I I I I I I I I I I I I I I I I I I I I I I I I I I I I I I I I h % @ @ $ @ + @ # $ $ & @ @ @ + $ $ + & @ $ @ * = % -   . + @ # @ @ + $ $ % @ @ + @ @ & # @ @ @ + $ $ $ z #.I I I I I I I I I I I I I I I I I I I I I I I I I I I I I I I I I I I I I I I I I I I I I I I I I I I I I I I I I I I I I I I I I I I I I I I I I I I I I I I I I z%V#$ $ & @ @ @ + $ $ + & @ $ @ * = % -   . + @ # @ @ + $ $ % @ @ + @ @ & # @ @ @ + $ $ $ + @ + @ @ + @ @ @ % @ @ @ % @ @ $ @ + @ # $ $ & @ @ @ + $ $ + & @ $ @ * = % -   . + @ # @ @ + $ $ % @ @ + @ @ ",
"  . + @ # @ @ + $ $ % @ @ + @ @ & # @ @ @ + $ $ $ + @ + @ @ + @ @ @ % @ @ @ % @ # $ @ + @ # $ $ & @ @ @ + $ $ + & @ $ @ * = % -   . + @ # @ @ + $ $ % @ @ + L I I I I I I I I I I I I I I I I I I I I I I I I I I I I I I I I I I I I I I I I I I I I I I I I I I I I I I I I I I I I I I I I I I I I I I I I I I I I I I I I I I I I [ {.@ % @ # $ @ + @ # $ $ & @ @ @ + $ $ + & @ $ @ * = % -   . + @ # @ @ + $ $ % @ @ + @ @ & # @ @ @ + $ $ $ + &$i@I I I I I I I I I I I I I I I I I I I I I I I I I I I I I I I I I I I I I I I I I I I I I I I I I I I I I I I I I I I I I I I I I I I I I I I I I I I I I I [ 0&a&# $ $ & @ @ @ + $ $ + & @ $ @ * = % -   . + @ # @ @ + $ $ % @ @ + @ @ & # @ @ @ + $ $ $ + @ + @ @ + @ @ @ % @ @ @ % @ # $ @ + @ # $ $ & @ @ @ + $ $ + & @ $ @ * = % -   . + @ # @ @ + $ $ % @ @ + @ @ ",
"  . + @ # @ + $ $ $ % @ @ + @ @ & # @ @ @ + $ $ + @ @ + @ @ + @ @ @ @ % % % @ @ $ $ @ + @ # $ $ & @ @ + $ $ $ + & @ $ @ * = % -   . + @ # @ + $ $ $ % @ @ + L I I I I I I I I I I I I I I I I I I I I I I I I I I I I I I I I I I I I I I I I I I I I I I I I I I I I I I I I I I I I I I I I I I I I I I I I I I I I I I I I I I I q.b&% % @ @ $ $ @ + @ # $ $ & @ @ + $ $ $ + & @ $ @ * = % -   . + @ # @ + $ $ $ % @ @ + @ @ & # @ @ @ + $ $ + @ @  ${ I I I I I I I I I I I I I I I I I I I I I I I I I I I I I I I I I I I I I I I I I I I I I I I I I I I I I I I I I I I I I I I I I I I I I I I I I I I I W$s.+ @ # $ $ & @ @ + $ $ $ + & @ $ @ * = % -   . + @ # @ + $ $ $ % @ @ + @ @ & # @ @ @ + $ $ + @ @ + @ @ + @ @ @ @ % % % @ @ $ $ @ + @ # $ $ & @ @ + $ $ $ + & @ $ @ * = % -   . + @ # @ + $ $ $ % @ @ + @ @ ",
"  . + @ # @ + $ $ $ % @ @ + @ @ & # @ @ @ + $ $ + @ @ + @ @ + @ @ # @ @ @ @ @ # $ $ @ + @ # $ $ & @ @ + $ $ $ + & @ $ @ * = % -   . + @ # @ + $ $ $ % @ @ + L I I I I I I I I I I I I I I I I I I I I I I I I I I I I I I I I I I I I I I I I I I I I I I I I I I I I I I I I I I I I I I I I I I I I I I I I I I I I I I I I I I c&S @ @ @ @ # $ $ @ + @ # $ $ & @ @ + $ $ $ + & @ $ @ * = % -   . + @ # @ + $ $ $ % @ @ + @ @ & # @ @ @ + $ $ + @ @ + @ n%0$I I I I I I I I I I I I I I I I I I I I I I I I I I I I I I I I I I I I I I I I I I I I I I I I I I I I I I I I I I I I I I I I I I I I I I I I }+t+d&@ + @ # $ $ & @ @ + $ $ $ + & @ $ @ * = % -   . + @ # @ + $ $ $ % @ @ + @ @ & # @ @ @ + $ $ + @ @ + @ @ + @ @ # @ @ @ @ @ # $ $ @ + @ # $ $ & @ @ + $ $ $ + & @ $ @ * = % -   . + @ # @ + $ $ $ % @ @ + @ @ ",
"  . + @ # @ + $ $ $ % @ @ + @ @ & # @ @ @ + $ $ + @ @ + @ @ + @ @ # # @ @ @ @ # $ $ @ + @ # $ $ & @ @ + $ $ $ + & @ $ @ * = % -   . + @ # @ + $ $ $ % @ @ + e&M f&I I I I I I I I I I I I I I I I I I I I I I I I I I I I I I I I I I I I I I I I I I I I I I I I I I I I I I I I I I I I I I I I I I I I I I I I I I I I I I I j g&# @ @ @ @ # $ $ @ + @ # $ $ & @ @ + $ $ $ + & @ $ @ * = % -   . + @ # @ + $ $ $ % @ @ + @ @ & # @ @ @ + $ $ + @ @ + @ @ A.`#1.I I I I I I I I I I I I I I I I I I I I I I I I I I I I I I I I I I I I I I I I I I I I I I I I I I I I I I I I I I I I I I I I I I I I I -#n$$ $ @ + @ # $ $ & @ @ + $ $ $ + & @ $ @ * = % -   . + @ # @ + $ $ $ % @ @ + @ @ & # @ @ @ + $ $ + @ @ + @ @ + @ @ # # @ @ @ @ # $ $ @ + @ # $ $ & @ @ + $ $ $ + & @ $ @ * = % -   . + @ # @ + $ $ $ % @ @ + @ @ ",
"  . + @ # @ + $ $ $ % @ @ + @ @ & # @ @ @ + $ $ + @ @ + @ @ + @ @ @ # @ @ @ @ # $ $ @ + @ # $ $ & @ @ + $ $ $ + & @ $ @ * = % -   . + @ # @ + $ $ $ % @ @ + @ @ h&i&x j&I I I I I I I I I I I I I I I I I I I I I I I I I I I I I I I I I I I I I I I I I I I I I I I I I I I I I I I I I I I I I I I I I I I I I I I I I I 7.k&@ @ # @ @ @ @ # $ $ @ + @ # $ $ & @ @ + $ $ $ + & @ $ @ * = % -   . + @ # @ + $ $ $ % @ @ + @ @ & # @ @ @ + $ $ + @ @ + @ @ + @ ~.9@l&I I I I I I I I I I I I I I I I I I I I I I I I I I I I I I I I I I I I I I I I I I I I I I I I I I I I I I I I I I I I I I I I I m&A @ # $ $ @ + @ # $ $ & @ @ + $ $ $ + & @ $ @ * = % -   . + @ # @ + $ $ $ % @ @ + @ @ & # @ @ @ + $ $ + @ @ + @ @ + @ @ @ # @ @ @ @ # $ $ @ + @ # $ $ & @ @ + $ $ $ + & @ $ @ * = % -   . + @ # @ + $ $ $ % @ @ + @ @ ",
"  . + @ # @ + $ $ $ % @ @ + @ @ & # @ @ @ + $ $ + @ @ @ + @ @ + @ @ @ $ @ @ # $ $ @ @ + @ # $ $ @ @ @ + $ $ $ + & @ $ @ * = % -   . + @ # @ + $ $ $ % @ @ + @ @ & # @ '@l%n&{%I I I I I I I I I I I I I I I I I I I I I I I I I I I I I I I I I I I I I I I I I I I I I I I I I I I I I I I I I I I I I I I I I I I I I <$~ R.+ @ @ @ $ @ @ # $ $ @ @ + @ # $ $ @ @ @ + $ $ $ + & @ $ @ * = % -   . + @ # @ + $ $ $ % @ @ + @ @ & # @ @ @ + $ $ + @ @ @ + @ @ + @ @ r$*@J I I I I I I I I I I I I I I I I I I I I I I I I I I I I I I I I I I I I I I I I I I I I I I I I I I I I I I I I I I I I I G#6&T#@ # $ $ @ @ + @ # $ $ @ @ @ + $ $ $ + & @ $ @ * = % -   . + @ # @ + $ $ $ % @ @ + @ @ & # @ @ @ + $ $ + @ @ @ + @ @ + @ @ @ $ @ @ # $ $ @ @ + @ # $ $ @ @ @ + $ $ $ + & @ $ @ * = % -   . + @ # @ + $ $ $ % @ @ + @ @ ",
"  . + @ # @ + $ $ $ % @ @ + @ @ & # @ @ @ + $ $ + @ @ @ + @ @ @ + @ @ $ # @ # $ $ @ + @ @ # $ $ @ @ @ + $ $ $ + & @ $ @ * = % -   . + @ # @ + $ $ $ % @ @ + @ @ & # @ @ @ + $ }&o&G#I I I I I I I I I I I I I I I I I I I I I I I I I I I I I I I I I I I I I I I I I I I I I I I I I I I I I I I I I I I I I I I I C@S+,+@ @ @ + @ @ $ # @ # $ $ @ + @ @ # $ $ @ @ @ + $ $ $ + & @ $ @ * = % -   . + @ # @ + $ $ $ % @ @ + @ @ & # @ @ @ + $ $ + @ @ @ + @ @ @ + @ @ $ p&q&r&I I I I I I I I I I I I I I I I I I I I I I I I I I I I I I I I I I I I I I I I I I I I I I I I I I I I I I I I @@s&n%@ $ # @ # $ $ @ + @ @ # $ $ @ @ @ + $ $ $ + & @ $ @ * = % -   . + @ # @ + $ $ $ % @ @ + @ @ & # @ @ @ + $ $ + @ @ @ + @ @ @ + @ @ $ # @ # $ $ @ + @ @ # $ $ @ @ @ + $ $ $ + & @ $ @ * = % -   . + @ # @ + $ $ $ % @ @ + @ @ ",
"  . + @ # @ + $ $ $ % @ @ + @ @ & # @ @ @ + $ $ + @ @ @ + @ @ @ + @ @ $ $ @ $ $ @ @ + @ @ # $ $ @ @ @ + $ $ $ + & @ $ @ * = % -   . + @ # @ + $ $ $ % @ @ + @ @ & # @ @ @ + $ $ + @ ~.t&n&K%I I I I I I I I I I I I I I I I I I I I I I I I I I I I I I I I I I I I I I I I I I I I I I I I I I I I I I I I I I G%)+R.@ + @ @ @ + @ @ $ $ @ $ $ @ @ + @ @ # $ $ @ @ @ + $ $ $ + & @ $ @ * = % -   . + @ # @ + $ $ $ % @ @ + @ @ & # @ @ @ + $ $ + @ @ @ + @ @ @ + @ @ $ $ @ , z@&@C.I I I I I I I I I I I I I I I I I I I I I I I I I I I I I I I I I I I I I I I I I I I I I I I I I I I &%q&_@+ @ @ $ $ @ $ $ @ @ + @ @ # $ $ @ @ @ + $ $ $ + & @ $ @ * = % -   . + @ # @ + $ $ $ % @ @ + @ @ & # @ @ @ + $ $ + @ @ @ + @ @ @ + @ @ $ $ @ $ $ @ @ + @ @ # $ $ @ @ @ + $ $ $ + & @ $ @ * = % -   . + @ # @ + $ $ $ % @ @ + @ @ ",
"  . + @ # @ + $ $ $ % @ @ + @ @ & # @ @ @ + $ $ + @ @ @ + @ @ @ + @ @ $ $ $ $ $ @ @ + @ @ # $ $ @ @ @ + $ $ $ + & @ $ @ * = % -   . + @ # @ + $ $ $ % @ @ + @ @ & # @ @ @ + $ $ + @ @ @ + @ <.k&u&v&@@I I I I I I I I I I I I I I I I I I I I I I I I I I I I I I I I I I I I I I I I I I I I I I I I I I w&x&~@+ @ @ @ + @ @ @ + @ @ $ $ $ $ $ @ @ + @ @ # $ $ @ @ @ + $ $ $ + & @ $ @ * = % -   . + @ # @ + $ $ $ % @ @ + @ @ & # @ @ @ + $ $ + @ @ @ + @ @ @ + @ @ $ $ $ $ $ @ p$j$y&J I I I I I I I I I I I I I I I I I I I I I I I I I I I I I I I I I I I I I I I I I I I I I ^+Z.z&@ @ @ + @ @ $ $ $ $ $ @ @ + @ @ # $ $ @ @ @ + $ $ $ + & @ $ @ * = % -   . + @ # @ + $ $ $ % @ @ + @ @ & # @ @ @ + $ $ + @ @ @ + @ @ @ + @ @ $ $ $ $ $ @ @ + @ @ # $ $ @ @ @ + $ $ $ + & @ $ @ * = % -   . + @ # @ + $ $ $ % @ @ + @ @ ",
"  . + @ # @ + $ $ $ % @ @ + @ @ & # @ @ @ + $ $ + @ @ @ + @ @ @ @ + @ @ $ $ $ $ @ @ + @ @ # $ $ @ @ @ + $ $ $ + & @ $ @ * = % -   . + @ # @ + $ $ $ % @ @ + @ @ & # @ @ @ + $ $ + @ @ @ + @ @ @ @ + Z+S h$A&Y%B&I I I I I I I I I I I I I I I I I I I I I I I I I I I I I I I I I I I I I I I I I C&L D&~#+ $ $ + @ @ @ + @ @ @ @ + @ @ $ $ $ $ @ @ + @ @ # $ $ @ @ @ + $ $ $ + & @ $ @ * = % -   . + @ # @ + $ $ $ % @ @ + @ @ & # @ @ @ + $ $ + @ @ @ + @ @ @ @ + @ @ $ $ $ $ @ @ + @ '@E&F&G&q.I I I I I I I I I I I I I I I I I I I I I I I I I I I I I I I I I I I I I {%R#H&` @ @ + @ @ @ @ + @ @ $ $ $ $ @ @ + @ @ # $ $ @ @ @ + $ $ $ + & @ $ @ * = % -   . + @ # @ + $ $ $ % @ @ + @ @ & # @ @ @ + $ $ + @ @ @ + @ @ @ @ + @ @ $ $ $ $ @ @ + @ @ # $ $ @ @ @ + $ $ $ + & @ $ @ * = % -   . + @ # @ + $ $ $ % @ @ + @ @ ",
"  . + @ # @ + $ $ $ % @ @ + @ @ & # @ @ @ + $ $ + @ @ @ + @ @ @ @ + @ @ $ $ @ $ @ @ + @ @ # $ $ @ @ @ + $ $ $ + & @ $ @ * = % -   . + @ # @ + $ $ $ % @ @ + @ @ & # @ @ @ + $ $ + @ @ @ + @ @ @ @ + @ @ $ $ @ v$D Z (&7$F.I&I I I I I I I I I I I I I I I I I I I I I I I I I I I I I I <&J&{ <%K&# @ @ @ + $ $ + @ @ @ + @ @ @ @ + @ @ $ $ @ $ @ @ + @ @ # $ $ @ @ @ + $ $ $ + & @ $ @ * = % -   . + @ # @ + $ $ $ % @ @ + @ @ & # @ @ @ + $ $ + @ @ @ + @ @ @ @ + @ @ $ $ @ $ @ @ + @ @ # $ $ R.s.L&M&N&Q#I I I I I I I I I I I I I I I I I I I I I I I I I I I O&A%y#t&P&$ $ + @ @ @ + @ @ @ @ + @ @ $ $ @ $ @ @ + @ @ # $ $ @ @ @ + $ $ $ + & @ $ @ * = % -   . + @ # @ + $ $ $ % @ @ + @ @ & # @ @ @ + $ $ + @ @ @ + @ @ @ @ + @ @ $ $ @ $ @ @ + @ @ # $ $ @ @ @ + $ $ $ + & @ $ @ * = % -   . + @ # @ + $ $ $ % @ @ + @ @ ",
"  . + @ # @ + $ $ $ % @ @ + @ @ & # @ @ @ + $ $ + @ @ @ + @ @ @ @ + @ @ $ $ $ $ @ @ + @ @ # $ $ @ @ @ + $ $ $ + & @ $ @ * = % -   . + @ # @ + $ $ $ % @ @ + @ @ & # @ @ @ + $ $ + @ @ @ + @ @ @ @ + @ @ $ $ $ $ @ @ + @ @ # d&Q&q+R&h _.S&f@T&G%U&2&$&r } V&+%W&X&Y&Z&O.`&r.u& *r@.*+*8+@ + @ @ & # @ @ @ + $ $ + @ @ @ + @ @ @ @ + @ @ $ $ $ $ @ @ + @ @ # $ $ @ @ @ + $ $ $ + & @ $ @ * = % -   . + @ # @ + $ $ $ % @ @ + @ @ & # @ @ @ + $ $ + @ @ @ + @ @ @ @ + @ @ $ $ $ $ @ @ + @ @ # $ $ @ @ @ + $ , <@K#@*q&*@8.#*$*%*&***=*(@[ l&j./.-*;*^ u+4%Z.>*o@D C # @ @ @ + $ $ + @ @ @ + @ @ @ @ + @ @ $ $ $ $ @ @ + @ @ # $ $ @ @ @ + $ $ $ + & @ $ @ * = % -   . + @ # @ + $ $ $ % @ @ + @ @ & # @ @ @ + $ $ + @ @ @ + @ @ @ @ + @ @ $ $ $ $ @ @ + @ @ # $ $ @ @ @ + $ $ $ + & @ $ @ * = % -   . + @ # @ + $ $ $ % @ @ + @ @ ",
"  . + @ # @ + $ $ $ % @ @ + @ @ & # @ @ @ + $ $ + @ @ @ + @ @ @ @ + @ @ $ $ $ @ @ @ + @ @ # $ $ @ @ @ + $ $ $ + & @ $ @ * = % -   . + @ # @ + $ $ $ % @ @ + @ @ & # @ @ @ + $ $ + @ @ @ + @ @ @ @ + @ @ $ $ $ @ @ @ + @ @ # $ $ @ @ @ + $ $ $ + & @ $ @ * = % -   . + @ # @ + $ $ $ % @ @ + @ @ & # @ @ @ + $ $ + @ @ @ + @ @ @ @ + @ @ $ $ $ @ @ @ + @ @ # $ $ @ @ @ + $ $ $ + & @ $ @ * = % -   . + @ # @ + $ $ $ % @ @ + @ @ & # @ @ @ + $ $ + @ @ @ + @ @ @ @ + @ @ $ $ $ @ @ @ + @ @ # $ $ @ @ @ + $ $ $ + & @ $ @ * = % -   . + @ # @ + $ $ $ % @ @ + @ @ & # @ @ @ + $ $ + @ @ @ + @ @ @ @ + @ @ $ $ $ @ @ @ + @ @ # $ $ @ @ @ + $ $ $ + & @ $ @ * = % -   . + @ # @ + $ $ $ % @ @ + @ @ & # @ @ @ + $ $ + @ @ @ + @ @ @ @ + @ @ $ $ $ @ @ @ + @ @ # $ $ @ @ @ + $ $ $ + & @ $ @ * = % -   . + @ # @ + $ $ $ % @ @ + @ @ ",
"  . + @ # @ + $ $ $ % @ @ + @ @ & # @ @ @ + $ $ + @ @ @ + @ & @ @ + @ @ $ $ $ @ @ @ + @ @ # $ $ @ @ @ + $ $ $ + & @ $ @ * = % -   . + @ # @ + $ $ $ % @ @ + @ @ & # @ @ @ + $ $ + @ @ @ + @ & @ @ + @ @ $ $ $ @ @ @ + @ @ # $ $ @ @ @ + $ $ $ + & @ $ @ * = % -   . + @ # @ + $ $ $ % @ @ + @ @ & # @ @ @ + $ $ + @ @ @ + @ & @ @ + @ @ $ $ $ @ @ @ + @ @ # $ $ @ @ @ + $ $ $ + & @ $ @ * = % -   . + @ # @ + $ $ $ % @ @ + @ @ & # @ @ @ + $ $ + @ @ @ + @ & @ @ + @ @ $ $ $ @ @ @ + @ @ # $ $ @ @ @ + $ $ $ + & @ $ @ * = % -   . + @ # @ + $ $ $ % @ @ + @ @ & # @ @ @ + $ $ + @ @ @ + @ & @ @ + @ @ $ $ $ @ @ @ + @ @ # $ $ @ @ @ + $ $ $ + & @ $ @ * = % -   . + @ # @ + $ $ $ % @ @ + @ @ & # @ @ @ + $ $ + @ @ @ + @ & @ @ + @ @ $ $ $ @ @ @ + @ @ # $ $ @ @ @ + $ $ $ + & @ $ @ * = % -   . + @ # @ + $ $ $ % @ @ + @ @ ",
"  . + @ # @ + $ $ $ % @ @ + @ @ & # @ @ @ + $ $ + @ @ @ + @ & @ @ + @ @ @ $ $ @ @ @ + @ @ # $ $ @ @ @ + $ $ $ + & @ $ @ * = % -   . + @ # @ + $ $ $ % @ @ + @ @ & # @ @ @ + $ $ + @ @ @ + @ & @ @ + @ @ @ $ $ @ @ @ + @ @ # $ $ @ @ @ + $ $ $ + & @ $ @ * = % -   . + @ # @ + $ $ $ % @ @ + @ @ & # @ @ @ + $ $ + @ @ @ + @ & @ @ + @ @ @ $ $ @ @ @ + @ @ # $ $ @ @ @ + $ $ $ + & @ $ @ * = % -   . + @ # @ + $ $ $ % @ @ + @ @ & # @ @ @ + $ $ + @ @ @ + @ & @ @ + @ @ @ $ $ @ @ @ + @ @ # $ $ @ @ @ + $ $ $ + & @ $ @ * = % -   . + @ # @ + $ $ $ % @ @ + @ @ & # @ @ @ + $ $ + @ @ @ + @ & @ @ + @ @ @ $ $ @ @ @ + @ @ # $ $ @ @ @ + $ $ $ + & @ $ @ * = % -   . + @ # @ + $ $ $ % @ @ + @ @ & # @ @ @ + $ $ + @ @ @ + @ & @ @ + @ @ @ $ $ @ @ @ + @ @ # $ $ @ @ @ + $ $ $ + & @ $ @ * = % -   . + @ # @ + $ $ $ % @ @ + @ @ ",
"  . + @ # @ + $ $ $ % @ @ + @ @ & # @ @ @ + $ $ + @ @ @ + @ & @ @ + @ @ @ $ $ @ @ @ + @ @ # $ $ @ @ @ + $ $ $ + & @ $ @ * = % -   . + @ # @ + $ $ $ % @ @ + @ @ & # @ @ @ + $ $ + @ @ @ + @ & @ @ + @ @ @ $ $ @ @ @ + @ @ # $ $ @ @ @ + $ $ $ + & @ $ @ * = % -   . + @ # @ + $ $ $ % @ @ + @ @ & # @ @ @ + $ $ + @ @ @ + @ & @ @ + @ @ @ $ $ @ @ @ + @ @ # $ $ @ @ @ + $ $ $ + & @ $ @ * = % -   . + @ # @ + $ $ $ % @ @ + @ @ & # @ @ @ + $ $ + @ @ @ + @ & @ @ + @ @ @ $ $ @ @ @ + @ @ # $ $ @ @ @ + $ $ $ + & @ $ @ * = % -   . + @ # @ + $ $ $ % @ @ + @ @ & # @ @ @ + $ $ + @ @ @ + @ & @ @ + @ @ @ $ $ @ @ @ + @ @ # $ $ @ @ @ + $ $ $ + & @ $ @ * = % -   . + @ # @ + $ $ $ % @ @ + @ @ & # @ @ @ + $ $ + @ @ @ + @ & @ @ + @ @ @ $ $ @ @ @ + @ @ # $ $ @ @ @ + $ $ $ + & @ $ @ * = % -   . + @ # @ + $ $ $ % @ @ + @ @ ",
"  . + @ # @ @ + $ $ % @ @ + @ @ & # @ @ @ + $ $ + @ @ @ + @ & @ @ + @ @ @ $ $ @ @ @ + @ @ # $ $ @ @ @ + $ $ $ + & @ $ @ * = % -   . + @ # @ @ + $ $ % @ @ + @ @ & # @ @ @ + $ $ + @ @ @ + @ & @ @ + @ @ @ $ $ @ @ @ + @ @ # $ $ @ @ @ + $ $ $ + & @ $ @ * = % -   . + @ # @ @ + $ $ % @ @ + @ @ & # @ @ @ + $ $ + @ @ @ + @ & @ @ + @ @ @ $ $ @ @ @ + @ @ # $ $ @ @ @ + $ $ $ + & @ $ @ * = % -   . + @ # @ @ + $ $ % @ @ + @ @ & # @ @ @ + $ $ + @ @ @ + @ & @ @ + @ @ @ $ $ @ @ @ + @ @ # $ $ @ @ @ + $ $ $ + & @ $ @ * = % -   . + @ # @ @ + $ $ % @ @ + @ @ & # @ @ @ + $ $ + @ @ @ + @ & @ @ + @ @ @ $ $ @ @ @ + @ @ # $ $ @ @ @ + $ $ $ + & @ $ @ * = % -   . + @ # @ @ + $ $ % @ @ + @ @ & # @ @ @ + $ $ + @ @ @ + @ & @ @ + @ @ @ $ $ @ @ @ + @ @ # $ $ @ @ @ + $ $ $ + & @ $ @ * = % -   . + @ # @ @ + $ $ % @ @ + @ @ ",
"  . + @ # @ @ + $ $ % @ @ + @ @ & # @ @ @ + $ $ + @ @ @ + @ & @ @ + @ @ @ $ $ @ @ @ + @ @ # $ $ @ @ @ + $ $ $ + & @ $ @ * = % -   . + @ # @ @ + $ $ % @ @ + @ @ & # @ @ @ + $ $ + @ @ @ + @ & @ @ + @ @ @ $ $ @ @ @ + @ @ # $ $ @ @ @ + $ $ $ + & @ $ @ * = % -   . + @ # @ @ + $ $ % @ @ + @ @ & # @ @ @ + $ $ + @ @ @ + @ & @ @ + @ @ @ $ $ @ @ @ + @ @ # $ $ @ @ @ + $ $ $ + & @ $ @ * = % -   . + @ # @ @ + $ $ % @ @ + @ @ & # @ @ @ + $ $ + @ @ @ + @ & @ @ + @ @ @ $ $ @ @ @ + @ @ # $ $ @ @ @ + $ $ $ + & @ $ @ * = % -   . + @ # @ @ + $ $ % @ @ + @ @ & # @ @ @ + $ $ + @ @ @ + @ & @ @ + @ @ @ $ $ @ @ @ + @ @ # $ $ @ @ @ + $ $ $ + & @ $ @ * = % -   . + @ # @ @ + $ $ % @ @ + @ @ & # @ @ @ + $ $ + @ @ @ + @ & @ @ + @ @ @ $ $ @ @ @ + @ @ # $ $ @ @ @ + $ $ $ + & @ $ @ * = % -   . + @ # @ @ + $ $ % @ @ + @ @ ",
"  . + @ # @ @ + $ $ % @ @ @ + @ & # @ @ @ + $ $ + @ @ @ + @ & @ @ + @ @ @ $ $ @ @ @ + @ @ # $ $ @ @ @ + $ $ $ + & @ $ @ * = % -   . + @ # @ @ + $ $ % @ @ @ + @ & # @ @ @ + $ $ + @ @ @ + @ & @ @ + @ @ @ $ $ @ @ @ + @ @ # $ $ @ @ @ + $ $ $ + & @ $ @ * = % -   . + @ # @ @ + $ $ % @ @ @ + @ & # @ @ @ + $ $ + @ @ @ + @ & @ @ + @ @ @ $ $ @ @ @ + @ @ # $ $ @ @ @ + $ $ $ + & @ $ @ * = % -   . + @ # @ @ + $ $ % @ @ @ + @ & # @ @ @ + $ $ + @ @ @ + @ & @ @ + @ @ @ $ $ @ @ @ + @ @ # $ $ @ @ @ + $ $ $ + & @ $ @ * = % -   . + @ # @ @ + $ $ % @ @ @ + @ & # @ @ @ + $ $ + @ @ @ + @ & @ @ + @ @ @ $ $ @ @ @ + @ @ # $ $ @ @ @ + $ $ $ + & @ $ @ * = % -   . + @ # @ @ + $ $ % @ @ @ + @ & # @ @ @ + $ $ + @ @ @ + @ & @ @ + @ @ @ $ $ @ @ @ + @ @ # $ $ @ @ @ + $ $ $ + & @ $ @ * = % -   . + @ # @ @ + $ $ % @ @ @ + @ ",
"  . + @ # @ @ + $ $ % @ @ @ + @ & # @ @ @ @ + $ $ + @ @ + @ & @ @ + @ @ @ $ $ @ @ @ + @ @ # $ $ @ @ @ + $ $ $ + & @ $ @ * = % -   . + @ # @ @ + $ $ % @ @ @ + @ & # @ @ @ @ + $ $ + @ @ + @ & @ @ + @ @ @ $ $ @ @ @ + @ @ # $ $ @ @ @ + $ $ $ + & @ $ @ * = % -   . + @ # @ @ + $ $ % @ @ @ + @ & # @ @ @ @ + $ $ + @ @ + @ & @ @ + @ @ @ $ $ @ @ @ + @ @ # $ $ @ @ @ + $ $ $ + & @ $ @ * = % -   . + @ # @ @ + $ $ % @ @ @ + @ & # @ @ @ @ + $ $ + @ @ + @ & @ @ + @ @ @ $ $ @ @ @ + @ @ # $ $ @ @ @ + $ $ $ + & @ $ @ * = % -   . + @ # @ @ + $ $ % @ @ @ + @ & # @ @ @ @ + $ $ + @ @ + @ & @ @ + @ @ @ $ $ @ @ @ + @ @ # $ $ @ @ @ + $ $ $ + & @ $ @ * = % -   . + @ # @ @ + $ $ % @ @ @ + @ & # @ @ @ @ + $ $ + @ @ + @ & @ @ + @ @ @ $ $ @ @ @ + @ @ # $ $ @ @ @ + $ $ $ + & @ $ @ * = % -   . + @ # @ @ + $ $ % @ @ @ + @ ",
"  . + @ # @ @ + $ $ % @ @ @ + @ & # @ @ @ @ + $ $ + @ @ + @ & @ @ + @ @ @ $ $ @ @ @ + @ @ # $ $ @ @ @ + $ $ $ + & @ $ @ * = % -   . + @ # @ @ + $ $ % @ @ @ + @ & # @ @ @ @ + $ $ + @ @ + @ & @ @ + @ @ @ $ $ @ @ @ + @ @ # $ $ @ @ @ + $ $ $ + & @ $ @ * = % -   . + @ # @ @ + $ $ % @ @ @ + @ & # @ @ @ @ + $ $ + @ @ + @ & @ @ + @ @ @ $ $ @ @ @ + @ @ # $ $ @ @ @ + $ $ $ + & @ $ @ * = % -   . + @ # @ @ + $ $ % @ @ @ + @ & # @ @ @ @ + $ $ + @ @ + @ & @ @ + @ @ @ $ $ @ @ @ + @ @ # $ $ @ @ @ + $ $ $ + & @ $ @ * = % -   . + @ # @ @ + $ $ % @ @ @ + @ & # @ @ @ @ + $ $ + @ @ + @ & @ @ + @ @ @ $ $ @ @ @ + @ @ # $ $ @ @ @ + $ $ $ + & @ $ @ * = % -   . + @ # @ @ + $ $ % @ @ @ + @ & # @ @ @ @ + $ $ + @ @ + @ & @ @ + @ @ @ $ $ @ @ @ + @ @ # $ $ @ @ @ + $ $ $ + & @ $ @ * = % -   . + @ # @ @ + $ $ % @ @ @ + @ ",
"  . + @ # @ @ + $ $ % @ @ @ + @ & # @ @ @ @ + $ $ + @ @ + @ & @ @ + @ @ @ $ $ @ @ @ + @ @ # $ $ @ @ @ + $ $ $ + & @ $ @ * = % -   . + @ # @ @ + $ $ % @ @ @ + @ & # @ @ @ @ + $ $ + @ @ + @ & @ @ + @ @ @ $ $ @ @ @ + @ @ # $ $ @ @ @ + $ $ $ + & @ $ @ * = % -   . + @ # @ @ + $ $ % @ @ @ + @ & # @ @ @ @ + $ $ + @ @ + @ & @ @ + @ @ @ $ $ @ @ @ + @ @ # $ $ @ @ @ + $ $ $ + & @ $ @ * = % -   . + @ # @ @ + $ $ % @ @ @ + @ & # @ @ @ @ + $ $ + @ @ + @ & @ @ + @ @ @ $ $ @ @ @ + @ @ # $ $ @ @ @ + $ $ $ + & @ $ @ * = % -   . + @ # @ @ + $ $ % @ @ @ + @ & # @ @ @ @ + $ $ + @ @ + @ & @ @ + @ @ @ $ $ @ @ @ + @ @ # $ $ @ @ @ + $ $ $ + & @ $ @ * = % -   . + @ # @ @ + $ $ % @ @ @ + @ & # @ @ @ @ + $ $ + @ @ + @ & @ @ + @ @ @ $ $ @ @ @ + @ @ # $ $ @ @ @ + $ $ $ + & @ $ @ * = % -   . + @ # @ @ + $ $ % @ @ @ + @ ",
"  . + @ # @ @ + $ $ % @ @ @ + @ & # @ @ @ @ + $ $ + @ @ + @ & @ @ + @ @ @ $ $ @ @ @ + @ @ # $ $ @ @ @ + $ $ $ + & @ $ @ * = % -   . + @ # @ @ + $ $ % @ @ @ + @ & # @ @ @ @ + $ $ + @ @ + @ & @ @ + @ @ @ $ $ @ @ @ + @ @ # $ $ @ @ @ + $ $ $ + & @ $ @ * = % -   . + @ # @ @ + $ $ % @ @ @ + @ & # @ @ @ @ + $ $ + @ @ + @ & @ @ + @ @ @ $ $ @ @ @ + @ @ # $ $ @ @ @ + $ $ $ + & @ $ @ * = % -   . + @ # @ @ + $ $ % @ @ @ + @ & # @ @ @ @ + $ $ + @ @ + @ & @ @ + @ @ @ $ $ @ @ @ + @ @ # $ $ @ @ @ + $ $ $ + & @ $ @ * = % -   . + @ # @ @ + $ $ % @ @ @ + @ & # @ @ @ @ + $ $ + @ @ + @ & @ @ + @ @ @ $ $ @ @ @ + @ @ # $ $ @ @ @ + $ $ $ + & @ $ @ * = % -   . + @ # @ @ + $ $ % @ @ @ + @ & # @ @ @ @ + $ $ + @ @ + @ & @ @ + @ @ @ $ $ @ @ @ + @ @ # $ $ @ @ @ + $ $ $ + & @ $ @ * = % -   . + @ # @ @ + $ $ % @ @ @ + @ ",
"  . + @ # @ @ + $ $ % @ @ @ + @ & # @ @ @ @ + $ $ + @ @ + @ & @ @ + @ @ @ $ $ @ @ @ + @ @ # $ $ @ @ @ + $ $ $ + & @ $ @ * = % -   . + @ # @ @ + $ $ % @ @ @ + @ & # @ @ @ @ + $ $ + @ @ + @ & @ @ + @ @ @ $ $ @ @ @ + @ @ # $ $ @ @ @ + $ $ $ + & @ $ @ * = % -   . + @ # @ @ + $ $ % @ @ @ + @ & # @ @ @ @ + $ $ + @ @ + @ & @ @ + @ @ @ $ $ @ @ @ + @ @ # $ $ @ @ @ + $ $ $ + & @ $ @ * = % -   . + @ # @ @ + $ $ % @ @ @ + @ & # @ @ @ @ + $ $ + @ @ + @ & @ @ + @ @ @ $ $ @ @ @ + @ @ # $ $ @ @ @ + $ $ $ + & @ $ @ * = % -   . + @ # @ @ + $ $ % @ @ @ + @ & # @ @ @ @ + $ $ + @ @ + @ & @ @ + @ @ @ $ $ @ @ @ + @ @ # $ $ @ @ @ + $ $ $ + & @ $ @ * = % -   . + @ # @ @ + $ $ % @ @ @ + @ & # @ @ @ @ + $ $ + @ @ + @ & @ @ + @ @ @ $ $ @ @ @ + @ @ # $ $ @ @ @ + $ $ $ + & @ $ @ * = % -   . + @ # @ @ + $ $ % @ @ @ + @ ",
"  . + @ # @ @ + $ $ % @ @ @ + @ & # @ @ @ @ + $ $ + @ @ + @ & @ @ @ + @ @ $ $ @ @ @ + @ @ # $ $ @ @ @ + $ $ $ + & @ $ @ * = % -   . + @ # @ @ + $ $ % @ @ @ + @ & # @ @ @ @ + $ $ + @ @ + @ & @ @ @ + @ @ $ $ @ @ @ + @ @ # $ $ @ @ @ + $ $ $ + & @ $ @ * = % -   . + @ # @ @ + $ $ % @ @ @ + @ & # @ @ @ @ + $ $ + @ @ + @ & @ @ @ + @ @ $ $ @ @ @ + @ @ # $ $ @ @ @ + $ $ $ + & @ $ @ * = % -   . + @ # @ @ + $ $ % @ @ @ + @ & # @ @ @ @ + $ $ + @ @ + @ & @ @ @ + @ @ $ $ @ @ @ + @ @ # $ $ @ @ @ + $ $ $ + & @ $ @ * = % -   . + @ # @ @ + $ $ % @ @ @ + @ & # @ @ @ @ + $ $ + @ @ + @ & @ @ @ + @ @ $ $ @ @ @ + @ @ # $ $ @ @ @ + $ $ $ + & @ $ @ * = % -   . + @ # @ @ + $ $ % @ @ @ + @ & # @ @ @ @ + $ $ + @ @ + @ & @ @ @ + @ @ $ $ @ @ @ + @ @ # $ $ @ @ @ + $ $ $ + & @ $ @ * = % -   . + @ # @ @ + $ $ % @ @ @ + @ ",
"  . + @ # @ @ + $ $ % @ @ @ + @ & # @ @ @ @ + $ $ + @ @ + @ & @ @ @ + @ @ $ $ @ @ @ + @ @ # $ $ @ @ @ + $ $ $ + & @ $ @ * = % -   . + @ # @ @ + $ $ % @ @ @ + @ & # @ @ @ @ + $ $ + @ @ + @ & @ @ @ + @ @ $ $ @ @ @ + @ @ # $ $ @ @ @ + $ $ $ + & @ $ @ * = % -   . + @ # @ @ + $ $ % @ @ @ + @ & # @ @ @ @ + $ $ + @ @ + @ & @ @ @ + @ @ $ $ @ @ @ + @ @ # $ $ @ @ @ + $ $ $ + & @ $ @ * = % -   . + @ # @ @ + $ $ % @ @ @ + @ & # @ @ @ @ + $ $ + @ @ + @ & @ @ @ + @ @ $ $ @ @ @ + @ @ # $ $ @ @ @ + $ $ $ + & @ $ @ * = % -   . + @ # @ @ + $ $ % @ @ @ + @ & # @ @ @ @ + $ $ + @ @ + @ & @ @ @ + @ @ $ $ @ @ @ + @ @ # $ $ @ @ @ + $ $ $ + & @ $ @ * = % -   . + @ # @ @ + $ $ % @ @ @ + @ & # @ @ @ @ + $ $ + @ @ + @ & @ @ @ + @ @ $ $ @ @ @ + @ @ # $ $ @ @ @ + $ $ $ + & @ $ @ * = % -   . + @ # @ @ + $ $ % @ @ @ + @ ",
"  . + @ # @ @ + $ $ % @ @ @ + @ & # @ @ @ @ + $ $ + @ @ + @ & @ @ @ + @ @ $ $ @ @ @ + @ @ # $ $ @ @ @ + $ $ $ + & @ $ @ * = % -   . + @ # @ @ + $ $ % @ @ @ + @ & # @ @ @ @ + $ $ + @ @ + @ & @ @ @ + @ @ $ $ @ @ @ + @ @ # $ $ @ @ @ + $ $ $ + & @ $ @ * = % -   . + @ # @ @ + $ $ % @ @ @ + @ & # @ @ @ @ + $ $ + @ @ + @ & @ @ @ + @ @ $ $ @ @ @ + @ @ # $ $ @ @ @ + $ $ $ + & @ $ @ * = % -   . + @ # @ @ + $ $ % @ @ @ + @ & # @ @ @ @ + $ $ + @ @ + @ & @ @ @ + @ @ $ $ @ @ @ + @ @ # $ $ @ @ @ + $ $ $ + & @ $ @ * = % -   . + @ # @ @ + $ $ % @ @ @ + @ & # @ @ @ @ + $ $ + @ @ + @ & @ @ @ + @ @ $ $ @ @ @ + @ @ # $ $ @ @ @ + $ $ $ + & @ $ @ * = % -   . + @ # @ @ + $ $ % @ @ @ + @ & # @ @ @ @ + $ $ + @ @ + @ & @ @ @ + @ @ $ $ @ @ @ + @ @ # $ $ @ @ @ + $ $ $ + & @ $ @ * = % -   . + @ # @ @ + $ $ % @ @ @ + @ ",
"  . + @ # @ @ + $ $ % @ @ @ + @ & # @ @ @ @ + $ $ + @ @ + @ & @ @ @ + @ @ $ $ @ @ @ + @ @ # $ $ @ @ @ + $ $ $ + & @ $ @ * = % -   . + @ # @ @ + $ $ % @ @ @ + @ & # @ @ @ @ + $ $ + @ @ + @ & @ @ @ + @ @ $ $ @ @ @ + @ @ # $ $ @ @ @ + $ $ $ + & @ $ @ * = % -   . + @ # @ @ + $ $ % @ @ @ + @ & # @ @ @ @ + $ $ + @ @ + @ & @ @ @ + @ @ $ $ @ @ @ + @ @ # $ $ @ @ @ + $ $ $ + & @ $ @ * = % -   . + @ # @ @ + $ $ % @ @ @ + @ & # @ @ @ @ + $ $ + @ @ + @ & @ @ @ + @ @ $ $ @ @ @ + @ @ # $ $ @ @ @ + $ $ $ + & @ $ @ * = % -   . + @ # @ @ + $ $ % @ @ @ + @ & # @ @ @ @ + $ $ + @ @ + @ & @ @ @ + @ @ $ $ @ @ @ + @ @ # $ $ @ @ @ + $ $ $ + & @ $ @ * = % -   . + @ # @ @ + $ $ % @ @ @ + @ & # @ @ @ @ + $ $ + @ @ + @ & @ @ @ + @ @ $ $ @ @ @ + @ @ # $ $ @ @ @ + $ $ $ + & @ $ @ * = % -   . + @ # @ @ + $ $ % @ @ @ + @ ",
"  . + @ # @ @ + $ $ % @ @ @ + @ & # @ @ @ @ + $ + @ @ @ + @ @ @ @ @ + @ @ $ & @ @ + @ @ @ # $ $ @ @ @ + $ $ $ + & @ $ @ * = % -   . + @ # @ @ + $ $ % @ @ @ + @ & # @ @ @ @ + $ + @ @ @ + @ @ @ @ @ + @ @ $ & @ @ + @ @ @ # $ $ @ @ @ + $ $ $ + & @ $ @ * = % -   . + @ # @ @ + $ $ % @ @ @ + @ & # @ @ @ @ + $ + @ @ @ + @ @ @ @ @ + @ @ $ & @ @ + @ @ @ # $ $ @ @ @ + $ $ $ + & @ $ @ * = % -   . + @ # @ @ + $ $ % @ @ @ + @ & # @ @ @ @ + $ + @ @ @ + @ @ @ @ @ + @ @ $ & @ @ + @ @ @ # $ $ @ @ @ + $ $ $ + & @ $ @ * = % -   . + @ # @ @ + $ $ % @ @ @ + @ & # @ @ @ @ + $ + @ @ @ + @ @ @ @ @ + @ @ $ & @ @ + @ @ @ # $ $ @ @ @ + $ $ $ + & @ $ @ * = % -   . + @ # @ @ + $ $ % @ @ @ + @ & # @ @ @ @ + $ + @ @ @ + @ @ @ @ @ + @ @ $ & @ @ + @ @ @ # $ $ @ @ @ + $ $ $ + & @ $ @ * = % -   . + @ # @ @ + $ $ % @ @ @ + @ ",
"  . + @ # @ @ + $ $ % @ @ @ + @ & # @ @ @ + $ $ + @ @ @ + @ @ @ @ @ + @ @ $ & @ @ @ + @ @ # $ $ & @ @ + $ $ $ + & @ $ @ * = % -   . + @ # @ @ + $ $ % @ @ @ + @ & # @ @ @ + $ $ + @ @ @ + @ @ @ @ @ + @ @ $ & @ @ @ + @ @ # $ $ & @ @ + $ $ $ + & @ $ @ * = % -   . + @ # @ @ + $ $ % @ @ @ + @ & # @ @ @ + $ $ + @ @ @ + @ @ @ @ @ + @ @ $ & @ @ @ + @ @ # $ $ & @ @ + $ $ $ + & @ $ @ * = % -   . + @ # @ @ + $ $ % @ @ @ + @ & # @ @ @ + $ $ + @ @ @ + @ @ @ @ @ + @ @ $ & @ @ @ + @ @ # $ $ & @ @ + $ $ $ + & @ $ @ * = % -   . + @ # @ @ + $ $ % @ @ @ + @ & # @ @ @ + $ $ + @ @ @ + @ @ @ @ @ + @ @ $ & @ @ @ + @ @ # $ $ & @ @ + $ $ $ + & @ $ @ * = % -   . + @ # @ @ + $ $ % @ @ @ + @ & # @ @ @ + $ $ + @ @ @ + @ @ @ @ @ + @ @ $ & @ @ @ + @ @ # $ $ & @ @ + $ $ $ + & @ $ @ * = % -   . + @ # @ @ + $ $ % @ @ @ + @ ",
"  . + @ # @ @ + $ $ % @ @ @ + @ & # @ @ @ + $ $ + @ @ @ + @ @ @ @ @ + @ @ $ $ @ @ @ + @ @ # $ $ & @ @ + $ $ $ + & @ $ @ * = % -   . + @ # @ @ + $ $ % @ @ @ + @ & # @ @ @ + $ $ + @ @ @ + @ @ @ @ @ + @ @ $ $ @ @ @ + @ @ # $ $ & @ @ + $ $ $ + & @ $ @ * = % -   . + @ # @ @ + $ $ % @ @ @ + @ & # @ @ @ + $ $ + @ @ @ + @ @ @ @ @ + @ @ $ $ @ @ @ + @ @ # $ $ & @ @ + $ $ $ + & @ $ @ * = % -   . + @ # @ @ + $ $ % @ @ @ + @ & # @ @ @ + $ $ + @ @ @ + @ @ @ @ @ + @ @ $ $ @ @ @ + @ @ # $ $ & @ @ + $ $ $ + & @ $ @ * = % -   . + @ # @ @ + $ $ % @ @ @ + @ & # @ @ @ + $ $ + @ @ @ + @ @ @ @ @ + @ @ $ $ @ @ @ + @ @ # $ $ & @ @ + $ $ $ + & @ $ @ * = % -   . + @ # @ @ + $ $ % @ @ @ + @ & # @ @ @ + $ $ + @ @ @ + @ @ @ @ @ + @ @ $ $ @ @ @ + @ @ # $ $ & @ @ + $ $ $ + & @ $ @ * = % -   . + @ # @ @ + $ $ % @ @ @ + @ ",
"  . + @ # @ @ + $ $ % @ @ @ + @ & # @ @ @ + $ $ + @ @ @ + @ @ @ @ + @ @ @ @ $ $ @ @ + @ @ # $ $ & @ @ + $ $ $ + & @ $ @ * = % -   . + @ # @ @ + $ $ % @ @ @ + @ & # @ @ @ + $ $ + @ @ @ + @ @ @ @ + @ @ @ @ $ $ @ @ + @ @ # $ $ & @ @ + $ $ $ + & @ $ @ * = % -   . + @ # @ @ + $ $ % @ @ @ + @ & # @ @ @ + $ $ + @ @ @ + @ @ @ @ + @ @ @ @ $ $ @ @ + @ @ # $ $ & @ @ + $ $ $ + & @ $ @ * = % -   . + @ # @ @ + $ $ % @ @ @ + @ & # @ @ @ + $ $ + @ @ @ + @ @ @ @ + @ @ @ @ $ $ @ @ + @ @ # $ $ & @ @ + $ $ $ + & @ $ @ * = % -   . + @ # @ @ + $ $ % @ @ @ + @ & # @ @ @ + $ $ + @ @ @ + @ @ @ @ + @ @ @ @ $ $ @ @ + @ @ # $ $ & @ @ + $ $ $ + & @ $ @ * = % -   . + @ # @ @ + $ $ % @ @ @ + @ & # @ @ @ + $ $ + @ @ @ + @ @ @ @ + @ @ @ @ $ $ @ @ + @ @ # $ $ & @ @ + $ $ $ + & @ $ @ * = % -   . + @ # @ @ + $ $ % @ @ @ + @ ",
"  . + @ # @ @ + $ $ % @ @ + @ @ & # @ @ @ + $ $ + @ @ @ + @ @ @ + @ @ + @ @ $ $ @ @ + @ @ # $ $ & @ @ + $ $ $ + & @ $ @ * = % -   . + @ # @ @ + $ $ % @ @ + @ @ & # @ @ @ + $ $ + @ @ @ + @ @ @ + @ @ + @ @ $ $ @ @ + @ @ # $ $ & @ @ + $ $ $ + & @ $ @ * = % -   . + @ # @ @ + $ $ % @ @ + @ @ & # @ @ @ + $ $ + @ @ @ + @ @ @ + @ @ + @ @ $ $ @ @ + @ @ # $ $ & @ @ + $ $ $ + & @ $ @ * = % -   . + @ # @ @ + $ $ % @ @ + @ @ & # @ @ @ + $ $ + @ @ @ + @ @ @ + @ @ + @ @ $ $ @ @ + @ @ # $ $ & @ @ + $ $ $ + & @ $ @ * = % -   . + @ # @ @ + $ $ % @ @ + @ @ & # @ @ @ + $ $ + @ @ @ + @ @ @ + @ @ + @ @ $ $ @ @ + @ @ # $ $ & @ @ + $ $ $ + & @ $ @ * = % -   . + @ # @ @ + $ $ % @ @ + @ @ & # @ @ @ + $ $ + @ @ @ + @ @ @ + @ @ + @ @ $ $ @ @ + @ @ # $ $ & @ @ + $ $ $ + & @ $ @ * = % -   . + @ # @ @ + $ $ % @ @ + @ @ ",
"  . + @ # @ @ + $ $ % @ @ + @ @ & # @ @ @ + $ $ + @ @ @ + @ @ @ + @ @ + + @ $ $ @ @ + @ @ # $ $ & @ @ + $ $ $ + & @ $ @ * = % -   . + @ # @ @ + $ $ % @ @ + @ @ & # @ @ @ + $ $ + @ @ @ + @ @ @ + @ @ + + @ $ $ @ @ + @ @ # $ $ & @ @ + $ $ $ + & @ $ @ * = % -   . + @ # @ @ + $ $ % @ @ + @ @ & # @ @ @ + $ $ + @ @ @ + @ @ @ + @ @ + + @ $ $ @ @ + @ @ # $ $ & @ @ + $ $ $ + & @ $ @ * = % -   . + @ # @ @ + $ $ % @ @ + @ @ & # @ @ @ + $ $ + @ @ @ + @ @ @ + @ @ + + @ $ $ @ @ + @ @ # $ $ & @ @ + $ $ $ + & @ $ @ * = % -   . + @ # @ @ + $ $ % @ @ + @ @ & # @ @ @ + $ $ + @ @ @ + @ @ @ + @ @ + + @ $ $ @ @ + @ @ # $ $ & @ @ + $ $ $ + & @ $ @ * = % -   . + @ # @ @ + $ $ % @ @ + @ @ & # @ @ @ + $ $ + @ @ @ + @ @ @ + @ @ + + @ $ $ @ @ + @ @ # $ $ & @ @ + $ $ $ + & @ $ @ * = % -   . + @ # @ @ + $ $ % @ @ + @ @ ",
"  . + @ # @ @ + $ $ % @ @ + @ @ & # @ @ @ + $ $ + @ @ @ + @ @ @ + @ @ + + @ $ $ @ @ + @ @ # $ $ & @ @ + $ $ $ + & @ $ @ * = % -   . + @ # @ @ + $ $ % @ @ + @ @ & # @ @ @ + $ $ + @ @ @ + @ @ @ + @ @ + + @ $ $ @ @ + @ @ # $ $ & @ @ + $ $ $ + & @ $ @ * = % -   . + @ # @ @ + $ $ % @ @ + @ @ & # @ @ @ + $ $ + @ @ @ + @ @ @ + @ @ + + @ $ $ @ @ + @ @ # $ $ & @ @ + $ $ $ + & @ $ @ * = % -   . + @ # @ @ + $ $ % @ @ + @ @ & # @ @ @ + $ $ + @ @ @ + @ @ @ + @ @ + + @ $ $ @ @ + @ @ # $ $ & @ @ + $ $ $ + & @ $ @ * = % -   . + @ # @ @ + $ $ % @ @ + @ @ & # @ @ @ + $ $ + @ @ @ + @ @ @ + @ @ + + @ $ $ @ @ + @ @ # $ $ & @ @ + $ $ $ + & @ $ @ * = % -   . + @ # @ @ + $ $ % @ @ + @ @ & # @ @ @ + $ $ + @ @ @ + @ @ @ + @ @ + + @ $ $ @ @ + @ @ # $ $ & @ @ + $ $ $ + & @ $ @ * = % -   . + @ # @ @ + $ $ % @ @ + @ @ ",
"  . + @ # @ @ + $ $ % @ @ + @ @ & # @ @ @ @ + $ + @ @ @ + @ @ + @ @ + @ + @ $ $ @ @ + @ @ # $ $ & @ @ + $ $ $ + & @ $ @ * = % -   . + @ # @ @ + $ $ % @ @ + @ @ & # @ @ @ @ + $ + @ @ @ + @ @ + @ @ + @ + @ $ $ @ @ + @ @ # $ $ & @ @ + $ $ $ + & @ $ @ * = % -   . + @ # @ @ + $ $ % @ @ + @ @ & # @ @ @ @ + $ + @ @ @ + @ @ + @ @ + @ + @ $ $ @ @ + @ @ # $ $ & @ @ + $ $ $ + & @ $ @ * = % -   . + @ # @ @ + $ $ % @ @ + @ @ & # @ @ @ @ + $ + @ @ @ + @ @ + @ @ + @ + @ $ $ @ @ + @ @ # $ $ & @ @ + $ $ $ + & @ $ @ * = % -   . + @ # @ @ + $ $ % @ @ + @ @ & # @ @ @ @ + $ + @ @ @ + @ @ + @ @ + @ + @ $ $ @ @ + @ @ # $ $ & @ @ + $ $ $ + & @ $ @ * = % -   . + @ # @ @ + $ $ % @ @ + @ @ & # @ @ @ @ + $ + @ @ @ + @ @ + @ @ + @ + @ $ $ @ @ + @ @ # $ $ & @ @ + $ $ $ + & @ $ @ * = % -   . + @ # @ @ + $ $ % @ @ + @ @ ",
"  . + @ # @ @ + $ $ % @ @ + @ @ & # @ @ @ @ + $ + @ @ @ + @ @ + @ @ + @ + @ & $ @ @ + @ @ # $ $ & @ @ + $ $ $ + & @ $ @ * = % -   . + @ # @ @ + $ $ % @ @ + @ @ & # @ @ @ @ + $ + @ @ @ + @ @ + @ @ + @ + @ & $ @ @ + @ @ # $ $ & @ @ + $ $ $ + & @ $ @ * = % -   . + @ # @ @ + $ $ % @ @ + @ @ & # @ @ @ @ + $ + @ @ @ + @ @ + @ @ + @ + @ & $ @ @ + @ @ # $ $ & @ @ + $ $ $ + & @ $ @ * = % -   . + @ # @ @ + $ $ % @ @ + @ @ & # @ @ @ @ + $ + @ @ @ + @ @ + @ @ + @ + @ & $ @ @ + @ @ # $ $ & @ @ + $ $ $ + & @ $ @ * = % -   . + @ # @ @ + $ $ % @ @ + @ @ & # @ @ @ @ + $ + @ @ @ + @ @ + @ @ + @ + @ & $ @ @ + @ @ # $ $ & @ @ + $ $ $ + & @ $ @ * = % -   . + @ # @ @ + $ $ % @ @ + @ @ & # @ @ @ @ + $ + @ @ @ + @ @ + @ @ + @ + @ & $ @ @ + @ @ # $ $ & @ @ + $ $ $ + & @ $ @ * = % -   . + @ # @ @ + $ $ % @ @ + @ @ ",
"  . + @ # @ @ + $ $ % @ @ + @ @ & # @ @ @ @ + $ + @ @ @ + @ + @ @ @ + # + @ @ $ @ @ + @ @ # $ $ & @ @ + $ $ $ + & @ $ @ * = % -   . + @ # @ @ + $ $ % @ @ + @ @ & # @ @ @ @ + $ + @ @ @ + @ + @ @ @ + # + @ @ $ @ @ + @ @ # $ $ & @ @ + $ $ $ + & @ $ @ * = % -   . + @ # @ @ + $ $ % @ @ + @ @ & # @ @ @ @ + $ + @ @ @ + @ + @ @ @ + # + @ @ $ @ @ + @ @ # $ $ & @ @ + $ $ $ + & @ $ @ * = % -   . + @ # @ @ + $ $ % @ @ + @ @ & # @ @ @ @ + $ + @ @ @ + @ + @ @ @ + # + @ @ $ @ @ + @ @ # $ $ & @ @ + $ $ $ + & @ $ @ * = % -   . + @ # @ @ + $ $ % @ @ + @ @ & # @ @ @ @ + $ + @ @ @ + @ + @ @ @ + # + @ @ $ @ @ + @ @ # $ $ & @ @ + $ $ $ + & @ $ @ * = % -   . + @ # @ @ + $ $ % @ @ + @ @ & # @ @ @ @ + $ + @ @ @ + @ + @ @ @ + # + @ @ $ @ @ + @ @ # $ $ & @ @ + $ $ $ + & @ $ @ * = % -   . + @ # @ @ + $ $ % @ @ + @ @ ",
"  . + @ # @ @ + $ $ % @ @ + @ @ & # @ @ @ @ + $ + @ @ @ + @ + @ @ @ + # @ + @ $ & @ + @ @ # $ $ & @ @ + $ $ $ + & @ $ @ * = % -   . + @ # @ @ + $ $ % @ @ + @ @ & # @ @ @ @ + $ + @ @ @ + @ + @ @ @ + # @ + @ $ & @ + @ @ # $ $ & @ @ + $ $ $ + & @ $ @ * = % -   . + @ # @ @ + $ $ % @ @ + @ @ & # @ @ @ @ + $ + @ @ @ + @ + @ @ @ + # @ + @ $ & @ + @ @ # $ $ & @ @ + $ $ $ + & @ $ @ * = % -   . + @ # @ @ + $ $ % @ @ + @ @ & # @ @ @ @ + $ + @ @ @ + @ + @ @ @ + # @ + @ $ & @ + @ @ # $ $ & @ @ + $ $ $ + & @ $ @ * = % -   . + @ # @ @ + $ $ % @ @ + @ @ & # @ @ @ @ + $ + @ @ @ + @ + @ @ @ + # @ + @ $ & @ + @ @ # $ $ & @ @ + $ $ $ + & @ $ @ * = % -   . + @ # @ @ + $ $ % @ @ + @ @ & # @ @ @ @ + $ + @ @ @ + @ + @ @ @ + # @ + @ $ & @ + @ @ # $ $ & @ @ + $ $ $ + & @ $ @ * = % -   . + @ # @ @ + $ $ % @ @ + @ @ ",
"  . + @ # @ @ + $ $ % @ @ + @ @ & # @ @ @ @ + $ + @ @ @ + @ + @ @ % @ # @ + @ $ $ @ + @ @ # $ $ & @ @ + $ $ $ + & @ $ @ * = % -   . + @ # @ @ + $ $ % @ @ + @ @ & # @ @ @ @ + $ + @ @ @ + @ + @ @ % @ # @ + @ $ $ @ + @ @ # $ $ & @ @ + $ $ $ + & @ $ @ * = % -   . + @ # @ @ + $ $ % @ @ + @ @ & # @ @ @ @ + $ + @ @ @ + @ + @ @ % @ # @ + @ $ $ @ + @ @ # $ $ & @ @ + $ $ $ + & @ $ @ * = % -   . + @ # @ @ + $ $ % @ @ + @ @ & # @ @ @ @ + $ + @ @ @ + @ + @ @ % @ # @ + @ $ $ @ + @ @ # $ $ & @ @ + $ $ $ + & @ $ @ * = % -   . + @ # @ @ + $ $ % @ @ + @ @ & # @ @ @ @ + $ + @ @ @ + @ + @ @ % @ # @ + @ $ $ @ + @ @ # $ $ & @ @ + $ $ $ + & @ $ @ * = % -   . + @ # @ @ + $ $ % @ @ + @ @ & # @ @ @ @ + $ + @ @ @ + @ + @ @ % @ # @ + @ $ $ @ + @ @ # $ $ & @ @ + $ $ $ + & @ $ @ * = % -   . + @ # @ @ + $ $ % @ @ + @ @ ",
"  . + @ # @ @ + $ $ % @ @ + @ @ & # @ @ @ @ + $ + @ @ @ + @ + @ @ % @ # @ + @ $ $ @ + @ @ # $ $ & @ @ + $ $ $ + & @ $ @ * = % -   . + @ # @ @ + $ $ % @ @ + @ @ & # @ @ @ @ + $ + @ @ @ + @ + @ @ % @ # @ + @ $ $ @ + @ @ # $ $ & @ @ + $ $ $ + & @ $ @ * = % -   . + @ # @ @ + $ $ % @ @ + @ @ & # @ @ @ @ + $ + @ @ @ + @ + @ @ % @ # @ + @ $ $ @ + @ @ # $ $ & @ @ + $ $ $ + & @ $ @ * = % -   . + @ # @ @ + $ $ % @ @ + @ @ & # @ @ @ @ + $ + @ @ @ + @ + @ @ % @ # @ + @ $ $ @ + @ @ # $ $ & @ @ + $ $ $ + & @ $ @ * = % -   . + @ # @ @ + $ $ % @ @ + @ @ & # @ @ @ @ + $ + @ @ @ + @ + @ @ % @ # @ + @ $ $ @ + @ @ # $ $ & @ @ + $ $ $ + & @ $ @ * = % -   . + @ # @ @ + $ $ % @ @ + @ @ & # @ @ @ @ + $ + @ @ @ + @ + @ @ % @ # @ + @ $ $ @ + @ @ # $ $ & @ @ + $ $ $ + & @ $ @ * = % -   . + @ # @ @ + $ $ % @ @ + @ @ ",
"  . + @ # @ @ + $ $ % @ @ + @ @ & # @ @ @ @ + $ + @ @ @ + @ + @ @ % @ # @ + @ @ $ @ + @ @ # $ $ & @ @ + $ $ $ + & @ $ @ * = % -   . + @ # @ @ + $ $ % @ @ + @ @ & # @ @ @ @ + $ + @ @ @ + @ + @ @ % @ # @ + @ @ $ @ + @ @ # $ $ & @ @ + $ $ $ + & @ $ @ * = % -   . + @ # @ @ + $ $ % @ @ + @ @ & # @ @ @ @ + $ + @ @ @ + @ + @ @ % @ # @ + @ @ $ @ + @ @ # $ $ & @ @ + $ $ $ + & @ $ @ * = % -   . + @ # @ @ + $ $ % @ @ + @ @ & # @ @ @ @ + $ + @ @ @ + @ + @ @ % @ # @ + @ @ $ @ + @ @ # $ $ & @ @ + $ $ $ + & @ $ @ * = % -   . + @ # @ @ + $ $ % @ @ + @ @ & # @ @ @ @ + $ + @ @ @ + @ + @ @ % @ # @ + @ @ $ @ + @ @ # $ $ & @ @ + $ $ $ + & @ $ @ * = % -   . + @ # @ @ + $ $ % @ @ + @ @ & # @ @ @ @ + $ + @ @ @ + @ + @ @ % @ # @ + @ @ $ @ + @ @ # $ $ & @ @ + $ $ $ + & @ $ @ * = % -   . + @ # @ @ + $ $ % @ @ + @ @ ",
"  . + @ # @ @ + $ $ % @ @ + @ @ & # @ @ @ @ + $ + @ @ @ + @ + @ @ % @ @ @ @ % @ $ @ + @ @ # $ $ & @ @ + $ $ $ + & @ $ @ * = % -   . + @ # @ @ + $ $ % @ @ + @ @ & # @ @ @ @ + $ + @ @ @ + @ + @ @ % @ @ @ @ % @ $ @ + @ @ # $ $ & @ @ + $ $ $ + & @ $ @ * = % -   . + @ # @ @ + $ $ % @ @ + @ @ & # @ @ @ @ + $ + @ @ @ + @ + @ @ % @ @ @ @ % @ $ @ + @ @ # $ $ & @ @ + $ $ $ + & @ $ @ * = % -   . + @ # @ @ + $ $ % @ @ + @ @ & # @ @ @ @ + $ + @ @ @ + @ + @ @ % @ @ @ @ % @ $ @ + @ @ # $ $ & @ @ + $ $ $ + & @ $ @ * = % -   . + @ # @ @ + $ $ % @ @ + @ @ & # @ @ @ @ + $ + @ @ @ + @ + @ @ % @ @ @ @ % @ $ @ + @ @ # $ $ & @ @ + $ $ $ + & @ $ @ * = % -   . + @ # @ @ + $ $ % @ @ + @ @ & # @ @ @ @ + $ + @ @ @ + @ + @ @ % @ @ @ @ % @ $ @ + @ @ # $ $ & @ @ + $ $ $ + & @ $ @ * = % -   . + @ # @ @ + $ $ % @ @ + @ @ ",
"  . + @ # @ @ + $ $ % @ @ + @ @ & # @ @ @ @ + $ + @ @ @ + @ + @ @ % @ % # @ % @ $ @ + @ @ # $ $ & @ @ + $ $ $ + & @ $ @ * = % -   . + @ # @ @ + $ $ % @ @ + @ @ & # @ @ @ @ + $ + @ @ @ + @ + @ @ % @ % # @ % @ $ @ + @ @ # $ $ & @ @ + $ $ $ + & @ $ @ * = % -   . + @ # @ @ + $ $ % @ @ + @ @ & # @ @ @ @ + $ + @ @ @ + @ + @ @ % @ % # @ % @ $ @ + @ @ # $ $ & @ @ + $ $ $ + & @ $ @ * = % -   . + @ # @ @ + $ $ % @ @ + @ @ & # @ @ @ @ + $ + @ @ @ + @ + @ @ % @ % # @ % @ $ @ + @ @ # $ $ & @ @ + $ $ $ + & @ $ @ * = % -   . + @ # @ @ + $ $ % @ @ + @ @ & # @ @ @ @ + $ + @ @ @ + @ + @ @ % @ % # @ % @ $ @ + @ @ # $ $ & @ @ + $ $ $ + & @ $ @ * = % -   . + @ # @ @ + $ $ % @ @ + @ @ & # @ @ @ @ + $ + @ @ @ + @ + @ @ % @ % # @ % @ $ @ + @ @ # $ $ & @ @ + $ $ $ + & @ $ @ * = % -   . + @ # @ @ + $ $ % @ @ + @ @ ",
"  . + @ # @ @ + $ $ % @ @ + @ @ & # @ @ @ @ + $ + @ @ @ + @ + @ % # @ % % @ % @ $ @ + @ @ # $ $ & @ @ + $ $ $ + & @ $ @ * = % -   . + @ # @ @ + $ $ % @ @ + @ @ & # @ @ @ @ + $ + @ @ @ + @ + @ % # @ % % @ % @ $ @ + @ @ # $ $ & @ @ + $ $ $ + & @ $ @ * = % -   . + @ # @ @ + $ $ % @ @ + @ @ & # @ @ @ @ + $ + @ @ @ + @ + @ % # @ % % @ % @ $ @ + @ @ # $ $ & @ @ + $ $ $ + & @ $ @ * = % -   . + @ # @ @ + $ $ % @ @ + @ @ & # @ @ @ @ + $ + @ @ @ + @ + @ % # @ % % @ % @ $ @ + @ @ # $ $ & @ @ + $ $ $ + & @ $ @ * = % -   . + @ # @ @ + $ $ % @ @ + @ @ & # @ @ @ @ + $ + @ @ @ + @ + @ % # @ % % @ % @ $ @ + @ @ # $ $ & @ @ + $ $ $ + & @ $ @ * = % -   . + @ # @ @ + $ $ % @ @ + @ @ & # @ @ @ @ + $ + @ @ @ + @ + @ % # @ % % @ % @ $ @ + @ @ # $ $ & @ @ + $ $ $ + & @ $ @ * = % -   . + @ # @ @ + $ $ % @ @ + @ @ ",
"  . + @ # @ @ + $ $ % @ @ + @ @ & # @ @ @ @ + $ + @ @ @ + @ + @ % @ % % ; % @ % @ & + @ @ # $ $ & @ @ + $ $ $ + & @ $ @ * = % -   . + @ # @ @ + $ $ % @ @ + @ @ & # @ @ @ @ + $ + @ @ @ + @ + @ % @ % % ; % @ % @ & + @ @ # $ $ & @ @ + $ $ $ + & @ $ @ * = % -   . + @ # @ @ + $ $ % @ @ + @ @ & # @ @ @ @ + $ + @ @ @ + @ + @ % @ % % ; % @ % @ & + @ @ # $ $ & @ @ + $ $ $ + & @ $ @ * = % -   . + @ # @ @ + $ $ % @ @ + @ @ & # @ @ @ @ + $ + @ @ @ + @ + @ % @ % % ; % @ % @ & + @ @ # $ $ & @ @ + $ $ $ + & @ $ @ * = % -   . + @ # @ @ + $ $ % @ @ + @ @ & # @ @ @ @ + $ + @ @ @ + @ + @ % @ % % ; % @ % @ & + @ @ # $ $ & @ @ + $ $ $ + & @ $ @ * = % -   . + @ # @ @ + $ $ % @ @ + @ @ & # @ @ @ @ + $ + @ @ @ + @ + @ % @ % % ; % @ % @ & + @ @ # $ $ & @ @ + $ $ $ + & @ $ @ * = % -   . + @ # @ @ + $ $ % @ @ + @ @ ",
"  . + @ # @ @ + $ $ % @ @ + @ @ & # @ @ @ @ + $ + @ @ @ + @ + @ % @ > ; % % @ % @ & @ + @ # $ $ & @ @ @ + $ $ + & @ $ @ * = % -   . + @ # @ @ + $ $ % @ @ + @ @ & # @ @ @ @ + $ + @ @ @ + @ + @ % @ > ; % % @ % @ & @ + @ # $ $ & @ @ @ + $ $ + & @ $ @ * = % -   . + @ # @ @ + $ $ % @ @ + @ @ & # @ @ @ @ + $ + @ @ @ + @ + @ % @ > ; % % @ % @ & @ + @ # $ $ & @ @ @ + $ $ + & @ $ @ * = % -   . + @ # @ @ + $ $ % @ @ + @ @ & # @ @ @ @ + $ + @ @ @ + @ + @ % @ > ; % % @ % @ & @ + @ # $ $ & @ @ @ + $ $ + & @ $ @ * = % -   . + @ # @ @ + $ $ % @ @ + @ @ & # @ @ @ @ + $ + @ @ @ + @ + @ % @ > ; % % @ % @ & @ + @ # $ $ & @ @ @ + $ $ + & @ $ @ * = % -   . + @ # @ @ + $ $ % @ @ + @ @ & # @ @ @ @ + $ + @ @ @ + @ + @ % @ > ; % % @ % @ & @ + @ # $ $ & @ @ @ + $ $ + & @ $ @ * = % -   . + @ # @ @ + $ $ % @ @ + @ @ ",
"  . + @ # @ @ + $ $ % @ @ + @ @ & # @ @ @ @ + $ + @ @ + @ @ + @ % @ % + % @ @ % @ & @ + @ # $ $ & @ @ @ + $ $ + & @ $ @ * = % -   . + @ # @ @ + $ $ % @ @ + @ @ & # @ @ @ @ + $ + @ @ + @ @ + @ % @ % + % @ @ % @ & @ + @ # $ $ & @ @ @ + $ $ + & @ $ @ * = % -   . + @ # @ @ + $ $ % @ @ + @ @ & # @ @ @ @ + $ + @ @ + @ @ + @ % @ % + % @ @ % @ & @ + @ # $ $ & @ @ @ + $ $ + & @ $ @ * = % -   . + @ # @ @ + $ $ % @ @ + @ @ & # @ @ @ @ + $ + @ @ + @ @ + @ % @ % + % @ @ % @ & @ + @ # $ $ & @ @ @ + $ $ + & @ $ @ * = % -   . + @ # @ @ + $ $ % @ @ + @ @ & # @ @ @ @ + $ + @ @ + @ @ + @ % @ % + % @ @ % @ & @ + @ # $ $ & @ @ @ + $ $ + & @ $ @ * = % -   . + @ # @ @ + $ $ % @ @ + @ @ & # @ @ @ @ + $ + @ @ + @ @ + @ % @ % + % @ @ % @ & @ + @ # $ $ & @ @ @ + $ $ + & @ $ @ * = % -   . + @ # @ @ + $ $ % @ @ + @ @ ",
"  . + @ # @ @ + $ $ % @ @ + @ @ & # @ @ @ @ + $ + @ @ + @ @ + @ % @ % + % @ @ % @ & @ + @ # $ $ & @ @ @ + $ $ + & @ $ @ * = % -   . + @ # @ @ + $ $ % @ @ + @ @ & # @ @ @ @ + $ + @ @ + @ @ + @ % @ % + % @ @ % @ & @ + @ # $ $ & @ @ @ + $ $ + & @ $ @ * = % -   . + @ # @ @ + $ $ % @ @ + @ @ & # @ @ @ @ + $ + @ @ + @ @ + @ % @ % + % @ @ % @ & @ + @ # $ $ & @ @ @ + $ $ + & @ $ @ * = % -   . + @ # @ @ + $ $ % @ @ + @ @ & # @ @ @ @ + $ + @ @ + @ @ + @ % @ % + % @ @ % @ & @ + @ # $ $ & @ @ @ + $ $ + & @ $ @ * = % -   . + @ # @ @ + $ $ % @ @ + @ @ & # @ @ @ @ + $ + @ @ + @ @ + @ % @ % + % @ @ % @ & @ + @ # $ $ & @ @ @ + $ $ + & @ $ @ * = % -   . + @ # @ @ + $ $ % @ @ + @ @ & # @ @ @ @ + $ + @ @ + @ @ + @ % @ % + % @ @ % @ & @ + @ # $ $ & @ @ @ + $ $ + & @ $ @ * = % -   . + @ # @ @ + $ $ % @ @ + @ @ ",
"  . + @ # @ @ + $ $ % @ @ + @ @ & # @ @ @ @ + $ $ + @ + @ @ + @ % @ % + > @ @ % @ & @ + @ # $ $ & @ @ @ + $ $ + & @ $ @ * = % -   . + @ # @ @ + $ $ % @ @ + @ @ & # @ @ @ @ + $ $ + @ + @ @ + @ % @ % + > @ @ % @ & @ + @ # $ $ & @ @ @ + $ $ + & @ $ @ * = % -   . + @ # @ @ + $ $ % @ @ + @ @ & # @ @ @ @ + $ $ + @ + @ @ + @ % @ % + > @ @ % @ & @ + @ # $ $ & @ @ @ + $ $ + & @ $ @ * = % -   . + @ # @ @ + $ $ % @ @ + @ @ & # @ @ @ @ + $ $ + @ + @ @ + @ % @ % + > @ @ % @ & @ + @ # $ $ & @ @ @ + $ $ + & @ $ @ * = % -   . + @ # @ @ + $ $ % @ @ + @ @ & # @ @ @ @ + $ $ + @ + @ @ + @ % @ % + > @ @ % @ & @ + @ # $ $ & @ @ @ + $ $ + & @ $ @ * = % -   . + @ # @ @ + $ $ % @ @ + @ @ & # @ @ @ @ + $ $ + @ + @ @ + @ % @ % + > @ @ % @ & @ + @ # $ $ & @ @ @ + $ $ + & @ $ @ * = % -   . + @ # @ @ + $ $ % @ @ + @ @ ",
"  . + @ # @ @ + $ $ % @ @ + @ @ & # @ @ @ @ + $ $ + @ + @ @ + @ % @ % + % @ @ % @ & @ + @ # $ $ & @ @ @ + $ $ + & @ $ @ * = % -   . + @ # @ @ + $ $ % @ @ + @ @ & # @ @ @ @ + $ $ + @ + @ @ + @ % @ % + % @ @ % @ & @ + @ # $ $ & @ @ @ + $ $ + & @ $ @ * = % -   . + @ # @ @ + $ $ % @ @ + @ @ & # @ @ @ @ + $ $ + @ + @ @ + @ % @ % + % @ @ % @ & @ + @ # $ $ & @ @ @ + $ $ + & @ $ @ * = % -   . + @ # @ @ + $ $ % @ @ + @ @ & # @ @ @ @ + $ $ + @ + @ @ + @ % @ % + % @ @ % @ & @ + @ # $ $ & @ @ @ + $ $ + & @ $ @ * = % -   . + @ # @ @ + $ $ % @ @ + @ @ & # @ @ @ @ + $ $ + @ + @ @ + @ % @ % + % @ @ % @ & @ + @ # $ $ & @ @ @ + $ $ + & @ $ @ * = % -   . + @ # @ @ + $ $ % @ @ + @ @ & # @ @ @ @ + $ $ + @ + @ @ + @ % @ % + % @ @ % @ & @ + @ # $ $ & @ @ @ + $ $ + & @ $ @ * = % -   . + @ # @ @ + $ $ % @ @ + @ @ ",
"  . + @ # @ @ + $ $ % @ @ + @ @ & # @ @ @ @ + $ $ + @ + @ @ + @ % @ % + > @ % @ @ & @ + @ # $ $ & @ @ @ + $ $ + & @ $ @ * = % -   . + @ # @ @ + $ $ % @ @ + @ @ & # @ @ @ @ + $ $ + @ + @ @ + @ % @ % + > @ % @ @ & @ + @ # $ $ & @ @ @ + $ $ + & @ $ @ * = % -   . + @ # @ @ + $ $ % @ @ + @ @ & # @ @ @ @ + $ $ + @ + @ @ + @ % @ % + > @ % @ @ & @ + @ # $ $ & @ @ @ + $ $ + & @ $ @ * = % -   . + @ # @ @ + $ $ % @ @ + @ @ & # @ @ @ @ + $ $ + @ + @ @ + @ % @ % + > @ % @ @ & @ + @ # $ $ & @ @ @ + $ $ + & @ $ @ * = % -   . + @ # @ @ + $ $ % @ @ + @ @ & # @ @ @ @ + $ $ + @ + @ @ + @ % @ % + > @ % @ @ & @ + @ # $ $ & @ @ @ + $ $ + & @ $ @ * = % -   . + @ # @ @ + $ $ % @ @ + @ @ & # @ @ @ @ + $ $ + @ + @ @ + @ % @ % + > @ % @ @ & @ + @ # $ $ & @ @ @ + $ $ + & @ $ @ * = % -   . + @ # @ @ + $ $ % @ @ + @ @ ",
"  . + @ # @ @ + $ $ % @ @ + @ @ & # @ @ @ @ + $ $ + @ + @ @ + @ % @ % % % @ % @ @ & @ + @ # $ $ & @ @ @ + $ $ + & @ $ @ * = % -   . + @ # @ @ + $ $ % @ @ + @ @ & # @ @ @ @ + $ $ + @ + @ @ + @ % @ % % % @ % @ @ & @ + @ # $ $ & @ @ @ + $ $ + & @ $ @ * = % -   . + @ # @ @ + $ $ % @ @ + @ @ & # @ @ @ @ + $ $ + @ + @ @ + @ % @ % % % @ % @ @ & @ + @ # $ $ & @ @ @ + $ $ + & @ $ @ * = % -   . + @ # @ @ + $ $ % @ @ + @ @ & # @ @ @ @ + $ $ + @ + @ @ + @ % @ % % % @ % @ @ & @ + @ # $ $ & @ @ @ + $ $ + & @ $ @ * = % -   . + @ # @ @ + $ $ % @ @ + @ @ & # @ @ @ @ + $ $ + @ + @ @ + @ % @ % % % @ % @ @ & @ + @ # $ $ & @ @ @ + $ $ + & @ $ @ * = % -   . + @ # @ @ + $ $ % @ @ + @ @ & # @ @ @ @ + $ $ + @ + @ @ + @ % @ % % % @ % @ @ & @ + @ # $ $ & @ @ @ + $ $ + & @ $ @ * = % -   . + @ # @ @ + $ $ % @ @ + @ @ ",
"  . + @ # @ @ + $ $ % @ @ + @ @ & # @ @ @ @ + $ $ + @ + @ @ + @ @ % @ % @ @ % @ @ $ @ + @ # $ $ & @ @ @ + $ $ + & @ $ @ * = % -   . + @ # @ @ + $ $ % @ @ + @ @ & # @ @ @ @ + $ $ + @ + @ @ + @ @ % @ % @ @ % @ @ $ @ + @ # $ $ & @ @ @ + $ $ + & @ $ @ * = % -   . + @ # @ @ + $ $ % @ @ + @ @ & # @ @ @ @ + $ $ + @ + @ @ + @ @ % @ % @ @ % @ @ $ @ + @ # $ $ & @ @ @ + $ $ + & @ $ @ * = % -   . + @ # @ @ + $ $ % @ @ + @ @ & # @ @ @ @ + $ $ + @ + @ @ + @ @ % @ % @ @ % @ @ $ @ + @ # $ $ & @ @ @ + $ $ + & @ $ @ * = % -   . + @ # @ @ + $ $ % @ @ + @ @ & # @ @ @ @ + $ $ + @ + @ @ + @ @ % @ % @ @ % @ @ $ @ + @ # $ $ & @ @ @ + $ $ + & @ $ @ * = % -   . + @ # @ @ + $ $ % @ @ + @ @ & # @ @ @ @ + $ $ + @ + @ @ + @ @ % @ % @ @ % @ @ $ @ + @ # $ $ & @ @ @ + $ $ + & @ $ @ * = % -   . + @ # @ @ + $ $ % @ @ + @ @ ",
"  . + @ # @ @ + $ $ % @ @ + @ @ & # @ @ @ @ + $ $ + @ + @ @ + @ @ % @ @ @ @ % @ @ $ @ + @ # $ $ & @ @ @ + $ $ + & @ $ @ * = % -   . + @ # @ @ + $ $ % @ @ + @ @ & # @ @ @ @ + $ $ + @ + @ @ + @ @ % @ @ @ @ % @ @ $ @ + @ # $ $ & @ @ @ + $ $ + & @ $ @ * = % -   . + @ # @ @ + $ $ % @ @ + @ @ & # @ @ @ @ + $ $ + @ + @ @ + @ @ % @ @ @ @ % @ @ $ @ + @ # $ $ & @ @ @ + $ $ + & @ $ @ * = % -   . + @ # @ @ + $ $ % @ @ + @ @ & # @ @ @ @ + $ $ + @ + @ @ + @ @ % @ @ @ @ % @ @ $ @ + @ # $ $ & @ @ @ + $ $ + & @ $ @ * = % -   . + @ # @ @ + $ $ % @ @ + @ @ & # @ @ @ @ + $ $ + @ + @ @ + @ @ % @ @ @ @ % @ @ $ @ + @ # $ $ & @ @ @ + $ $ + & @ $ @ * = % -   . + @ # @ @ + $ $ % @ @ + @ @ & # @ @ @ @ + $ $ + @ + @ @ + @ @ % @ @ @ @ % @ @ $ @ + @ # $ $ & @ @ @ + $ $ + & @ $ @ * = % -   . + @ # @ @ + $ $ % @ @ + @ @ ",
"  . + @ # @ @ + $ $ % @ @ + @ @ & # @ @ @ + $ $ $ + @ + @ @ + @ @ @ % @ @ @ % @ @ $ @ + @ # $ $ & @ @ @ + $ $ + & @ $ @ * = % -   . + @ # @ @ + $ $ % @ @ + @ @ & # @ @ @ + $ $ $ + @ + @ @ + @ @ @ % @ @ @ % @ @ $ @ + @ # $ $ & @ @ @ + $ $ + & @ $ @ * = % -   . + @ # @ @ + $ $ % @ @ + @ @ & # @ @ @ + $ $ $ + @ + @ @ + @ @ @ % @ @ @ % @ @ $ @ + @ # $ $ & @ @ @ + $ $ + & @ $ @ * = % -   . + @ # @ @ + $ $ % @ @ + @ @ & # @ @ @ + $ $ $ + @ + @ @ + @ @ @ % @ @ @ % @ @ $ @ + @ # $ $ & @ @ @ + $ $ + & @ $ @ * = % -   . + @ # @ @ + $ $ % @ @ + @ @ & # @ @ @ + $ $ $ + @ + @ @ + @ @ @ % @ @ @ % @ @ $ @ + @ # $ $ & @ @ @ + $ $ + & @ $ @ * = % -   . + @ # @ @ + $ $ % @ @ + @ @ & # @ @ @ + $ $ $ + @ + @ @ + @ @ @ % @ @ @ % @ @ $ @ + @ # $ $ & @ @ @ + $ $ + & @ $ @ * = % -   . + @ # @ @ + $ $ % @ @ + @ @ ",
"  . + @ # @ @ + $ $ % @ @ + @ @ & # @ @ @ + $ $ $ + @ + @ @ + @ @ @ % @ @ @ % @ # $ @ + @ # $ $ & @ @ @ + $ $ + & @ $ @ * = % -   . + @ # @ @ + $ $ % @ @ + @ @ & # @ @ @ + $ $ $ + @ + @ @ + @ @ @ % @ @ @ % @ # $ @ + @ # $ $ & @ @ @ + $ $ + & @ $ @ * = % -   . + @ # @ @ + $ $ % @ @ + @ @ & # @ @ @ + $ $ $ + @ + @ @ + @ @ @ % @ @ @ % @ # $ @ + @ # $ $ & @ @ @ + $ $ + & @ $ @ * = % -   . + @ # @ @ + $ $ % @ @ + @ @ & # @ @ @ + $ $ $ + @ + @ @ + @ @ @ % @ @ @ % @ # $ @ + @ # $ $ & @ @ @ + $ $ + & @ $ @ * = % -   . + @ # @ @ + $ $ % @ @ + @ @ & # @ @ @ + $ $ $ + @ + @ @ + @ @ @ % @ @ @ % @ # $ @ + @ # $ $ & @ @ @ + $ $ + & @ $ @ * = % -   . + @ # @ @ + $ $ % @ @ + @ @ & # @ @ @ + $ $ $ + @ + @ @ + @ @ @ % @ @ @ % @ # $ @ + @ # $ $ & @ @ @ + $ $ + & @ $ @ * = % -   . + @ # @ @ + $ $ % @ @ + @ @ ",
"  . + @ # @ + $ $ $ % @ @ + @ @ & # @ @ @ + $ $ + @ @ + @ @ + @ @ @ @ % % % @ @ $ $ @ + @ # $ $ & @ @ + $ $ $ + & @ $ @ * = % -   . + @ # @ + $ $ $ % @ @ + @ @ & # @ @ @ + $ $ + @ @ + @ @ + @ @ @ @ % % % @ @ $ $ @ + @ # $ $ & @ @ + $ $ $ + & @ $ @ * = % -   . + @ # @ + $ $ $ % @ @ + @ @ & # @ @ @ + $ $ + @ @ + @ @ + @ @ @ @ % % % @ @ $ $ @ + @ # $ $ & @ @ + $ $ $ + & @ $ @ * = % -   . + @ # @ + $ $ $ % @ @ + @ @ & # @ @ @ + $ $ + @ @ + @ @ + @ @ @ @ % % % @ @ $ $ @ + @ # $ $ & @ @ + $ $ $ + & @ $ @ * = % -   . + @ # @ + $ $ $ % @ @ + @ @ & # @ @ @ + $ $ + @ @ + @ @ + @ @ @ @ % % % @ @ $ $ @ + @ # $ $ & @ @ + $ $ $ + & @ $ @ * = % -   . + @ # @ + $ $ $ % @ @ + @ @ & # @ @ @ + $ $ + @ @ + @ @ + @ @ @ @ % % % @ @ $ $ @ + @ # $ $ & @ @ + $ $ $ + & @ $ @ * = % -   . + @ # @ + $ $ $ % @ @ + @ @ ",
"  . + @ # @ + $ $ $ % @ @ + @ @ & # @ @ @ + $ $ + @ @ + @ @ + @ @ # @ @ @ @ @ # $ $ @ + @ # $ $ & @ @ + $ $ $ + & @ $ @ * = % -   . + @ # @ + $ $ $ % @ @ + @ @ & # @ @ @ + $ $ + @ @ + @ @ + @ @ # @ @ @ @ @ # $ $ @ + @ # $ $ & @ @ + $ $ $ + & @ $ @ * = % -   . + @ # @ + $ $ $ % @ @ + @ @ & # @ @ @ + $ $ + @ @ + @ @ + @ @ # @ @ @ @ @ # $ $ @ + @ # $ $ & @ @ + $ $ $ + & @ $ @ * = % -   . + @ # @ + $ $ $ % @ @ + @ @ & # @ @ @ + $ $ + @ @ + @ @ + @ @ # @ @ @ @ @ # $ $ @ + @ # $ $ & @ @ + $ $ $ + & @ $ @ * = % -   . + @ # @ + $ $ $ % @ @ + @ @ & # @ @ @ + $ $ + @ @ + @ @ + @ @ # @ @ @ @ @ # $ $ @ + @ # $ $ & @ @ + $ $ $ + & @ $ @ * = % -   . + @ # @ + $ $ $ % @ @ + @ @ & # @ @ @ + $ $ + @ @ + @ @ + @ @ # @ @ @ @ @ # $ $ @ + @ # $ $ & @ @ + $ $ $ + & @ $ @ * = % -   . + @ # @ + $ $ $ % @ @ + @ @ ",
"  . + @ # @ + $ $ $ % @ @ + @ @ & # @ @ @ + $ $ + @ @ + @ @ + @ @ # # @ @ @ @ # $ $ @ + @ # $ $ & @ @ + $ $ $ + & @ $ @ * = % -   . + @ # @ + $ $ $ % @ @ + @ @ & # @ @ @ + $ $ + @ @ + @ @ + @ @ # # @ @ @ @ # $ $ @ + @ # $ $ & @ @ + $ $ $ + & @ $ @ * = % -   . + @ # @ + $ $ $ % @ @ + @ @ & # @ @ @ + $ $ + @ @ + @ @ + @ @ # # @ @ @ @ # $ $ @ + @ # $ $ & @ @ + $ $ $ + & @ $ @ * = % -   . + @ # @ + $ $ $ % @ @ + @ @ & # @ @ @ + $ $ + @ @ + @ @ + @ @ # # @ @ @ @ # $ $ @ + @ # $ $ & @ @ + $ $ $ + & @ $ @ * = % -   . + @ # @ + $ $ $ % @ @ + @ @ & # @ @ @ + $ $ + @ @ + @ @ + @ @ # # @ @ @ @ # $ $ @ + @ # $ $ & @ @ + $ $ $ + & @ $ @ * = % -   . + @ # @ + $ $ $ % @ @ + @ @ & # @ @ @ + $ $ + @ @ + @ @ + @ @ # # @ @ @ @ # $ $ @ + @ # $ $ & @ @ + $ $ $ + & @ $ @ * = % -   . + @ # @ + $ $ $ % @ @ + @ @ ",
"  . + @ # @ + $ $ $ % @ @ + @ @ & # @ @ @ + $ $ + @ @ + @ @ + @ @ @ # @ @ @ @ # $ $ @ + @ # $ $ & @ @ + $ $ $ + & @ $ @ * = % -   . + @ # @ + $ $ $ % @ @ + @ @ & # @ @ @ + $ $ + @ @ + @ @ + @ @ @ # @ @ @ @ # $ $ @ + @ # $ $ & @ @ + $ $ $ + & @ $ @ * = % -   . + @ # @ + $ $ $ % @ @ + @ @ & # @ @ @ + $ $ + @ @ + @ @ + @ @ @ # @ @ @ @ # $ $ @ + @ # $ $ & @ @ + $ $ $ + & @ $ @ * = % -   . + @ # @ + $ $ $ % @ @ + @ @ & # @ @ @ + $ $ + @ @ + @ @ + @ @ @ # @ @ @ @ # $ $ @ + @ # $ $ & @ @ + $ $ $ + & @ $ @ * = % -   . + @ # @ + $ $ $ % @ @ + @ @ & # @ @ @ + $ $ + @ @ + @ @ + @ @ @ # @ @ @ @ # $ $ @ + @ # $ $ & @ @ + $ $ $ + & @ $ @ * = % -   . + @ # @ + $ $ $ % @ @ + @ @ & # @ @ @ + $ $ + @ @ + @ @ + @ @ @ # @ @ @ @ # $ $ @ + @ # $ $ & @ @ + $ $ $ + & @ $ @ * = % -   . + @ # @ + $ $ $ % @ @ + @ @ ",
"  . + @ # @ + $ $ $ % @ @ + @ @ & # @ @ @ + $ $ + @ @ @ + @ @ + @ @ @ $ @ @ # $ $ @ @ + @ # $ $ @ @ @ + $ $ $ + & @ $ @ * = % -   . + @ # @ + $ $ $ % @ @ + @ @ & # @ @ @ + $ $ + @ @ @ + @ @ + @ @ @ $ @ @ # $ $ @ @ + @ # $ $ @ @ @ + $ $ $ + & @ $ @ * = % -   . + @ # @ + $ $ $ % @ @ + @ @ & # @ @ @ + $ $ + @ @ @ + @ @ + @ @ @ $ @ @ # $ $ @ @ + @ # $ $ @ @ @ + $ $ $ + & @ $ @ * = % -   . + @ # @ + $ $ $ % @ @ + @ @ & # @ @ @ + $ $ + @ @ @ + @ @ + @ @ @ $ @ @ # $ $ @ @ + @ # $ $ @ @ @ + $ $ $ + & @ $ @ * = % -   . + @ # @ + $ $ $ % @ @ + @ @ & # @ @ @ + $ $ + @ @ @ + @ @ + @ @ @ $ @ @ # $ $ @ @ + @ # $ $ @ @ @ + $ $ $ + & @ $ @ * = % -   . + @ # @ + $ $ $ % @ @ + @ @ & # @ @ @ + $ $ + @ @ @ + @ @ + @ @ @ $ @ @ # $ $ @ @ + @ # $ $ @ @ @ + $ $ $ + & @ $ @ * = % -   . + @ # @ + $ $ $ % @ @ + @ @ ",
"  . + @ # @ + $ $ $ % @ @ + @ @ & # @ @ @ + $ $ + @ @ @ + @ @ @ + @ @ $ # @ # $ $ @ + @ @ # $ $ @ @ @ + $ $ $ + & @ $ @ * = % -   . + @ # @ + $ $ $ % @ @ + @ @ & # @ @ @ + $ $ + @ @ @ + @ @ @ + @ @ $ # @ # $ $ @ + @ @ # $ $ @ @ @ + $ $ $ + & @ $ @ * = % -   . + @ # @ + $ $ $ % @ @ + @ @ & # @ @ @ + $ $ + @ @ @ + @ @ @ + @ @ $ # @ # $ $ @ + @ @ # $ $ @ @ @ + $ $ $ + & @ $ @ * = % -   . + @ # @ + $ $ $ % @ @ + @ @ & # @ @ @ + $ $ + @ @ @ + @ @ @ + @ @ $ # @ # $ $ @ + @ @ # $ $ @ @ @ + $ $ $ + & @ $ @ * = % -   . + @ # @ + $ $ $ % @ @ + @ @ & # @ @ @ + $ $ + @ @ @ + @ @ @ + @ @ $ # @ # $ $ @ + @ @ # $ $ @ @ @ + $ $ $ + & @ $ @ * = % -   . + @ # @ + $ $ $ % @ @ + @ @ & # @ @ @ + $ $ + @ @ @ + @ @ @ + @ @ $ # @ # $ $ @ + @ @ # $ $ @ @ @ + $ $ $ + & @ $ @ * = % -   . + @ # @ + $ $ $ % @ @ + @ @ ",
"  . + @ # @ + $ $ $ % @ @ + @ @ & # @ @ @ + $ $ + @ @ @ + @ @ @ + @ @ $ $ @ $ $ @ @ + @ @ # $ $ @ @ @ + $ $ $ + & @ $ @ * = % -   . + @ # @ + $ $ $ % @ @ + @ @ & # @ @ @ + $ $ + @ @ @ + @ @ @ + @ @ $ $ @ $ $ @ @ + @ @ # $ $ @ @ @ + $ $ $ + & @ $ @ * = % -   . + @ # @ + $ $ $ % @ @ + @ @ & # @ @ @ + $ $ + @ @ @ + @ @ @ + @ @ $ $ @ $ $ @ @ + @ @ # $ $ @ @ @ + $ $ $ + & @ $ @ * = % -   . + @ # @ + $ $ $ % @ @ + @ @ & # @ @ @ + $ $ + @ @ @ + @ @ @ + @ @ $ $ @ $ $ @ @ + @ @ # $ $ @ @ @ + $ $ $ + & @ $ @ * = % -   . + @ # @ + $ $ $ % @ @ + @ @ & # @ @ @ + $ $ + @ @ @ + @ @ @ + @ @ $ $ @ $ $ @ @ + @ @ # $ $ @ @ @ + $ $ $ + & @ $ @ * = % -   . + @ # @ + $ $ $ % @ @ + @ @ & # @ @ @ + $ $ + @ @ @ + @ @ @ + @ @ $ $ @ $ $ @ @ + @ @ # $ $ @ @ @ + $ $ $ + & @ $ @ * = % -   . + @ # @ + $ $ $ % @ @ + @ @ ",
"  . + @ # @ + $ $ $ % @ @ + @ @ & # @ @ @ + $ $ + @ @ @ + @ @ @ + @ @ $ $ $ $ $ @ @ + @ @ # $ $ @ @ @ + $ $ $ + & @ $ @ * = % -   . + @ # @ + $ $ $ % @ @ + @ @ & # @ @ @ + $ $ + @ @ @ + @ @ @ + @ @ $ $ $ $ $ @ @ + @ @ # $ $ @ @ @ + $ $ $ + & @ $ @ * = % -   . + @ # @ + $ $ $ % @ @ + @ @ & # @ @ @ + $ $ + @ @ @ + @ @ @ + @ @ $ $ $ $ $ @ @ + @ @ # $ $ @ @ @ + $ $ $ + & @ $ @ * = % -   . + @ # @ + $ $ $ % @ @ + @ @ & # @ @ @ + $ $ + @ @ @ + @ @ @ + @ @ $ $ $ $ $ @ @ + @ @ # $ $ @ @ @ + $ $ $ + & @ $ @ * = % -   . + @ # @ + $ $ $ % @ @ + @ @ & # @ @ @ + $ $ + @ @ @ + @ @ @ + @ @ $ $ $ $ $ @ @ + @ @ # $ $ @ @ @ + $ $ $ + & @ $ @ * = % -   . + @ # @ + $ $ $ % @ @ + @ @ & # @ @ @ + $ $ + @ @ @ + @ @ @ + @ @ $ $ $ $ $ @ @ + @ @ # $ $ @ @ @ + $ $ $ + & @ $ @ * = % -   . + @ # @ + $ $ $ % @ @ + @ @ ",
"  . + @ # @ + $ $ $ % @ @ + @ @ & # @ @ @ + $ $ + @ @ @ + @ @ @ @ + @ @ $ $ $ $ @ @ + @ @ # $ $ @ @ @ + $ $ $ + & @ $ @ * = % -   . + @ # @ + $ $ $ % @ @ + @ @ & # @ @ @ + $ $ + @ @ @ + @ @ @ @ + @ @ $ $ $ $ @ @ + @ @ # $ $ @ @ @ + $ $ $ + & @ $ @ * = % -   . + @ # @ + $ $ $ % @ @ + @ @ & # @ @ @ + $ $ + @ @ @ + @ @ @ @ + @ @ $ $ $ $ @ @ + @ @ # $ $ @ @ @ + $ $ $ + & @ $ @ * = % -   . + @ # @ + $ $ $ % @ @ + @ @ & # @ @ @ + $ $ + @ @ @ + @ @ @ @ + @ @ $ $ $ $ @ @ + @ @ # $ $ @ @ @ + $ $ $ + & @ $ @ * = % -   . + @ # @ + $ $ $ % @ @ + @ @ & # @ @ @ + $ $ + @ @ @ + @ @ @ @ + @ @ $ $ $ $ @ @ + @ @ # $ $ @ @ @ + $ $ $ + & @ $ @ * = % -   . + @ # @ + $ $ $ % @ @ + @ @ & # @ @ @ + $ $ + @ @ @ + @ @ @ @ + @ @ $ $ $ $ @ @ + @ @ # $ $ @ @ @ + $ $ $ + & @ $ @ * = % -   . + @ # @ + $ $ $ % @ @ + @ @ ",
"  . + @ # @ + $ $ $ % @ @ + @ @ & # @ @ @ + $ $ + @ @ @ + @ @ @ @ + @ @ $ $ @ $ @ @ + @ @ # $ $ @ @ @ + $ $ $ + & @ $ @ * = % -   . + @ # @ + $ $ $ % @ @ + @ @ & # @ @ @ + $ $ + @ @ @ + @ @ @ @ + @ @ $ $ @ $ @ @ + @ @ # $ $ @ @ @ + $ $ $ + & @ $ @ * = % -   . + @ # @ + $ $ $ % @ @ + @ @ & # @ @ @ + $ $ + @ @ @ + @ @ @ @ + @ @ $ $ @ $ @ @ + @ @ # $ $ @ @ @ + $ $ $ + & @ $ @ * = % -   . + @ # @ + $ $ $ % @ @ + @ @ & # @ @ @ + $ $ + @ @ @ + @ @ @ @ + @ @ $ $ @ $ @ @ + @ @ # $ $ @ @ @ + $ $ $ + & @ $ @ * = % -   . + @ # @ + $ $ $ % @ @ + @ @ & # @ @ @ + $ $ + @ @ @ + @ @ @ @ + @ @ $ $ @ $ @ @ + @ @ # $ $ @ @ @ + $ $ $ + & @ $ @ * = % -   . + @ # @ + $ $ $ % @ @ + @ @ & # @ @ @ + $ $ + @ @ @ + @ @ @ @ + @ @ $ $ @ $ @ @ + @ @ # $ $ @ @ @ + $ $ $ + & @ $ @ * = % -   . + @ # @ + $ $ $ % @ @ + @ @ ",
"  . + @ # @ + $ $ $ % @ @ + @ @ & # @ @ @ + $ $ + @ @ @ + @ @ @ @ + @ @ $ $ $ $ @ @ + @ @ # $ $ @ @ @ + $ $ $ + & @ $ @ * = % -   . + @ # @ + $ $ $ % @ @ + @ @ & # @ @ @ + $ $ + @ @ @ + @ @ @ @ + @ @ $ $ $ $ @ @ + @ @ # $ $ @ @ @ + $ $ $ + & @ $ @ * = % -   . + @ # @ + $ $ $ % @ @ + @ @ & # @ @ @ + $ $ + @ @ @ + @ @ @ @ + @ @ $ $ $ $ @ @ + @ @ # $ $ @ @ @ + $ $ $ + & @ $ @ * = % -   . + @ # @ + $ $ $ % @ @ + @ @ & # @ @ @ + $ $ + @ @ @ + @ @ @ @ + @ @ $ $ $ $ @ @ + @ @ # $ $ @ @ @ + $ $ $ + & @ $ @ * = % -   . + @ # @ + $ $ $ % @ @ + @ @ & # @ @ @ + $ $ + @ @ @ + @ @ @ @ + @ @ $ $ $ $ @ @ + @ @ # $ $ @ @ @ + $ $ $ + & @ $ @ * = % -   . + @ # @ + $ $ $ % @ @ + @ @ & # @ @ @ + $ $ + @ @ @ + @ @ @ @ + @ @ $ $ $ $ @ @ + @ @ # $ $ @ @ @ + $ $ $ + & @ $ @ * = % -   . + @ # @ + $ $ $ % @ @ + @ @ ",
"  . + @ # @ + $ $ $ % @ @ + @ @ & # @ @ @ + $ $ + @ @ @ + @ @ @ @ + @ @ $ $ $ @ @ @ + @ @ # $ $ @ @ @ + $ $ $ + & @ $ @ * = % -   . + @ # @ + $ $ $ % @ @ + @ @ & # @ @ @ + $ $ + @ @ @ + @ @ @ @ + @ @ $ $ $ @ @ @ + @ @ # $ $ @ @ @ + $ $ $ + & @ $ @ * = % -   . + @ # @ + $ $ $ % @ @ + @ @ & # @ @ @ + $ $ + @ @ @ + @ @ @ @ + @ @ $ $ $ @ @ @ + @ @ # $ $ @ @ @ + $ $ $ + & @ $ @ * = % -   . + @ # @ + $ $ $ % @ @ + @ @ & # @ @ @ + $ $ + @ @ @ + @ @ @ @ + @ @ $ $ $ @ @ @ + @ @ # $ $ @ @ @ + $ $ $ + & @ $ @ * = % -   . + @ # @ + $ $ $ % @ @ + @ @ & # @ @ @ + $ $ + @ @ @ + @ @ @ @ + @ @ $ $ $ @ @ @ + @ @ # $ $ @ @ @ + $ $ $ + & @ $ @ * = % -   . + @ # @ + $ $ $ % @ @ + @ @ & # @ @ @ + $ $ + @ @ @ + @ @ @ @ + @ @ $ $ $ @ @ @ + @ @ # $ $ @ @ @ + $ $ $ + & @ $ @ * = % -   . + @ # @ + $ $ $ % @ @ + @ @ ",
"  . + @ # @ + $ $ $ % @ @ + @ @ & # @ @ @ + $ $ + @ @ @ + @ & @ @ + @ @ $ $ $ @ @ @ + @ @ # $ $ @ @ @ + $ $ $ + & @ $ @ * = % -   . + @ # @ + $ $ $ % @ @ + @ @ & # @ @ @ + $ $ + @ @ @ + @ & @ @ + @ @ $ $ $ @ @ @ + @ @ # $ $ @ @ @ + $ $ $ + & @ $ @ * = % -   . + @ # @ + $ $ $ % @ @ + @ @ & # @ @ @ + $ $ + @ @ @ + @ & @ @ + @ @ $ $ $ @ @ @ + @ @ # $ $ @ @ @ + $ $ $ + & @ $ @ * = % -   . + @ # @ + $ $ $ % @ @ + @ @ & # @ @ @ + $ $ + @ @ @ + @ & @ @ + @ @ $ $ $ @ @ @ + @ @ # $ $ @ @ @ + $ $ $ + & @ $ @ * = % -   . + @ # @ + $ $ $ % @ @ + @ @ & # @ @ @ + $ $ + @ @ @ + @ & @ @ + @ @ $ $ $ @ @ @ + @ @ # $ $ @ @ @ + $ $ $ + & @ $ @ * = % -   . + @ # @ + $ $ $ % @ @ + @ @ & # @ @ @ + $ $ + @ @ @ + @ & @ @ + @ @ $ $ $ @ @ @ + @ @ # $ $ @ @ @ + $ $ $ + & @ $ @ * = % -   . + @ # @ + $ $ $ % @ @ + @ @ ",
"  . + @ # @ + $ $ $ % @ @ + @ @ & # @ @ @ + $ $ + @ @ @ + @ & @ @ + @ @ @ $ $ @ @ @ + @ @ # $ $ @ @ @ + $ $ $ + & @ $ @ * = % -   . + @ # @ + $ $ $ % @ @ + @ @ & # @ @ @ + $ $ + @ @ @ + @ & @ @ + @ @ @ $ $ @ @ @ + @ @ # $ $ @ @ @ + $ $ $ + & @ $ @ * = % -   . + @ # @ + $ $ $ % @ @ + @ @ & # @ @ @ + $ $ + @ @ @ + @ & @ @ + @ @ @ $ $ @ @ @ + @ @ # $ $ @ @ @ + $ $ $ + & @ $ @ * = % -   . + @ # @ + $ $ $ % @ @ + @ @ & # @ @ @ + $ $ + @ @ @ + @ & @ @ + @ @ @ $ $ @ @ @ + @ @ # $ $ @ @ @ + $ $ $ + & @ $ @ * = % -   . + @ # @ + $ $ $ % @ @ + @ @ & # @ @ @ + $ $ + @ @ @ + @ & @ @ + @ @ @ $ $ @ @ @ + @ @ # $ $ @ @ @ + $ $ $ + & @ $ @ * = % -   . + @ # @ + $ $ $ % @ @ + @ @ & # @ @ @ + $ $ + @ @ @ + @ & @ @ + @ @ @ $ $ @ @ @ + @ @ # $ $ @ @ @ + $ $ $ + & @ $ @ * = % -   . + @ # @ + $ $ $ % @ @ + @ @ ",
"  . + @ # @ + $ $ $ % @ @ + @ @ & # @ @ @ + $ $ + @ @ @ + @ & @ @ + @ @ @ $ $ @ @ @ + @ @ # $ $ @ @ @ + $ $ $ + & @ $ @ * = % -   . + @ # @ + $ $ $ % @ @ + @ @ & # @ @ @ + $ $ + @ @ @ + @ & @ @ + @ @ @ $ $ @ @ @ + @ @ # $ $ @ @ @ + $ $ $ + & @ $ @ * = % -   . + @ # @ + $ $ $ % @ @ + @ @ & # @ @ @ + $ $ + @ @ @ + @ & @ @ + @ @ @ $ $ @ @ @ + @ @ # $ $ @ @ @ + $ $ $ + & @ $ @ * = % -   . + @ # @ + $ $ $ % @ @ + @ @ & # @ @ @ + $ $ + @ @ @ + @ & @ @ + @ @ @ $ $ @ @ @ + @ @ # $ $ @ @ @ + $ $ $ + & @ $ @ * = % -   . + @ # @ + $ $ $ % @ @ + @ @ & # @ @ @ + $ $ + @ @ @ + @ & @ @ + @ @ @ $ $ @ @ @ + @ @ # $ $ @ @ @ + $ $ $ + & @ $ @ * = % -   . + @ # @ + $ $ $ % @ @ + @ @ & # @ @ @ + $ $ + @ @ @ + @ & @ @ + @ @ @ $ $ @ @ @ + @ @ # $ $ @ @ @ + $ $ $ + & @ $ @ * = % -   . + @ # @ + $ $ $ % @ @ + @ @ ",
"  . + @ # @ @ + $ $ % @ @ + @ @ & # @ @ @ + $ $ + @ @ @ + @ & @ @ + @ @ @ $ $ @ @ @ + @ @ # $ $ @ @ @ + $ $ $ + & @ $ @ * = % -   . + @ # @ @ + $ $ % @ @ + @ @ & # @ @ @ + $ $ + @ @ @ + @ & @ @ + @ @ @ $ $ @ @ @ + @ @ # $ $ @ @ @ + $ $ $ + & @ $ @ * = % -   . + @ # @ @ + $ $ % @ @ + @ @ & # @ @ @ + $ $ + @ @ @ + @ & @ @ + @ @ @ $ $ @ @ @ + @ @ # $ $ @ @ @ + $ $ $ + & @ $ @ * = % -   . + @ # @ @ + $ $ % @ @ + @ @ & # @ @ @ + $ $ + @ @ @ + @ & @ @ + @ @ @ $ $ @ @ @ + @ @ # $ $ @ @ @ + $ $ $ + & @ $ @ * = % -   . + @ # @ @ + $ $ % @ @ + @ @ & # @ @ @ + $ $ + @ @ @ + @ & @ @ + @ @ @ $ $ @ @ @ + @ @ # $ $ @ @ @ + $ $ $ + & @ $ @ * = % -   . + @ # @ @ + $ $ % @ @ + @ @ & # @ @ @ + $ $ + @ @ @ + @ & @ @ + @ @ @ $ $ @ @ @ + @ @ # $ $ @ @ @ + $ $ $ + & @ $ @ * = % -   . + @ # @ @ + $ $ % @ @ + @ @ ",
"  . + @ # @ @ + $ $ % @ @ + @ @ & # @ @ @ + $ $ + @ @ @ + @ & @ @ + @ @ @ $ $ @ @ @ + @ @ # $ $ @ @ @ + $ $ $ + & @ $ @ * = % -   . + @ # @ @ + $ $ % @ @ + @ @ & # @ @ @ + $ $ + @ @ @ + @ & @ @ + @ @ @ $ $ @ @ @ + @ @ # $ $ @ @ @ + $ $ $ + & @ $ @ * = % -   . + @ # @ @ + $ $ % @ @ + @ @ & # @ @ @ + $ $ + @ @ @ + @ & @ @ + @ @ @ $ $ @ @ @ + @ @ # $ $ @ @ @ + $ $ $ + & @ $ @ * = % -   . + @ # @ @ + $ $ % @ @ + @ @ & # @ @ @ + $ $ + @ @ @ + @ & @ @ + @ @ @ $ $ @ @ @ + @ @ # $ $ @ @ @ + $ $ $ + & @ $ @ * = % -   . + @ # @ @ + $ $ % @ @ + @ @ & # @ @ @ + $ $ + @ @ @ + @ & @ @ + @ @ @ $ $ @ @ @ + @ @ # $ $ @ @ @ + $ $ $ + & @ $ @ * = % -   . + @ # @ @ + $ $ % @ @ + @ @ & # @ @ @ + $ $ + @ @ @ + @ & @ @ + @ @ @ $ $ @ @ @ + @ @ # $ $ @ @ @ + $ $ $ + & @ $ @ * = % -   . + @ # @ @ + $ $ % @ @ + @ @ ",
"  . + @ # @ @ + $ $ % @ @ @ + @ & # @ @ @ + $ $ + @ @ @ + @ & @ @ + @ @ @ $ $ @ @ @ + @ @ # $ $ @ @ @ + $ $ $ + & @ $ @ * = % -   . + @ # @ @ + $ $ % @ @ @ + @ & # @ @ @ + $ $ + @ @ @ + @ & @ @ + @ @ @ $ $ @ @ @ + @ @ # $ $ @ @ @ + $ $ $ + & @ $ @ * = % -   . + @ # @ @ + $ $ % @ @ @ + @ & # @ @ @ + $ $ + @ @ @ + @ & @ @ + @ @ @ $ $ @ @ @ + @ @ # $ $ @ @ @ + $ $ $ + & @ $ @ * = % -   . + @ # @ @ + $ $ % @ @ @ + @ & # @ @ @ + $ $ + @ @ @ + @ & @ @ + @ @ @ $ $ @ @ @ + @ @ # $ $ @ @ @ + $ $ $ + & @ $ @ * = % -   . + @ # @ @ + $ $ % @ @ @ + @ & # @ @ @ + $ $ + @ @ @ + @ & @ @ + @ @ @ $ $ @ @ @ + @ @ # $ $ @ @ @ + $ $ $ + & @ $ @ * = % -   . + @ # @ @ + $ $ % @ @ @ + @ & # @ @ @ + $ $ + @ @ @ + @ & @ @ + @ @ @ $ $ @ @ @ + @ @ # $ $ @ @ @ + $ $ $ + & @ $ @ * = % -   . + @ # @ @ + $ $ % @ @ @ + @ ",
"  . + @ # @ @ + $ $ % @ @ @ + @ & # @ @ @ @ + $ $ + @ @ + @ & @ @ + @ @ @ $ $ @ @ @ + @ @ # $ $ @ @ @ + $ $ $ + & @ $ @ * = % -   . + @ # @ @ + $ $ % @ @ @ + @ & # @ @ @ @ + $ $ + @ @ + @ & @ @ + @ @ @ $ $ @ @ @ + @ @ # $ $ @ @ @ + $ $ $ + & @ $ @ * = % -   . + @ # @ @ + $ $ % @ @ @ + @ & # @ @ @ @ + $ $ + @ @ + @ & @ @ + @ @ @ $ $ @ @ @ + @ @ # $ $ @ @ @ + $ $ $ + & @ $ @ * = % -   . + @ # @ @ + $ $ % @ @ @ + @ & # @ @ @ @ + $ $ + @ @ + @ & @ @ + @ @ @ $ $ @ @ @ + @ @ # $ $ @ @ @ + $ $ $ + & @ $ @ * = % -   . + @ # @ @ + $ $ % @ @ @ + @ & # @ @ @ @ + $ $ + @ @ + @ & @ @ + @ @ @ $ $ @ @ @ + @ @ # $ $ @ @ @ + $ $ $ + & @ $ @ * = % -   . + @ # @ @ + $ $ % @ @ @ + @ & # @ @ @ @ + $ $ + @ @ + @ & @ @ + @ @ @ $ $ @ @ @ + @ @ # $ $ @ @ @ + $ $ $ + & @ $ @ * = % -   . + @ # @ @ + $ $ % @ @ @ + @ ",
"  . + @ # @ @ + $ $ % @ @ @ + @ & # @ @ @ @ + $ $ + @ @ + @ & @ @ + @ @ @ $ $ @ @ @ + @ @ # $ $ @ @ @ + $ $ $ + & @ $ @ * = % -   . + @ # @ @ + $ $ % @ @ @ + @ & # @ @ @ @ + $ $ + @ @ + @ & @ @ + @ @ @ $ $ @ @ @ + @ @ # $ $ @ @ @ + $ $ $ + & @ $ @ * = % -   . + @ # @ @ + $ $ % @ @ @ + @ & # @ @ @ @ + $ $ + @ @ + @ & @ @ + @ @ @ $ $ @ @ @ + @ @ # $ $ @ @ @ + $ $ $ + & @ $ @ * = % -   . + @ # @ @ + $ $ % @ @ @ + @ & # @ @ @ @ + $ $ + @ @ + @ & @ @ + @ @ @ $ $ @ @ @ + @ @ # $ $ @ @ @ + $ $ $ + & @ $ @ * = % -   . + @ # @ @ + $ $ % @ @ @ + @ & # @ @ @ @ + $ $ + @ @ + @ & @ @ + @ @ @ $ $ @ @ @ + @ @ # $ $ @ @ @ + $ $ $ + & @ $ @ * = % -   . + @ # @ @ + $ $ % @ @ @ + @ & # @ @ @ @ + $ $ + @ @ + @ & @ @ + @ @ @ $ $ @ @ @ + @ @ # $ $ @ @ @ + $ $ $ + & @ $ @ * = % -   . + @ # @ @ + $ $ % @ @ @ + @ ",
"  . + @ # @ @ + $ $ % @ @ @ + @ & # @ @ @ @ + $ $ + @ @ + @ & @ @ + @ @ @ $ $ @ @ @ + @ @ # $ $ @ @ @ + $ $ $ + & @ $ @ * = % -   . + @ # @ @ + $ $ % @ @ @ + @ & # @ @ @ @ + $ $ + @ @ + @ & @ @ + @ @ @ $ $ @ @ @ + @ @ # $ $ @ @ @ + $ $ $ + & @ $ @ * = % -   . + @ # @ @ + $ $ % @ @ @ + @ & # @ @ @ @ + $ $ + @ @ + @ & @ @ + @ @ @ $ $ @ @ @ + @ @ # $ $ @ @ @ + $ $ $ + & @ $ @ * = % -   . + @ # @ @ + $ $ % @ @ @ + @ & # @ @ @ @ + $ $ + @ @ + @ & @ @ + @ @ @ $ $ @ @ @ + @ @ # $ $ @ @ @ + $ $ $ + & @ $ @ * = % -   . + @ # @ @ + $ $ % @ @ @ + @ & # @ @ @ @ + $ $ + @ @ + @ & @ @ + @ @ @ $ $ @ @ @ + @ @ # $ $ @ @ @ + $ $ $ + & @ $ @ * = % -   . + @ # @ @ + $ $ % @ @ @ + @ & # @ @ @ @ + $ $ + @ @ + @ & @ @ + @ @ @ $ $ @ @ @ + @ @ # $ $ @ @ @ + $ $ $ + & @ $ @ * = % -   . + @ # @ @ + $ $ % @ @ @ + @ ",
"  . + @ # @ @ + $ $ % @ @ @ + @ & # @ @ @ @ + $ $ + @ @ + @ & @ @ + @ @ @ $ $ @ @ @ + @ @ # $ $ @ @ @ + $ $ $ + & @ $ @ * = % -   . + @ # @ @ + $ $ % @ @ @ + @ & # @ @ @ @ + $ $ + @ @ + @ & @ @ + @ @ @ $ $ @ @ @ + @ @ # $ $ @ @ @ + $ $ $ + & @ $ @ * = % -   . + @ # @ @ + $ $ % @ @ @ + @ & # @ @ @ @ + $ $ + @ @ + @ & @ @ + @ @ @ $ $ @ @ @ + @ @ # $ $ @ @ @ + $ $ $ + & @ $ @ * = % -   . + @ # @ @ + $ $ % @ @ @ + @ & # @ @ @ @ + $ $ + @ @ + @ & @ @ + @ @ @ $ $ @ @ @ + @ @ # $ $ @ @ @ + $ $ $ + & @ $ @ * = % -   . + @ # @ @ + $ $ % @ @ @ + @ & # @ @ @ @ + $ $ + @ @ + @ & @ @ + @ @ @ $ $ @ @ @ + @ @ # $ $ @ @ @ + $ $ $ + & @ $ @ * = % -   . + @ # @ @ + $ $ % @ @ @ + @ & # @ @ @ @ + $ $ + @ @ + @ & @ @ + @ @ @ $ $ @ @ @ + @ @ # $ $ @ @ @ + $ $ $ + & @ $ @ * = % -   . + @ # @ @ + $ $ % @ @ @ + @ ",
"  . + @ # @ @ + $ $ % @ @ @ + @ & # @ @ @ @ + $ $ + @ @ + @ & @ @ + @ @ @ $ $ @ @ @ + @ @ # $ $ @ @ @ + $ $ $ + & @ $ @ * = % -   . + @ # @ @ + $ $ % @ @ @ + @ & # @ @ @ @ + $ $ + @ @ + @ & @ @ + @ @ @ $ $ @ @ @ + @ @ # $ $ @ @ @ + $ $ $ + & @ $ @ * = % -   . + @ # @ @ + $ $ % @ @ @ + @ & # @ @ @ @ + $ $ + @ @ + @ & @ @ + @ @ @ $ $ @ @ @ + @ @ # $ $ @ @ @ + $ $ $ + & @ $ @ * = % -   . + @ # @ @ + $ $ % @ @ @ + @ & # @ @ @ @ + $ $ + @ @ + @ & @ @ + @ @ @ $ $ @ @ @ + @ @ # $ $ @ @ @ + $ $ $ + & @ $ @ * = % -   . + @ # @ @ + $ $ % @ @ @ + @ & # @ @ @ @ + $ $ + @ @ + @ & @ @ + @ @ @ $ $ @ @ @ + @ @ # $ $ @ @ @ + $ $ $ + & @ $ @ * = % -   . + @ # @ @ + $ $ % @ @ @ + @ & # @ @ @ @ + $ $ + @ @ + @ & @ @ + @ @ @ $ $ @ @ @ + @ @ # $ $ @ @ @ + $ $ $ + & @ $ @ * = % -   . + @ # @ @ + $ $ % @ @ @ + @ ",
"  . + @ # @ @ + $ $ % @ @ @ + @ & # @ @ @ @ + $ $ + @ @ + @ & @ @ @ + @ @ $ $ @ @ @ + @ @ # $ $ @ @ @ + $ $ $ + & @ $ @ * = % -   . + @ # @ @ + $ $ % @ @ @ + @ & # @ @ @ @ + $ $ + @ @ + @ & @ @ @ + @ @ $ $ @ @ @ + @ @ # $ $ @ @ @ + $ $ $ + & @ $ @ * = % -   . + @ # @ @ + $ $ % @ @ @ + @ & # @ @ @ @ + $ $ + @ @ + @ & @ @ @ + @ @ $ $ @ @ @ + @ @ # $ $ @ @ @ + $ $ $ + & @ $ @ * = % -   . + @ # @ @ + $ $ % @ @ @ + @ & # @ @ @ @ + $ $ + @ @ + @ & @ @ @ + @ @ $ $ @ @ @ + @ @ # $ $ @ @ @ + $ $ $ + & @ $ @ * = % -   . + @ # @ @ + $ $ % @ @ @ + @ & # @ @ @ @ + $ $ + @ @ + @ & @ @ @ + @ @ $ $ @ @ @ + @ @ # $ $ @ @ @ + $ $ $ + & @ $ @ * = % -   . + @ # @ @ + $ $ % @ @ @ + @ & # @ @ @ @ + $ $ + @ @ + @ & @ @ @ + @ @ $ $ @ @ @ + @ @ # $ $ @ @ @ + $ $ $ + & @ $ @ * = % -   . + @ # @ @ + $ $ % @ @ @ + @ ",
"  . + @ # @ @ + $ $ % @ @ @ + @ & # @ @ @ @ + $ $ + @ @ + @ & @ @ @ + @ @ $ $ @ @ @ + @ @ # $ $ @ @ @ + $ $ $ + & @ $ @ * = % -   . + @ # @ @ + $ $ % @ @ @ + @ & # @ @ @ @ + $ $ + @ @ + @ & @ @ @ + @ @ $ $ @ @ @ + @ @ # $ $ @ @ @ + $ $ $ + & @ $ @ * = % -   . + @ # @ @ + $ $ % @ @ @ + @ & # @ @ @ @ + $ $ + @ @ + @ & @ @ @ + @ @ $ $ @ @ @ + @ @ # $ $ @ @ @ + $ $ $ + & @ $ @ * = % -   . + @ # @ @ + $ $ % @ @ @ + @ & # @ @ @ @ + $ $ + @ @ + @ & @ @ @ + @ @ $ $ @ @ @ + @ @ # $ $ @ @ @ + $ $ $ + & @ $ @ * = % -   . + @ # @ @ + $ $ % @ @ @ + @ & # @ @ @ @ + $ $ + @ @ + @ & @ @ @ + @ @ $ $ @ @ @ + @ @ # $ $ @ @ @ + $ $ $ + & @ $ @ * = % -   . + @ # @ @ + $ $ % @ @ @ + @ & # @ @ @ @ + $ $ + @ @ + @ & @ @ @ + @ @ $ $ @ @ @ + @ @ # $ $ @ @ @ + $ $ $ + & @ $ @ * = % -   . + @ # @ @ + $ $ % @ @ @ + @ ",
"  . + @ # @ @ + $ $ % @ @ @ + @ & # @ @ @ @ + $ $ + @ @ + @ & @ @ @ + @ @ $ $ @ @ @ + @ @ # $ $ @ @ @ + $ $ $ + & @ $ @ * = % -   . + @ # @ @ + $ $ % @ @ @ + @ & # @ @ @ @ + $ $ + @ @ + @ & @ @ @ + @ @ $ $ @ @ @ + @ @ # $ $ @ @ @ + $ $ $ + & @ $ @ * = % -   . + @ # @ @ + $ $ % @ @ @ + @ & # @ @ @ @ + $ $ + @ @ + @ & @ @ @ + @ @ $ $ @ @ @ + @ @ # $ $ @ @ @ + $ $ $ + & @ $ @ * = % -   . + @ # @ @ + $ $ % @ @ @ + @ & # @ @ @ @ + $ $ + @ @ + @ & @ @ @ + @ @ $ $ @ @ @ + @ @ # $ $ @ @ @ + $ $ $ + & @ $ @ * = % -   . + @ # @ @ + $ $ % @ @ @ + @ & # @ @ @ @ + $ $ + @ @ + @ & @ @ @ + @ @ $ $ @ @ @ + @ @ # $ $ @ @ @ + $ $ $ + & @ $ @ * = % -   . + @ # @ @ + $ $ % @ @ @ + @ & # @ @ @ @ + $ $ + @ @ + @ & @ @ @ + @ @ $ $ @ @ @ + @ @ # $ $ @ @ @ + $ $ $ + & @ $ @ * = % -   . + @ # @ @ + $ $ % @ @ @ + @ ",
"  . + @ # @ @ + $ $ % @ @ @ + @ & # @ @ @ @ + $ $ + @ @ + @ & @ @ @ + @ @ $ $ @ @ @ + @ @ # $ $ @ @ @ + $ $ $ + & @ $ @ * = % -   . + @ # @ @ + $ $ % @ @ @ + @ & # @ @ @ @ + $ $ + @ @ + @ & @ @ @ + @ @ $ $ @ @ @ + @ @ # $ $ @ @ @ + $ $ $ + & @ $ @ * = % -   . + @ # @ @ + $ $ % @ @ @ + @ & # @ @ @ @ + $ $ + @ @ + @ & @ @ @ + @ @ $ $ @ @ @ + @ @ # $ $ @ @ @ + $ $ $ + & @ $ @ * = % -   . + @ # @ @ + $ $ % @ @ @ + @ & # @ @ @ @ + $ $ + @ @ + @ & @ @ @ + @ @ $ $ @ @ @ + @ @ # $ $ @ @ @ + $ $ $ + & @ $ @ * = % -   . + @ # @ @ + $ $ % @ @ @ + @ & # @ @ @ @ + $ $ + @ @ + @ & @ @ @ + @ @ $ $ @ @ @ + @ @ # $ $ @ @ @ + $ $ $ + & @ $ @ * = % -   . + @ # @ @ + $ $ % @ @ @ + @ & # @ @ @ @ + $ $ + @ @ + @ & @ @ @ + @ @ $ $ @ @ @ + @ @ # $ $ @ @ @ + $ $ $ + & @ $ @ * = % -   . + @ # @ @ + $ $ % @ @ @ + @ ",
"  . + @ # @ @ + $ $ % @ @ @ + @ & # @ @ @ @ + $ + @ @ @ + @ @ @ @ @ + @ @ $ & @ @ + @ @ @ # $ $ @ @ @ + $ $ $ + & @ $ @ * = % -   . + @ # @ @ + $ $ % @ @ @ + @ & # @ @ @ @ + $ + @ @ @ + @ @ @ @ @ + @ @ $ & @ @ + @ @ @ # $ $ @ @ @ + $ $ $ + & @ $ @ * = % -   . + @ # @ @ + $ $ % @ @ @ + @ & # @ @ @ @ + $ + @ @ @ + @ @ @ @ @ + @ @ $ & @ @ + @ @ @ # $ $ @ @ @ + $ $ $ + & @ $ @ * = % -   . + @ # @ @ + $ $ % @ @ @ + @ & # @ @ @ @ + $ + @ @ @ + @ @ @ @ @ + @ @ $ & @ @ + @ @ @ # $ $ @ @ @ + $ $ $ + & @ $ @ * = % -   . + @ # @ @ + $ $ % @ @ @ + @ & # @ @ @ @ + $ + @ @ @ + @ @ @ @ @ + @ @ $ & @ @ + @ @ @ # $ $ @ @ @ + $ $ $ + & @ $ @ * = % -   . + @ # @ @ + $ $ % @ @ @ + @ & # @ @ @ @ + $ + @ @ @ + @ @ @ @ @ + @ @ $ & @ @ + @ @ @ # $ $ @ @ @ + $ $ $ + & @ $ @ * = % -   . + @ # @ @ + $ $ % @ @ @ + @ ",
"  . + @ # @ @ + $ $ % @ @ @ + @ & # @ @ @ + $ $ + @ @ @ + @ @ @ @ @ + @ @ $ & @ @ @ + @ @ # $ $ & @ @ + $ $ $ + & @ $ @ * = % -   . + @ # @ @ + $ $ % @ @ @ + @ & # @ @ @ + $ $ + @ @ @ + @ @ @ @ @ + @ @ $ & @ @ @ + @ @ # $ $ & @ @ + $ $ $ + & @ $ @ * = % -   . + @ # @ @ + $ $ % @ @ @ + @ & # @ @ @ + $ $ + @ @ @ + @ @ @ @ @ + @ @ $ & @ @ @ + @ @ # $ $ & @ @ + $ $ $ + & @ $ @ * = % -   . + @ # @ @ + $ $ % @ @ @ + @ & # @ @ @ + $ $ + @ @ @ + @ @ @ @ @ + @ @ $ & @ @ @ + @ @ # $ $ & @ @ + $ $ $ + & @ $ @ * = % -   . + @ # @ @ + $ $ % @ @ @ + @ & # @ @ @ + $ $ + @ @ @ + @ @ @ @ @ + @ @ $ & @ @ @ + @ @ # $ $ & @ @ + $ $ $ + & @ $ @ * = % -   . + @ # @ @ + $ $ % @ @ @ + @ & # @ @ @ + $ $ + @ @ @ + @ @ @ @ @ + @ @ $ & @ @ @ + @ @ # $ $ & @ @ + $ $ $ + & @ $ @ * = % -   . + @ # @ @ + $ $ % @ @ @ + @ ",
"  . + @ # @ @ + $ $ % @ @ @ + @ & # @ @ @ + $ $ + @ @ @ + @ @ @ @ @ + @ @ $ $ @ @ @ + @ @ # $ $ & @ @ + $ $ $ + & @ $ @ * = % -   . + @ # @ @ + $ $ % @ @ @ + @ & # @ @ @ + $ $ + @ @ @ + @ @ @ @ @ + @ @ $ $ @ @ @ + @ @ # $ $ & @ @ + $ $ $ + & @ $ @ * = % -   . + @ # @ @ + $ $ % @ @ @ + @ & # @ @ @ + $ $ + @ @ @ + @ @ @ @ @ + @ @ $ $ @ @ @ + @ @ # $ $ & @ @ + $ $ $ + & @ $ @ * = % -   . + @ # @ @ + $ $ % @ @ @ + @ & # @ @ @ + $ $ + @ @ @ + @ @ @ @ @ + @ @ $ $ @ @ @ + @ @ # $ $ & @ @ + $ $ $ + & @ $ @ * = % -   . + @ # @ @ + $ $ % @ @ @ + @ & # @ @ @ + $ $ + @ @ @ + @ @ @ @ @ + @ @ $ $ @ @ @ + @ @ # $ $ & @ @ + $ $ $ + & @ $ @ * = % -   . + @ # @ @ + $ $ % @ @ @ + @ & # @ @ @ + $ $ + @ @ @ + @ @ @ @ @ + @ @ $ $ @ @ @ + @ @ # $ $ & @ @ + $ $ $ + & @ $ @ * = % -   . + @ # @ @ + $ $ % @ @ @ + @ ",
"  . + @ # @ @ + $ $ % @ @ @ + @ & # @ @ @ + $ $ + @ @ @ + @ @ @ @ + @ @ @ @ $ $ @ @ + @ @ # $ $ & @ @ + $ $ $ + & @ $ @ * = % -   . + @ # @ @ + $ $ % @ @ @ + @ & # @ @ @ + $ $ + @ @ @ + @ @ @ @ + @ @ @ @ $ $ @ @ + @ @ # $ $ & @ @ + $ $ $ + & @ $ @ * = % -   . + @ # @ @ + $ $ % @ @ @ + @ & # @ @ @ + $ $ + @ @ @ + @ @ @ @ + @ @ @ @ $ $ @ @ + @ @ # $ $ & @ @ + $ $ $ + & @ $ @ * = % -   . + @ # @ @ + $ $ % @ @ @ + @ & # @ @ @ + $ $ + @ @ @ + @ @ @ @ + @ @ @ @ $ $ @ @ + @ @ # $ $ & @ @ + $ $ $ + & @ $ @ * = % -   . + @ # @ @ + $ $ % @ @ @ + @ & # @ @ @ + $ $ + @ @ @ + @ @ @ @ + @ @ @ @ $ $ @ @ + @ @ # $ $ & @ @ + $ $ $ + & @ $ @ * = % -   . + @ # @ @ + $ $ % @ @ @ + @ & # @ @ @ + $ $ + @ @ @ + @ @ @ @ + @ @ @ @ $ $ @ @ + @ @ # $ $ & @ @ + $ $ $ + & @ $ @ * = % -   . + @ # @ @ + $ $ % @ @ @ + @ ",
"  . + @ # @ @ + $ $ % @ @ + @ @ & # @ @ @ + $ $ + @ @ @ + @ @ @ + @ @ + @ @ $ $ @ @ + @ @ # $ $ & @ @ + $ $ $ + & @ $ @ * = % -   . + @ # @ @ + $ $ % @ @ + @ @ & # @ @ @ + $ $ + @ @ @ + @ @ @ + @ @ + @ @ $ $ @ @ + @ @ # $ $ & @ @ + $ $ $ + & @ $ @ * = % -   . + @ # @ @ + $ $ % @ @ + @ @ & # @ @ @ + $ $ + @ @ @ + @ @ @ + @ @ + @ @ $ $ @ @ + @ @ # $ $ & @ @ + $ $ $ + & @ $ @ * = % -   . + @ # @ @ + $ $ % @ @ + @ @ & # @ @ @ + $ $ + @ @ @ + @ @ @ + @ @ + @ @ $ $ @ @ + @ @ # $ $ & @ @ + $ $ $ + & @ $ @ * = % -   . + @ # @ @ + $ $ % @ @ + @ @ & # @ @ @ + $ $ + @ @ @ + @ @ @ + @ @ + @ @ $ $ @ @ + @ @ # $ $ & @ @ + $ $ $ + & @ $ @ * = % -   . + @ # @ @ + $ $ % @ @ + @ @ & # @ @ @ + $ $ + @ @ @ + @ @ @ + @ @ + @ @ $ $ @ @ + @ @ # $ $ & @ @ + $ $ $ + & @ $ @ * = % -   . + @ # @ @ + $ $ % @ @ + @ @ ",
"  . + @ # @ @ + $ $ % @ @ + @ @ & # @ @ @ + $ $ + @ @ @ + @ @ @ + @ @ + + @ $ $ @ @ + @ @ # $ $ & @ @ + $ $ $ + & @ $ @ * = % -   . + @ # @ @ + $ $ % @ @ + @ @ & # @ @ @ + $ $ + @ @ @ + @ @ @ + @ @ + + @ $ $ @ @ + @ @ # $ $ & @ @ + $ $ $ + & @ $ @ * = % -   . + @ # @ @ + $ $ % @ @ + @ @ & # @ @ @ + $ $ + @ @ @ + @ @ @ + @ @ + + @ $ $ @ @ + @ @ # $ $ & @ @ + $ $ $ + & @ $ @ * = % -   . + @ # @ @ + $ $ % @ @ + @ @ & # @ @ @ + $ $ + @ @ @ + @ @ @ + @ @ + + @ $ $ @ @ + @ @ # $ $ & @ @ + $ $ $ + & @ $ @ * = % -   . + @ # @ @ + $ $ % @ @ + @ @ & # @ @ @ + $ $ + @ @ @ + @ @ @ + @ @ + + @ $ $ @ @ + @ @ # $ $ & @ @ + $ $ $ + & @ $ @ * = % -   . + @ # @ @ + $ $ % @ @ + @ @ & # @ @ @ + $ $ + @ @ @ + @ @ @ + @ @ + + @ $ $ @ @ + @ @ # $ $ & @ @ + $ $ $ + & @ $ @ * = % -   . + @ # @ @ + $ $ % @ @ + @ @ ",
"  . + @ # @ @ + $ $ % @ @ + @ @ & # @ @ @ + $ $ + @ @ @ + @ @ @ + @ @ + + @ $ $ @ @ + @ @ # $ $ & @ @ + $ $ $ + & @ $ @ * = % -   . + @ # @ @ + $ $ % @ @ + @ @ & # @ @ @ + $ $ + @ @ @ + @ @ @ + @ @ + + @ $ $ @ @ + @ @ # $ $ & @ @ + $ $ $ + & @ $ @ * = % -   . + @ # @ @ + $ $ % @ @ + @ @ & # @ @ @ + $ $ + @ @ @ + @ @ @ + @ @ + + @ $ $ @ @ + @ @ # $ $ & @ @ + $ $ $ + & @ $ @ * = % -   . + @ # @ @ + $ $ % @ @ + @ @ & # @ @ @ + $ $ + @ @ @ + @ @ @ + @ @ + + @ $ $ @ @ + @ @ # $ $ & @ @ + $ $ $ + & @ $ @ * = % -   . + @ # @ @ + $ $ % @ @ + @ @ & # @ @ @ + $ $ + @ @ @ + @ @ @ + @ @ + + @ $ $ @ @ + @ @ # $ $ & @ @ + $ $ $ + & @ $ @ * = % -   . + @ # @ @ + $ $ % @ @ + @ @ & # @ @ @ + $ $ + @ @ @ + @ @ @ + @ @ + + @ $ $ @ @ + @ @ # $ $ & @ @ + $ $ $ + & @ $ @ * = % -   . + @ # @ @ + $ $ % @ @ + @ @ ",
"  . + @ # @ @ + $ $ % @ @ + @ @ & # @ @ @ @ + $ + @ @ @ + @ @ + @ @ + @ + @ $ $ @ @ + @ @ # $ $ & @ @ + $ $ $ + & @ $ @ * = % -   . + @ # @ @ + $ $ % @ @ + @ @ & # @ @ @ @ + $ + @ @ @ + @ @ + @ @ + @ + @ $ $ @ @ + @ @ # $ $ & @ @ + $ $ $ + & @ $ @ * = % -   . + @ # @ @ + $ $ % @ @ + @ @ & # @ @ @ @ + $ + @ @ @ + @ @ + @ @ + @ + @ $ $ @ @ + @ @ # $ $ & @ @ + $ $ $ + & @ $ @ * = % -   . + @ # @ @ + $ $ % @ @ + @ @ & # @ @ @ @ + $ + @ @ @ + @ @ + @ @ + @ + @ $ $ @ @ + @ @ # $ $ & @ @ + $ $ $ + & @ $ @ * = % -   . + @ # @ @ + $ $ % @ @ + @ @ & # @ @ @ @ + $ + @ @ @ + @ @ + @ @ + @ + @ $ $ @ @ + @ @ # $ $ & @ @ + $ $ $ + & @ $ @ * = % -   . + @ # @ @ + $ $ % @ @ + @ @ & # @ @ @ @ + $ + @ @ @ + @ @ + @ @ + @ + @ $ $ @ @ + @ @ # $ $ & @ @ + $ $ $ + & @ $ @ * = % -   . + @ # @ @ + $ $ % @ @ + @ @ ",
"  . + @ # @ @ + $ $ % @ @ + @ @ & # @ @ @ @ + $ + @ @ @ + @ @ + @ @ + @ + @ & $ @ @ + @ @ # $ $ & @ @ + $ $ $ + & @ $ @ * = % -   . + @ # @ @ + $ $ % @ @ + @ @ & # @ @ @ @ + $ + @ @ @ + @ @ + @ @ + @ + @ & $ @ @ + @ @ # $ $ & @ @ + $ $ $ + & @ $ @ * = % -   . + @ # @ @ + $ $ % @ @ + @ @ & # @ @ @ @ + $ + @ @ @ + @ @ + @ @ + @ + @ & $ @ @ + @ @ # $ $ & @ @ + $ $ $ + & @ $ @ * = % -   . + @ # @ @ + $ $ % @ @ + @ @ & # @ @ @ @ + $ + @ @ @ + @ @ + @ @ + @ + @ & $ @ @ + @ @ # $ $ & @ @ + $ $ $ + & @ $ @ * = % -   . + @ # @ @ + $ $ % @ @ + @ @ & # @ @ @ @ + $ + @ @ @ + @ @ + @ @ + @ + @ & $ @ @ + @ @ # $ $ & @ @ + $ $ $ + & @ $ @ * = % -   . + @ # @ @ + $ $ % @ @ + @ @ & # @ @ @ @ + $ + @ @ @ + @ @ + @ @ + @ + @ & $ @ @ + @ @ # $ $ & @ @ + $ $ $ + & @ $ @ * = % -   . + @ # @ @ + $ $ % @ @ + @ @ ",
"  . + @ # @ @ + $ $ % @ @ + @ @ & # @ @ @ @ + $ + @ @ @ + @ + @ @ @ + # + @ @ $ @ @ + @ @ # $ $ & @ @ + $ $ $ + & @ $ @ * = % -   . + @ # @ @ + $ $ % @ @ + @ @ & # @ @ @ @ + $ + @ @ @ + @ + @ @ @ + # + @ @ $ @ @ + @ @ # $ $ & @ @ + $ $ $ + & @ $ @ * = % -   . + @ # @ @ + $ $ % @ @ + @ @ & # @ @ @ @ + $ + @ @ @ + @ + @ @ @ + # + @ @ $ @ @ + @ @ # $ $ & @ @ + $ $ $ + & @ $ @ * = % -   . + @ # @ @ + $ $ % @ @ + @ @ & # @ @ @ @ + $ + @ @ @ + @ + @ @ @ + # + @ @ $ @ @ + @ @ # $ $ & @ @ + $ $ $ + & @ $ @ * = % -   . + @ # @ @ + $ $ % @ @ + @ @ & # @ @ @ @ + $ + @ @ @ + @ + @ @ @ + # + @ @ $ @ @ + @ @ # $ $ & @ @ + $ $ $ + & @ $ @ * = % -   . + @ # @ @ + $ $ % @ @ + @ @ & # @ @ @ @ + $ + @ @ @ + @ + @ @ @ + # + @ @ $ @ @ + @ @ # $ $ & @ @ + $ $ $ + & @ $ @ * = % -   . + @ # @ @ + $ $ % @ @ + @ @ ",
"  . + @ # @ @ + $ $ % @ @ + @ @ & # @ @ @ @ + $ + @ @ @ + @ + @ @ @ + # @ + @ $ & @ + @ @ # $ $ & @ @ + $ $ $ + & @ $ @ * = % -   . + @ # @ @ + $ $ % @ @ + @ @ & # @ @ @ @ + $ + @ @ @ + @ + @ @ @ + # @ + @ $ & @ + @ @ # $ $ & @ @ + $ $ $ + & @ $ @ * = % -   . + @ # @ @ + $ $ % @ @ + @ @ & # @ @ @ @ + $ + @ @ @ + @ + @ @ @ + # @ + @ $ & @ + @ @ # $ $ & @ @ + $ $ $ + & @ $ @ * = % -   . + @ # @ @ + $ $ % @ @ + @ @ & # @ @ @ @ + $ + @ @ @ + @ + @ @ @ + # @ + @ $ & @ + @ @ # $ $ & @ @ + $ $ $ + & @ $ @ * = % -   . + @ # @ @ + $ $ % @ @ + @ @ & # @ @ @ @ + $ + @ @ @ + @ + @ @ @ + # @ + @ $ & @ + @ @ # $ $ & @ @ + $ $ $ + & @ $ @ * = % -   . + @ # @ @ + $ $ % @ @ + @ @ & # @ @ @ @ + $ + @ @ @ + @ + @ @ @ + # @ + @ $ & @ + @ @ # $ $ & @ @ + $ $ $ + & @ $ @ * = % -   . + @ # @ @ + $ $ % @ @ + @ @ ",
"  . + @ # @ @ + $ $ % @ @ + @ @ & # @ @ @ @ + $ + @ @ @ + @ + @ @ % @ # @ + @ $ $ @ + @ @ # $ $ & @ @ + $ $ $ + & @ $ @ * = % -   . + @ # @ @ + $ $ % @ @ + @ @ & # @ @ @ @ + $ + @ @ @ + @ + @ @ % @ # @ + @ $ $ @ + @ @ # $ $ & @ @ + $ $ $ + & @ $ @ * = % -   . + @ # @ @ + $ $ % @ @ + @ @ & # @ @ @ @ + $ + @ @ @ + @ + @ @ % @ # @ + @ $ $ @ + @ @ # $ $ & @ @ + $ $ $ + & @ $ @ * = % -   . + @ # @ @ + $ $ % @ @ + @ @ & # @ @ @ @ + $ + @ @ @ + @ + @ @ % @ # @ + @ $ $ @ + @ @ # $ $ & @ @ + $ $ $ + & @ $ @ * = % -   . + @ # @ @ + $ $ % @ @ + @ @ & # @ @ @ @ + $ + @ @ @ + @ + @ @ % @ # @ + @ $ $ @ + @ @ # $ $ & @ @ + $ $ $ + & @ $ @ * = % -   . + @ # @ @ + $ $ % @ @ + @ @ & # @ @ @ @ + $ + @ @ @ + @ + @ @ % @ # @ + @ $ $ @ + @ @ # $ $ & @ @ + $ $ $ + & @ $ @ * = % -   . + @ # @ @ + $ $ % @ @ + @ @ ",
"  . + @ # @ @ + $ $ % @ @ + @ @ & # @ @ @ @ + $ + @ @ @ + @ + @ @ % @ # @ + @ $ $ @ + @ @ # $ $ & @ @ + $ $ $ + & @ $ @ * = % -   . + @ # @ @ + $ $ % @ @ + @ @ & # @ @ @ @ + $ + @ @ @ + @ + @ @ % @ # @ + @ $ $ @ + @ @ # $ $ & @ @ + $ $ $ + & @ $ @ * = % -   . + @ # @ @ + $ $ % @ @ + @ @ & # @ @ @ @ + $ + @ @ @ + @ + @ @ % @ # @ + @ $ $ @ + @ @ # $ $ & @ @ + $ $ $ + & @ $ @ * = % -   . + @ # @ @ + $ $ % @ @ + @ @ & # @ @ @ @ + $ + @ @ @ + @ + @ @ % @ # @ + @ $ $ @ + @ @ # $ $ & @ @ + $ $ $ + & @ $ @ * = % -   . + @ # @ @ + $ $ % @ @ + @ @ & # @ @ @ @ + $ + @ @ @ + @ + @ @ % @ # @ + @ $ $ @ + @ @ # $ $ & @ @ + $ $ $ + & @ $ @ * = % -   . + @ # @ @ + $ $ % @ @ + @ @ & # @ @ @ @ + $ + @ @ @ + @ + @ @ % @ # @ + @ $ $ @ + @ @ # $ $ & @ @ + $ $ $ + & @ $ @ * = % -   . + @ # @ @ + $ $ % @ @ + @ @ ",
"  . + @ # @ @ + $ $ % @ @ + @ @ & # @ @ @ @ + $ + @ @ @ + @ + @ @ % @ # @ + @ @ $ @ + @ @ # $ $ & @ @ + $ $ $ + & @ $ @ * = % -   . + @ # @ @ + $ $ % @ @ + @ @ & # @ @ @ @ + $ + @ @ @ + @ + @ @ % @ # @ + @ @ $ @ + @ @ # $ $ & @ @ + $ $ $ + & @ $ @ * = % -   . + @ # @ @ + $ $ % @ @ + @ @ & # @ @ @ @ + $ + @ @ @ + @ + @ @ % @ # @ + @ @ $ @ + @ @ # $ $ & @ @ + $ $ $ + & @ $ @ * = % -   . + @ # @ @ + $ $ % @ @ + @ @ & # @ @ @ @ + $ + @ @ @ + @ + @ @ % @ # @ + @ @ $ @ + @ @ # $ $ & @ @ + $ $ $ + & @ $ @ * = % -   . + @ # @ @ + $ $ % @ @ + @ @ & # @ @ @ @ + $ + @ @ @ + @ + @ @ % @ # @ + @ @ $ @ + @ @ # $ $ & @ @ + $ $ $ + & @ $ @ * = % -   . + @ # @ @ + $ $ % @ @ + @ @ & # @ @ @ @ + $ + @ @ @ + @ + @ @ % @ # @ + @ @ $ @ + @ @ # $ $ & @ @ + $ $ $ + & @ $ @ * = % -   . + @ # @ @ + $ $ % @ @ + @ @ ",
"  . + @ # @ @ + $ $ % @ @ + @ @ & # @ @ @ @ + $ + @ @ @ + @ + @ @ % @ @ @ @ % @ $ @ + @ @ # $ $ & @ @ + $ $ $ + & @ $ @ * = % -   . + @ # @ @ + $ $ % @ @ + @ @ & # @ @ @ @ + $ + @ @ @ + @ + @ @ % @ @ @ @ % @ $ @ + @ @ # $ $ & @ @ + $ $ $ + & @ $ @ * = % -   . + @ # @ @ + $ $ % @ @ + @ @ & # @ @ @ @ + $ + @ @ @ + @ + @ @ % @ @ @ @ % @ $ @ + @ @ # $ $ & @ @ + $ $ $ + & @ $ @ * = % -   . + @ # @ @ + $ $ % @ @ + @ @ & # @ @ @ @ + $ + @ @ @ + @ + @ @ % @ @ @ @ % @ $ @ + @ @ # $ $ & @ @ + $ $ $ + & @ $ @ * = % -   . + @ # @ @ + $ $ % @ @ + @ @ & # @ @ @ @ + $ + @ @ @ + @ + @ @ % @ @ @ @ % @ $ @ + @ @ # $ $ & @ @ + $ $ $ + & @ $ @ * = % -   . + @ # @ @ + $ $ % @ @ + @ @ & # @ @ @ @ + $ + @ @ @ + @ + @ @ % @ @ @ @ % @ $ @ + @ @ # $ $ & @ @ + $ $ $ + & @ $ @ * = % -   . + @ # @ @ + $ $ % @ @ + @ @ ",
"  . + @ # @ @ + $ $ % @ @ + @ @ & # @ @ @ @ + $ + @ @ @ + @ + @ @ % @ % # @ % @ $ @ + @ @ # $ $ & @ @ + $ $ $ + & @ $ @ * = % -   . + @ # @ @ + $ $ % @ @ + @ @ & # @ @ @ @ + $ + @ @ @ + @ + @ @ % @ % # @ % @ $ @ + @ @ # $ $ & @ @ + $ $ $ + & @ $ @ * = % -   . + @ # @ @ + $ $ % @ @ + @ @ & # @ @ @ @ + $ + @ @ @ + @ + @ @ % @ % # @ % @ $ @ + @ @ # $ $ & @ @ + $ $ $ + & @ $ @ * = % -   . + @ # @ @ + $ $ % @ @ + @ @ & # @ @ @ @ + $ + @ @ @ + @ + @ @ % @ % # @ % @ $ @ + @ @ # $ $ & @ @ + $ $ $ + & @ $ @ * = % -   . + @ # @ @ + $ $ % @ @ + @ @ & # @ @ @ @ + $ + @ @ @ + @ + @ @ % @ % # @ % @ $ @ + @ @ # $ $ & @ @ + $ $ $ + & @ $ @ * = % -   . + @ # @ @ + $ $ % @ @ + @ @ & # @ @ @ @ + $ + @ @ @ + @ + @ @ % @ % # @ % @ $ @ + @ @ # $ $ & @ @ + $ $ $ + & @ $ @ * = % -   . + @ # @ @ + $ $ % @ @ + @ @ ",
"  . + @ # @ @ + $ $ % @ @ + @ @ & # @ @ @ @ + $ + @ @ @ + @ + @ % # @ % % @ % @ $ @ + @ @ # $ $ & @ @ + $ $ $ + & @ $ @ * = % -   . + @ # @ @ + $ $ % @ @ + @ @ & # @ @ @ @ + $ + @ @ @ + @ + @ % # @ % % @ % @ $ @ + @ @ # $ $ & @ @ + $ $ $ + & @ $ @ * = % -   . + @ # @ @ + $ $ % @ @ + @ @ & # @ @ @ @ + $ + @ @ @ + @ + @ % # @ % % @ % @ $ @ + @ @ # $ $ & @ @ + $ $ $ + & @ $ @ * = % -   . + @ # @ @ + $ $ % @ @ + @ @ & # @ @ @ @ + $ + @ @ @ + @ + @ % # @ % % @ % @ $ @ + @ @ # $ $ & @ @ + $ $ $ + & @ $ @ * = % -   . + @ # @ @ + $ $ % @ @ + @ @ & # @ @ @ @ + $ + @ @ @ + @ + @ % # @ % % @ % @ $ @ + @ @ # $ $ & @ @ + $ $ $ + & @ $ @ * = % -   . + @ # @ @ + $ $ % @ @ + @ @ & # @ @ @ @ + $ + @ @ @ + @ + @ % # @ % % @ % @ $ @ + @ @ # $ $ & @ @ + $ $ $ + & @ $ @ * = % -   . + @ # @ @ + $ $ % @ @ + @ @ ",
"  . + @ # @ @ + $ $ % @ @ + @ @ & # @ @ @ @ + $ + @ @ @ + @ + @ % @ % % ; % @ % @ & + @ @ # $ $ & @ @ + $ $ $ + & @ $ @ * = % -   . + @ # @ @ + $ $ % @ @ + @ @ & # @ @ @ @ + $ + @ @ @ + @ + @ % @ % % ; % @ % @ & + @ @ # $ $ & @ @ + $ $ $ + & @ $ @ * = % -   . + @ # @ @ + $ $ % @ @ + @ @ & # @ @ @ @ + $ + @ @ @ + @ + @ % @ % % ; % @ % @ & + @ @ # $ $ & @ @ + $ $ $ + & @ $ @ * = % -   . + @ # @ @ + $ $ % @ @ + @ @ & # @ @ @ @ + $ + @ @ @ + @ + @ % @ % % ; % @ % @ & + @ @ # $ $ & @ @ + $ $ $ + & @ $ @ * = % -   . + @ # @ @ + $ $ % @ @ + @ @ & # @ @ @ @ + $ + @ @ @ + @ + @ % @ % % ; % @ % @ & + @ @ # $ $ & @ @ + $ $ $ + & @ $ @ * = % -   . + @ # @ @ + $ $ % @ @ + @ @ & # @ @ @ @ + $ + @ @ @ + @ + @ % @ % % ; % @ % @ & + @ @ # $ $ & @ @ + $ $ $ + & @ $ @ * = % -   . + @ # @ @ + $ $ % @ @ + @ @ ",
"  . + @ # @ @ + $ $ % @ @ + @ @ & # @ @ @ @ + $ + @ @ @ + @ + @ % @ > ; % % @ % @ & @ + @ # $ $ & @ @ @ + $ $ + & @ $ @ * = % -   . + @ # @ @ + $ $ % @ @ + @ @ & # @ @ @ @ + $ + @ @ @ + @ + @ % @ > ; % % @ % @ & @ + @ # $ $ & @ @ @ + $ $ + & @ $ @ * = % -   . + @ # @ @ + $ $ % @ @ + @ @ & # @ @ @ @ + $ + @ @ @ + @ + @ % @ > ; % % @ % @ & @ + @ # $ $ & @ @ @ + $ $ + & @ $ @ * = % -   . + @ # @ @ + $ $ % @ @ + @ @ & # @ @ @ @ + $ + @ @ @ + @ + @ % @ > ; % % @ % @ & @ + @ # $ $ & @ @ @ + $ $ + & @ $ @ * = % -   . + @ # @ @ + $ $ % @ @ + @ @ & # @ @ @ @ + $ + @ @ @ + @ + @ % @ > ; % % @ % @ & @ + @ # $ $ & @ @ @ + $ $ + & @ $ @ * = % -   . + @ # @ @ + $ $ % @ @ + @ @ & # @ @ @ @ + $ + @ @ @ + @ + @ % @ > ; % % @ % @ & @ + @ # $ $ & @ @ @ + $ $ + & @ $ @ * = % -   . + @ # @ @ + $ $ % @ @ + @ @ ",
"  . + @ # @ @ + $ $ % @ @ + @ @ & # @ @ @ @ + $ + @ @ + @ @ + @ % @ % + % @ @ % @ & @ + @ # $ $ & @ @ @ + $ $ + & @ $ @ * = % -   . + @ # @ @ + $ $ % @ @ + @ @ & # @ @ @ @ + $ + @ @ + @ @ + @ % @ % + % @ @ % @ & @ + @ # $ $ & @ @ @ + $ $ + & @ $ @ * = % -   . + @ # @ @ + $ $ % @ @ + @ @ & # @ @ @ @ + $ + @ @ + @ @ + @ % @ % + % @ @ % @ & @ + @ # $ $ & @ @ @ + $ $ + & @ $ @ * = % -   . + @ # @ @ + $ $ % @ @ + @ @ & # @ @ @ @ + $ + @ @ + @ @ + @ % @ % + % @ @ % @ & @ + @ # $ $ & @ @ @ + $ $ + & @ $ @ * = % -   . + @ # @ @ + $ $ % @ @ + @ @ & # @ @ @ @ + $ + @ @ + @ @ + @ % @ % + % @ @ % @ & @ + @ # $ $ & @ @ @ + $ $ + & @ $ @ * = % -   . + @ # @ @ + $ $ % @ @ + @ @ & # @ @ @ @ + $ + @ @ + @ @ + @ % @ % + % @ @ % @ & @ + @ # $ $ & @ @ @ + $ $ + & @ $ @ * = % -   . + @ # @ @ + $ $ % @ @ + @ @ ",
"  . + @ # @ @ + $ $ % @ @ + @ @ & # @ @ @ @ + $ + @ @ + @ @ + @ % @ % + % @ @ % @ & @ + @ # $ $ & @ @ @ + $ $ + & @ $ @ * = % -   . + @ # @ @ + $ $ % @ @ + @ @ & # @ @ @ @ + $ + @ @ + @ @ + @ % @ % + % @ @ % @ & @ + @ # $ $ & @ @ @ + $ $ + & @ $ @ * = % -   . + @ # @ @ + $ $ % @ @ + @ @ & # @ @ @ @ + $ + @ @ + @ @ + @ % @ % + % @ @ % @ & @ + @ # $ $ & @ @ @ + $ $ + & @ $ @ * = % -   . + @ # @ @ + $ $ % @ @ + @ @ & # @ @ @ @ + $ + @ @ + @ @ + @ % @ % + % @ @ % @ & @ + @ # $ $ & @ @ @ + $ $ + & @ $ @ * = % -   . + @ # @ @ + $ $ % @ @ + @ @ & # @ @ @ @ + $ + @ @ + @ @ + @ % @ % + % @ @ % @ & @ + @ # $ $ & @ @ @ + $ $ + & @ $ @ * = % -   . + @ # @ @ + $ $ % @ @ + @ @ & # @ @ @ @ + $ + @ @ + @ @ + @ % @ % + % @ @ % @ & @ + @ # $ $ & @ @ @ + $ $ + & @ $ @ * = % -   . + @ # @ @ + $ $ % @ @ + @ @ ",
"  . + @ # @ @ + $ $ % @ @ + @ @ & # @ @ @ @ + $ $ + @ + @ @ + @ % @ % + > @ @ % @ & @ + @ # $ $ & @ @ @ + $ $ + & @ $ @ * = % -   . + @ # @ @ + $ $ % @ @ + @ @ & # @ @ @ @ + $ $ + @ + @ @ + @ % @ % + > @ @ % @ & @ + @ # $ $ & @ @ @ + $ $ + & @ $ @ * = % -   . + @ # @ @ + $ $ % @ @ + @ @ & # @ @ @ @ + $ $ + @ + @ @ + @ % @ % + > @ @ % @ & @ + @ # $ $ & @ @ @ + $ $ + & @ $ @ * = % -   . + @ # @ @ + $ $ % @ @ + @ @ & # @ @ @ @ + $ $ + @ + @ @ + @ % @ % + > @ @ % @ & @ + @ # $ $ & @ @ @ + $ $ + & @ $ @ * = % -   . + @ # @ @ + $ $ % @ @ + @ @ & # @ @ @ @ + $ $ + @ + @ @ + @ % @ % + > @ @ % @ & @ + @ # $ $ & @ @ @ + $ $ + & @ $ @ * = % -   . + @ # @ @ + $ $ % @ @ + @ @ & # @ @ @ @ + $ $ + @ + @ @ + @ % @ % + > @ @ % @ & @ + @ # $ $ & @ @ @ + $ $ + & @ $ @ * = % -   . + @ # @ @ + $ $ % @ @ + @ @ ",
"  . + @ # @ @ + $ $ % @ @ + @ @ & # @ @ @ @ + $ $ + @ + @ @ + @ % @ % + % @ @ % @ & @ + @ # $ $ & @ @ @ + $ $ + & @ $ @ * = % -   . + @ # @ @ + $ $ % @ @ + @ @ & # @ @ @ @ + $ $ + @ + @ @ + @ % @ % + % @ @ % @ & @ + @ # $ $ & @ @ @ + $ $ + & @ $ @ * = % -   . + @ # @ @ + $ $ % @ @ + @ @ & # @ @ @ @ + $ $ + @ + @ @ + @ % @ % + % @ @ % @ & @ + @ # $ $ & @ @ @ + $ $ + & @ $ @ * = % -   . + @ # @ @ + $ $ % @ @ + @ @ & # @ @ @ @ + $ $ + @ + @ @ + @ % @ % + % @ @ % @ & @ + @ # $ $ & @ @ @ + $ $ + & @ $ @ * = % -   . + @ # @ @ + $ $ % @ @ + @ @ & # @ @ @ @ + $ $ + @ + @ @ + @ % @ % + % @ @ % @ & @ + @ # $ $ & @ @ @ + $ $ + & @ $ @ * = % -   . + @ # @ @ + $ $ % @ @ + @ @ & # @ @ @ @ + $ $ + @ + @ @ + @ % @ % + % @ @ % @ & @ + @ # $ $ & @ @ @ + $ $ + & @ $ @ * = % -   . + @ # @ @ + $ $ % @ @ + @ @ ",
"  . + @ # @ @ + $ $ % @ @ + @ @ & # @ @ @ @ + $ $ + @ + @ @ + @ % @ % + > @ % @ @ & @ + @ # $ $ & @ @ @ + $ $ + & @ $ @ * = % -   . + @ # @ @ + $ $ % @ @ + @ @ & # @ @ @ @ + $ $ + @ + @ @ + @ % @ % + > @ % @ @ & @ + @ # $ $ & @ @ @ + $ $ + & @ $ @ * = % -   . + @ # @ @ + $ $ % @ @ + @ @ & # @ @ @ @ + $ $ + @ + @ @ + @ % @ % + > @ % @ @ & @ + @ # $ $ & @ @ @ + $ $ + & @ $ @ * = % -   . + @ # @ @ + $ $ % @ @ + @ @ & # @ @ @ @ + $ $ + @ + @ @ + @ % @ % + > @ % @ @ & @ + @ # $ $ & @ @ @ + $ $ + & @ $ @ * = % -   . + @ # @ @ + $ $ % @ @ + @ @ & # @ @ @ @ + $ $ + @ + @ @ + @ % @ % + > @ % @ @ & @ + @ # $ $ & @ @ @ + $ $ + & @ $ @ * = % -   . + @ # @ @ + $ $ % @ @ + @ @ & # @ @ @ @ + $ $ + @ + @ @ + @ % @ % + > @ % @ @ & @ + @ # $ $ & @ @ @ + $ $ + & @ $ @ * = % -   . + @ # @ @ + $ $ % @ @ + @ @ ",
"  . + @ # @ @ + $ $ % @ @ + @ @ & # @ @ @ @ + $ $ + @ + @ @ + @ % @ % % % @ % @ @ & @ + @ # $ $ & @ @ @ + $ $ + & @ $ @ * = % -   . + @ # @ @ + $ $ % @ @ + @ @ & # @ @ @ @ + $ $ + @ + @ @ + @ % @ % % % @ % @ @ & @ + @ # $ $ & @ @ @ + $ $ + & @ $ @ * = % -   . + @ # @ @ + $ $ % @ @ + @ @ & # @ @ @ @ + $ $ + @ + @ @ + @ % @ % % % @ % @ @ & @ + @ # $ $ & @ @ @ + $ $ + & @ $ @ * = % -   . + @ # @ @ + $ $ % @ @ + @ @ & # @ @ @ @ + $ $ + @ + @ @ + @ % @ % % % @ % @ @ & @ + @ # $ $ & @ @ @ + $ $ + & @ $ @ * = % -   . + @ # @ @ + $ $ % @ @ + @ @ & # @ @ @ @ + $ $ + @ + @ @ + @ % @ % % % @ % @ @ & @ + @ # $ $ & @ @ @ + $ $ + & @ $ @ * = % -   . + @ # @ @ + $ $ % @ @ + @ @ & # @ @ @ @ + $ $ + @ + @ @ + @ % @ % % % @ % @ @ & @ + @ # $ $ & @ @ @ + $ $ + & @ $ @ * = % -   . + @ # @ @ + $ $ % @ @ + @ @ ",
"  . + @ # @ @ + $ $ % @ @ + @ @ & # @ @ @ @ + $ $ + @ + @ @ + @ @ % @ % @ @ % @ @ $ @ + @ # $ $ & @ @ @ + $ $ + & @ $ @ * = % -   . + @ # @ @ + $ $ % @ @ + @ @ & # @ @ @ @ + $ $ + @ + @ @ + @ @ % @ % @ @ % @ @ $ @ + @ # $ $ & @ @ @ + $ $ + & @ $ @ * = % -   . + @ # @ @ + $ $ % @ @ + @ @ & # @ @ @ @ + $ $ + @ + @ @ + @ @ % @ % @ @ % @ @ $ @ + @ # $ $ & @ @ @ + $ $ + & @ $ @ * = % -   . + @ # @ @ + $ $ % @ @ + @ @ & # @ @ @ @ + $ $ + @ + @ @ + @ @ % @ % @ @ % @ @ $ @ + @ # $ $ & @ @ @ + $ $ + & @ $ @ * = % -   . + @ # @ @ + $ $ % @ @ + @ @ & # @ @ @ @ + $ $ + @ + @ @ + @ @ % @ % @ @ % @ @ $ @ + @ # $ $ & @ @ @ + $ $ + & @ $ @ * = % -   . + @ # @ @ + $ $ % @ @ + @ @ & # @ @ @ @ + $ $ + @ + @ @ + @ @ % @ % @ @ % @ @ $ @ + @ # $ $ & @ @ @ + $ $ + & @ $ @ * = % -   . + @ # @ @ + $ $ % @ @ + @ @ ",
"  . + @ # @ @ + $ $ % @ @ + @ @ & # @ @ @ @ + $ $ + @ + @ @ + @ @ % @ @ @ @ % @ @ $ @ + @ # $ $ & @ @ @ + $ $ + & @ $ @ * = % -   . + @ # @ @ + $ $ % @ @ + @ @ & # @ @ @ @ + $ $ + @ + @ @ + @ @ % @ @ @ @ % @ @ $ @ + @ # $ $ & @ @ @ + $ $ + & @ $ @ * = % -   . + @ # @ @ + $ $ % @ @ + @ @ & # @ @ @ @ + $ $ + @ + @ @ + @ @ % @ @ @ @ % @ @ $ @ + @ # $ $ & @ @ @ + $ $ + & @ $ @ * = % -   . + @ # @ @ + $ $ % @ @ + @ @ & # @ @ @ @ + $ $ + @ + @ @ + @ @ % @ @ @ @ % @ @ $ @ + @ # $ $ & @ @ @ + $ $ + & @ $ @ * = % -   . + @ # @ @ + $ $ % @ @ + @ @ & # @ @ @ @ + $ $ + @ + @ @ + @ @ % @ @ @ @ % @ @ $ @ + @ # $ $ & @ @ @ + $ $ + & @ $ @ * = % -   . + @ # @ @ + $ $ % @ @ + @ @ & # @ @ @ @ + $ $ + @ + @ @ + @ @ % @ @ @ @ % @ @ $ @ + @ # $ $ & @ @ @ + $ $ + & @ $ @ * = % -   . + @ # @ @ + $ $ % @ @ + @ @ ",
"  . + @ # @ @ + $ $ % @ @ + @ @ & # @ @ @ + $ $ $ + @ + @ @ + @ @ @ % @ @ @ % @ @ $ @ + @ # $ $ & @ @ @ + $ $ + & @ $ @ * = % -   . + @ # @ @ + $ $ % @ @ + @ @ & # @ @ @ + $ $ $ + @ + @ @ + @ @ @ % @ @ @ % @ @ $ @ + @ # $ $ & @ @ @ + $ $ + & @ $ @ * = % -   . + @ # @ @ + $ $ % @ @ + @ @ & # @ @ @ + $ $ $ + @ + @ @ + @ @ @ % @ @ @ % @ @ $ @ + @ # $ $ & @ @ @ + $ $ + & @ $ @ * = % -   . + @ # @ @ + $ $ % @ @ + @ @ & # @ @ @ + $ $ $ + @ + @ @ + @ @ @ % @ @ @ % @ @ $ @ + @ # $ $ & @ @ @ + $ $ + & @ $ @ * = % -   . + @ # @ @ + $ $ % @ @ + @ @ & # @ @ @ + $ $ $ + @ + @ @ + @ @ @ % @ @ @ % @ @ $ @ + @ # $ $ & @ @ @ + $ $ + & @ $ @ * = % -   . + @ # @ @ + $ $ % @ @ + @ @ & # @ @ @ + $ $ $ + @ + @ @ + @ @ @ % @ @ @ % @ @ $ @ + @ # $ $ & @ @ @ + $ $ + & @ $ @ * = % -   . + @ # @ @ + $ $ % @ @ + @ @ ",
"  . + @ # @ @ + $ $ % @ @ + @ @ & # @ @ @ + $ $ $ + @ + @ @ + @ @ @ % @ @ @ % @ # $ @ + @ # $ $ & @ @ @ + $ $ + & @ $ @ * = % -   . + @ # @ @ + $ $ % @ @ + @ @ & # @ @ @ + $ $ $ + @ + @ @ + @ @ @ % @ @ @ % @ # $ @ + @ # $ $ & @ @ @ + $ $ + & @ $ @ * = % -   . + @ # @ @ + $ $ % @ @ + @ @ & # @ @ @ + $ $ $ + @ + @ @ + @ @ @ % @ @ @ % @ # $ @ + @ # $ $ & @ @ @ + $ $ + & @ $ @ * = % -   . + @ # @ @ + $ $ % @ @ + @ @ & # @ @ @ + $ $ $ + @ + @ @ + @ @ @ % @ @ @ % @ # $ @ + @ # $ $ & @ @ @ + $ $ + & @ $ @ * = % -   . + @ # @ @ + $ $ % @ @ + @ @ & # @ @ @ + $ $ $ + @ + @ @ + @ @ @ % @ @ @ % @ # $ @ + @ # $ $ & @ @ @ + $ $ + & @ $ @ * = % -   . + @ # @ @ + $ $ % @ @ + @ @ & # @ @ @ + $ $ $ + @ + @ @ + @ @ @ % @ @ @ % @ # $ @ + @ # $ $ & @ @ @ + $ $ + & @ $ @ * = % -   . + @ # @ @ + $ $ % @ @ + @ @ ",
"  . + @ # @ + $ $ $ % @ @ + @ @ & # @ @ @ + $ $ + @ @ + @ @ + @ @ @ @ % % % @ @ $ $ @ + @ # $ $ & @ @ + $ $ $ + & @ $ @ * = % -   . + @ # @ + $ $ $ % @ @ + @ @ & # @ @ @ + $ $ + @ @ + @ @ + @ @ @ @ % % % @ @ $ $ @ + @ # $ $ & @ @ + $ $ $ + & @ $ @ * = % -   . + @ # @ + $ $ $ % @ @ + @ @ & # @ @ @ + $ $ + @ @ + @ @ + @ @ @ @ % % % @ @ $ $ @ + @ # $ $ & @ @ + $ $ $ + & @ $ @ * = % -   . + @ # @ + $ $ $ % @ @ + @ @ & # @ @ @ + $ $ + @ @ + @ @ + @ @ @ @ % % % @ @ $ $ @ + @ # $ $ & @ @ + $ $ $ + & @ $ @ * = % -   . + @ # @ + $ $ $ % @ @ + @ @ & # @ @ @ + $ $ + @ @ + @ @ + @ @ @ @ % % % @ @ $ $ @ + @ # $ $ & @ @ + $ $ $ + & @ $ @ * = % -   . + @ # @ + $ $ $ % @ @ + @ @ & # @ @ @ + $ $ + @ @ + @ @ + @ @ @ @ % % % @ @ $ $ @ + @ # $ $ & @ @ + $ $ $ + & @ $ @ * = % -   . + @ # @ + $ $ $ % @ @ + @ @ ",
"  . + @ # @ + $ $ $ % @ @ + @ @ & # @ @ @ + $ $ + @ @ + @ @ + @ @ # @ @ @ @ @ # $ $ @ + @ # $ $ & @ @ + $ $ $ + & @ $ @ * = % -   . + @ # @ + $ $ $ % @ @ + @ @ & # @ @ @ + $ $ + @ @ + @ @ + @ @ # @ @ @ @ @ # $ $ @ + @ # $ $ & @ @ + $ $ $ + & @ $ @ * = % -   . + @ # @ + $ $ $ % @ @ + @ @ & # @ @ @ + $ $ + @ @ + @ @ + @ @ # @ @ @ @ @ # $ $ @ + @ # $ $ & @ @ + $ $ $ + & @ $ @ * = % -   . + @ # @ + $ $ $ % @ @ + @ @ & # @ @ @ + $ $ + @ @ + @ @ + @ @ # @ @ @ @ @ # $ $ @ + @ # $ $ & @ @ + $ $ $ + & @ $ @ * = % -   . + @ # @ + $ $ $ % @ @ + @ @ & # @ @ @ + $ $ + @ @ + @ @ + @ @ # @ @ @ @ @ # $ $ @ + @ # $ $ & @ @ + $ $ $ + & @ $ @ * = % -   . + @ # @ + $ $ $ % @ @ + @ @ & # @ @ @ + $ $ + @ @ + @ @ + @ @ # @ @ @ @ @ # $ $ @ + @ # $ $ & @ @ + $ $ $ + & @ $ @ * = % -   . + @ # @ + $ $ $ % @ @ + @ @ ",
"  . + @ # @ + $ $ $ % @ @ + @ @ & # @ @ @ + $ $ + @ @ + @ @ + @ @ # # @ @ @ @ # $ $ @ + @ # $ $ & @ @ + $ $ $ + & @ $ @ * = % -   . + @ # @ + $ $ $ % @ @ + @ @ & # @ @ @ + $ $ + @ @ + @ @ + @ @ # # @ @ @ @ # $ $ @ + @ # $ $ & @ @ + $ $ $ + & @ $ @ * = % -   . + @ # @ + $ $ $ % @ @ + @ @ & # @ @ @ + $ $ + @ @ + @ @ + @ @ # # @ @ @ @ # $ $ @ + @ # $ $ & @ @ + $ $ $ + & @ $ @ * = % -   . + @ # @ + $ $ $ % @ @ + @ @ & # @ @ @ + $ $ + @ @ + @ @ + @ @ # # @ @ @ @ # $ $ @ + @ # $ $ & @ @ + $ $ $ + & @ $ @ * = % -   . + @ # @ + $ $ $ % @ @ + @ @ & # @ @ @ + $ $ + @ @ + @ @ + @ @ # # @ @ @ @ # $ $ @ + @ # $ $ & @ @ + $ $ $ + & @ $ @ * = % -   . + @ # @ + $ $ $ % @ @ + @ @ & # @ @ @ + $ $ + @ @ + @ @ + @ @ # # @ @ @ @ # $ $ @ + @ # $ $ & @ @ + $ $ $ + & @ $ @ * = % -   . + @ # @ + $ $ $ % @ @ + @ @ ",
"  . + @ # @ + $ $ $ % @ @ + @ @ & # @ @ @ + $ $ + @ @ + @ @ + @ @ @ # @ @ @ @ # $ $ @ + @ # $ $ & @ @ + $ $ $ + & @ $ @ * = % -   . + @ # @ + $ $ $ % @ @ + @ @ & # @ @ @ + $ $ + @ @ + @ @ + @ @ @ # @ @ @ @ # $ $ @ + @ # $ $ & @ @ + $ $ $ + & @ $ @ * = % -   . + @ # @ + $ $ $ % @ @ + @ @ & # @ @ @ + $ $ + @ @ + @ @ + @ @ @ # @ @ @ @ # $ $ @ + @ # $ $ & @ @ + $ $ $ + & @ $ @ * = % -   . + @ # @ + $ $ $ % @ @ + @ @ & # @ @ @ + $ $ + @ @ + @ @ + @ @ @ # @ @ @ @ # $ $ @ + @ # $ $ & @ @ + $ $ $ + & @ $ @ * = % -   . + @ # @ + $ $ $ % @ @ + @ @ & # @ @ @ + $ $ + @ @ + @ @ + @ @ @ # @ @ @ @ # $ $ @ + @ # $ $ & @ @ + $ $ $ + & @ $ @ * = % -   . + @ # @ + $ $ $ % @ @ + @ @ & # @ @ @ + $ $ + @ @ + @ @ + @ @ @ # @ @ @ @ # $ $ @ + @ # $ $ & @ @ + $ $ $ + & @ $ @ * = % -   . + @ # @ + $ $ $ % @ @ + @ @ ",
"  . + @ # @ + $ $ $ % @ @ + @ @ & # @ @ @ + $ $ + @ @ @ + @ @ + @ @ @ $ @ @ # $ $ @ @ + @ # $ $ @ @ @ + $ $ $ + & @ $ @ * = % -   . + @ # @ + $ $ $ % @ @ + @ @ & # @ @ @ + $ $ + @ @ @ + @ @ + @ @ @ $ @ @ # $ $ @ @ + @ # $ $ @ @ @ + $ $ $ + & @ $ @ * = % -   . + @ # @ + $ $ $ % @ @ + @ @ & # @ @ @ + $ $ + @ @ @ + @ @ + @ @ @ $ @ @ # $ $ @ @ + @ # $ $ @ @ @ + $ $ $ + & @ $ @ * = % -   . + @ # @ + $ $ $ % @ @ + @ @ & # @ @ @ + $ $ + @ @ @ + @ @ + @ @ @ $ @ @ # $ $ @ @ + @ # $ $ @ @ @ + $ $ $ + & @ $ @ * = % -   . + @ # @ + $ $ $ % @ @ + @ @ & # @ @ @ + $ $ + @ @ @ + @ @ + @ @ @ $ @ @ # $ $ @ @ + @ # $ $ @ @ @ + $ $ $ + & @ $ @ * = % -   . + @ # @ + $ $ $ % @ @ + @ @ & # @ @ @ + $ $ + @ @ @ + @ @ + @ @ @ $ @ @ # $ $ @ @ + @ # $ $ @ @ @ + $ $ $ + & @ $ @ * = % -   . + @ # @ + $ $ $ % @ @ + @ @ ",
"  . + @ # @ + $ $ $ % @ @ + @ @ & # @ @ @ + $ $ + @ @ @ + @ @ @ + @ @ $ # @ # $ $ @ + @ @ # $ $ @ @ @ + $ $ $ + & @ $ @ * = % -   . + @ # @ + $ $ $ % @ @ + @ @ & # @ @ @ + $ $ + @ @ @ + @ @ @ + @ @ $ # @ # $ $ @ + @ @ # $ $ @ @ @ + $ $ $ + & @ $ @ * = % -   . + @ # @ + $ $ $ % @ @ + @ @ & # @ @ @ + $ $ + @ @ @ + @ @ @ + @ @ $ # @ # $ $ @ + @ @ # $ $ @ @ @ + $ $ $ + & @ $ @ * = % -   . + @ # @ + $ $ $ % @ @ + @ @ & # @ @ @ + $ $ + @ @ @ + @ @ @ + @ @ $ # @ # $ $ @ + @ @ # $ $ @ @ @ + $ $ $ + & @ $ @ * = % -   . + @ # @ + $ $ $ % @ @ + @ @ & # @ @ @ + $ $ + @ @ @ + @ @ @ + @ @ $ # @ # $ $ @ + @ @ # $ $ @ @ @ + $ $ $ + & @ $ @ * = % -   . + @ # @ + $ $ $ % @ @ + @ @ & # @ @ @ + $ $ + @ @ @ + @ @ @ + @ @ $ # @ # $ $ @ + @ @ # $ $ @ @ @ + $ $ $ + & @ $ @ * = % -   . + @ # @ + $ $ $ % @ @ + @ @ ",
"  . + @ # @ + $ $ $ % @ @ + @ @ & # @ @ @ + $ $ + @ @ @ + @ @ @ + @ @ $ $ @ $ $ @ @ + @ @ # $ $ @ @ @ + $ $ $ + & @ $ @ * = % -   . + @ # @ + $ $ $ % @ @ + @ @ & # @ @ @ + $ $ + @ @ @ + @ @ @ + @ @ $ $ @ $ $ @ @ + @ @ # $ $ @ @ @ + $ $ $ + & @ $ @ * = % -   . + @ # @ + $ $ $ % @ @ + @ @ & # @ @ @ + $ $ + @ @ @ + @ @ @ + @ @ $ $ @ $ $ @ @ + @ @ # $ $ @ @ @ + $ $ $ + & @ $ @ * = % -   . + @ # @ + $ $ $ % @ @ + @ @ & # @ @ @ + $ $ + @ @ @ + @ @ @ + @ @ $ $ @ $ $ @ @ + @ @ # $ $ @ @ @ + $ $ $ + & @ $ @ * = % -   . + @ # @ + $ $ $ % @ @ + @ @ & # @ @ @ + $ $ + @ @ @ + @ @ @ + @ @ $ $ @ $ $ @ @ + @ @ # $ $ @ @ @ + $ $ $ + & @ $ @ * = % -   . + @ # @ + $ $ $ % @ @ + @ @ & # @ @ @ + $ $ + @ @ @ + @ @ @ + @ @ $ $ @ $ $ @ @ + @ @ # $ $ @ @ @ + $ $ $ + & @ $ @ * = % -   . + @ # @ + $ $ $ % @ @ + @ @ ",
"  . + @ # @ + $ $ $ % @ @ + @ @ & # @ @ @ + $ $ + @ @ @ + @ @ @ + @ @ $ $ $ $ $ @ @ + @ @ # $ $ @ @ @ + $ $ $ + & @ $ @ * = % -   . + @ # @ + $ $ $ % @ @ + @ @ & # @ @ @ + $ $ + @ @ @ + @ @ @ + @ @ $ $ $ $ $ @ @ + @ @ # $ $ @ @ @ + $ $ $ + & @ $ @ * = % -   . + @ # @ + $ $ $ % @ @ + @ @ & # @ @ @ + $ $ + @ @ @ + @ @ @ + @ @ $ $ $ $ $ @ @ + @ @ # $ $ @ @ @ + $ $ $ + & @ $ @ * = % -   . + @ # @ + $ $ $ % @ @ + @ @ & # @ @ @ + $ $ + @ @ @ + @ @ @ + @ @ $ $ $ $ $ @ @ + @ @ # $ $ @ @ @ + $ $ $ + & @ $ @ * = % -   . + @ # @ + $ $ $ % @ @ + @ @ & # @ @ @ + $ $ + @ @ @ + @ @ @ + @ @ $ $ $ $ $ @ @ + @ @ # $ $ @ @ @ + $ $ $ + & @ $ @ * = % -   . + @ # @ + $ $ $ % @ @ + @ @ & # @ @ @ + $ $ + @ @ @ + @ @ @ + @ @ $ $ $ $ $ @ @ + @ @ # $ $ @ @ @ + $ $ $ + & @ $ @ * = % -   . + @ # @ + $ $ $ % @ @ + @ @ ",
"  . + @ # @ + $ $ $ % @ @ + @ @ & # @ @ @ + $ $ + @ @ @ + @ @ @ @ + @ @ $ $ $ $ @ @ + @ @ # $ $ @ @ @ + $ $ $ + & @ $ @ * = % -   . + @ # @ + $ $ $ % @ @ + @ @ & # @ @ @ + $ $ + @ @ @ + @ @ @ @ + @ @ $ $ $ $ @ @ + @ @ # $ $ @ @ @ + $ $ $ + & @ $ @ * = % -   . + @ # @ + $ $ $ % @ @ + @ @ & # @ @ @ + $ $ + @ @ @ + @ @ @ @ + @ @ $ $ $ $ @ @ + @ @ # $ $ @ @ @ + $ $ $ + & @ $ @ * = % -   . + @ # @ + $ $ $ % @ @ + @ @ & # @ @ @ + $ $ + @ @ @ + @ @ @ @ + @ @ $ $ $ $ @ @ + @ @ # $ $ @ @ @ + $ $ $ + & @ $ @ * = % -   . + @ # @ + $ $ $ % @ @ + @ @ & # @ @ @ + $ $ + @ @ @ + @ @ @ @ + @ @ $ $ $ $ @ @ + @ @ # $ $ @ @ @ + $ $ $ + & @ $ @ * = % -   . + @ # @ + $ $ $ % @ @ + @ @ & # @ @ @ + $ $ + @ @ @ + @ @ @ @ + @ @ $ $ $ $ @ @ + @ @ # $ $ @ @ @ + $ $ $ + & @ $ @ * = % -   . + @ # @ + $ $ $ % @ @ + @ @ ",
"  . + @ # @ + $ $ $ % @ @ + @ @ & # @ @ @ + $ $ + @ @ @ + @ @ @ @ + @ @ $ $ @ $ @ @ + @ @ # $ $ @ @ @ + $ $ $ + & @ $ @ * = % -   . + @ # @ + $ $ $ % @ @ + @ @ & # @ @ @ + $ $ + @ @ @ + @ @ @ @ + @ @ $ $ @ $ @ @ + @ @ # $ $ @ @ @ + $ $ $ + & @ $ @ * = % -   . + @ # @ + $ $ $ % @ @ + @ @ & # @ @ @ + $ $ + @ @ @ + @ @ @ @ + @ @ $ $ @ $ @ @ + @ @ # $ $ @ @ @ + $ $ $ + & @ $ @ * = % -   . + @ # @ + $ $ $ % @ @ + @ @ & # @ @ @ + $ $ + @ @ @ + @ @ @ @ + @ @ $ $ @ $ @ @ + @ @ # $ $ @ @ @ + $ $ $ + & @ $ @ * = % -   . + @ # @ + $ $ $ % @ @ + @ @ & # @ @ @ + $ $ + @ @ @ + @ @ @ @ + @ @ $ $ @ $ @ @ + @ @ # $ $ @ @ @ + $ $ $ + & @ $ @ * = % -   . + @ # @ + $ $ $ % @ @ + @ @ & # @ @ @ + $ $ + @ @ @ + @ @ @ @ + @ @ $ $ @ $ @ @ + @ @ # $ $ @ @ @ + $ $ $ + & @ $ @ * = % -   . + @ # @ + $ $ $ % @ @ + @ @ ",
"  . + @ # @ + $ $ $ % @ @ + @ @ & # @ @ @ + $ $ + @ @ @ + @ @ @ @ + @ @ $ $ $ $ @ @ + @ @ # $ $ @ @ @ + $ $ $ + & @ $ @ * = % -   . + @ # @ + $ $ $ % @ @ + @ @ & # @ @ @ + $ $ + @ @ @ + @ @ @ @ + @ @ $ $ $ $ @ @ + @ @ # $ $ @ @ @ + $ $ $ + & @ $ @ * = % -   . + @ # @ + $ $ $ % @ @ + @ @ & # @ @ @ + $ $ + @ @ @ + @ @ @ @ + @ @ $ $ $ $ @ @ + @ @ # $ $ @ @ @ + $ $ $ + & @ $ @ * = % -   . + @ # @ + $ $ $ % @ @ + @ @ & # @ @ @ + $ $ + @ @ @ + @ @ @ @ + @ @ $ $ $ $ @ @ + @ @ # $ $ @ @ @ + $ $ $ + & @ $ @ * = % -   . + @ # @ + $ $ $ % @ @ + @ @ & # @ @ @ + $ $ + @ @ @ + @ @ @ @ + @ @ $ $ $ $ @ @ + @ @ # $ $ @ @ @ + $ $ $ + & @ $ @ * = % -   . + @ # @ + $ $ $ % @ @ + @ @ & # @ @ @ + $ $ + @ @ @ + @ @ @ @ + @ @ $ $ $ $ @ @ + @ @ # $ $ @ @ @ + $ $ $ + & @ $ @ * = % -   . + @ # @ + $ $ $ % @ @ + @ @ ",
"  . + @ # @ + $ $ $ % @ @ + @ @ & # @ @ @ + $ $ + @ @ @ + @ @ @ @ + @ @ $ $ $ @ @ @ + @ @ # $ $ @ @ @ + $ $ $ + & @ $ @ * = % -   . + @ # @ + $ $ $ % @ @ + @ @ & # @ @ @ + $ $ + @ @ @ + @ @ @ @ + @ @ $ $ $ @ @ @ + @ @ # $ $ @ @ @ + $ $ $ + & @ $ @ * = % -   . + @ # @ + $ $ $ % @ @ + @ @ & # @ @ @ + $ $ + @ @ @ + @ @ @ @ + @ @ $ $ $ @ @ @ + @ @ # $ $ @ @ @ + $ $ $ + & @ $ @ * = % -   . + @ # @ + $ $ $ % @ @ + @ @ & # @ @ @ + $ $ + @ @ @ + @ @ @ @ + @ @ $ $ $ @ @ @ + @ @ # $ $ @ @ @ + $ $ $ + & @ $ @ * = % -   . + @ # @ + $ $ $ % @ @ + @ @ & # @ @ @ + $ $ + @ @ @ + @ @ @ @ + @ @ $ $ $ @ @ @ + @ @ # $ $ @ @ @ + $ $ $ + & @ $ @ * = % -   . + @ # @ + $ $ $ % @ @ + @ @ & # @ @ @ + $ $ + @ @ @ + @ @ @ @ + @ @ $ $ $ @ @ @ + @ @ # $ $ @ @ @ + $ $ $ + & @ $ @ * = % -   . + @ # @ + $ $ $ % @ @ + @ @ ",
"  . + @ # @ + $ $ $ % @ @ + @ @ & # @ @ @ + $ $ + @ @ @ + @ & @ @ + @ @ $ $ $ @ @ @ + @ @ # $ $ @ @ @ + $ $ $ + & @ $ @ * = % -   . + @ # @ + $ $ $ % @ @ + @ @ & # @ @ @ + $ $ + @ @ @ + @ & @ @ + @ @ $ $ $ @ @ @ + @ @ # $ $ @ @ @ + $ $ $ + & @ $ @ * = % -   . + @ # @ + $ $ $ % @ @ + @ @ & # @ @ @ + $ $ + @ @ @ + @ & @ @ + @ @ $ $ $ @ @ @ + @ @ # $ $ @ @ @ + $ $ $ + & @ $ @ * = % -   . + @ # @ + $ $ $ % @ @ + @ @ & # @ @ @ + $ $ + @ @ @ + @ & @ @ + @ @ $ $ $ @ @ @ + @ @ # $ $ @ @ @ + $ $ $ + & @ $ @ * = % -   . + @ # @ + $ $ $ % @ @ + @ @ & # @ @ @ + $ $ + @ @ @ + @ & @ @ + @ @ $ $ $ @ @ @ + @ @ # $ $ @ @ @ + $ $ $ + & @ $ @ * = % -   . + @ # @ + $ $ $ % @ @ + @ @ & # @ @ @ + $ $ + @ @ @ + @ & @ @ + @ @ $ $ $ @ @ @ + @ @ # $ $ @ @ @ + $ $ $ + & @ $ @ * = % -   . + @ # @ + $ $ $ % @ @ + @ @ ",
"  . + @ # @ + $ $ $ % @ @ + @ @ & # @ @ @ + $ $ + @ @ @ + @ & @ @ + @ @ @ $ $ @ @ @ + @ @ # $ $ @ @ @ + $ $ $ + & @ $ @ * = % -   . + @ # @ + $ $ $ % @ @ + @ @ & # @ @ @ + $ $ + @ @ @ + @ & @ @ + @ @ @ $ $ @ @ @ + @ @ # $ $ @ @ @ + $ $ $ + & @ $ @ * = % -   . + @ # @ + $ $ $ % @ @ + @ @ & # @ @ @ + $ $ + @ @ @ + @ & @ @ + @ @ @ $ $ @ @ @ + @ @ # $ $ @ @ @ + $ $ $ + & @ $ @ * = % -   . + @ # @ + $ $ $ % @ @ + @ @ & # @ @ @ + $ $ + @ @ @ + @ & @ @ + @ @ @ $ $ @ @ @ + @ @ # $ $ @ @ @ + $ $ $ + & @ $ @ * = % -   . + @ # @ + $ $ $ % @ @ + @ @ & # @ @ @ + $ $ + @ @ @ + @ & @ @ + @ @ @ $ $ @ @ @ + @ @ # $ $ @ @ @ + $ $ $ + & @ $ @ * = % -   . + @ # @ + $ $ $ % @ @ + @ @ & # @ @ @ + $ $ + @ @ @ + @ & @ @ + @ @ @ $ $ @ @ @ + @ @ # $ $ @ @ @ + $ $ $ + & @ $ @ * = % -   . + @ # @ + $ $ $ % @ @ + @ @ ",
"  . + @ # @ + $ $ $ % @ @ + @ @ & # @ @ @ + $ $ + @ @ @ + @ & @ @ + @ @ @ $ $ @ @ @ + @ @ # $ $ @ @ @ + $ $ $ + & @ $ @ * = % -   . + @ # @ + $ $ $ % @ @ + @ @ & # @ @ @ + $ $ + @ @ @ + @ & @ @ + @ @ @ $ $ @ @ @ + @ @ # $ $ @ @ @ + $ $ $ + & @ $ @ * = % -   . + @ # @ + $ $ $ % @ @ + @ @ & # @ @ @ + $ $ + @ @ @ + @ & @ @ + @ @ @ $ $ @ @ @ + @ @ # $ $ @ @ @ + $ $ $ + & @ $ @ * = % -   . + @ # @ + $ $ $ % @ @ + @ @ & # @ @ @ + $ $ + @ @ @ + @ & @ @ + @ @ @ $ $ @ @ @ + @ @ # $ $ @ @ @ + $ $ $ + & @ $ @ * = % -   . + @ # @ + $ $ $ % @ @ + @ @ & # @ @ @ + $ $ + @ @ @ + @ & @ @ + @ @ @ $ $ @ @ @ + @ @ # $ $ @ @ @ + $ $ $ + & @ $ @ * = % -   . + @ # @ + $ $ $ % @ @ + @ @ & # @ @ @ + $ $ + @ @ @ + @ & @ @ + @ @ @ $ $ @ @ @ + @ @ # $ $ @ @ @ + $ $ $ + & @ $ @ * = % -   . + @ # @ + $ $ $ % @ @ + @ @ ",
"  . + @ # @ @ + $ $ % @ @ + @ @ & # @ @ @ + $ $ + @ @ @ + @ & @ @ + @ @ @ $ $ @ @ @ + @ @ # $ $ @ @ @ + $ $ $ + & @ $ @ * = % -   . + @ # @ @ + $ $ % @ @ + @ @ & # @ @ @ + $ $ + @ @ @ + @ & @ @ + @ @ @ $ $ @ @ @ + @ @ # $ $ @ @ @ + $ $ $ + & @ $ @ * = % -   . + @ # @ @ + $ $ % @ @ + @ @ & # @ @ @ + $ $ + @ @ @ + @ & @ @ + @ @ @ $ $ @ @ @ + @ @ # $ $ @ @ @ + $ $ $ + & @ $ @ * = % -   . + @ # @ @ + $ $ % @ @ + @ @ & # @ @ @ + $ $ + @ @ @ + @ & @ @ + @ @ @ $ $ @ @ @ + @ @ # $ $ @ @ @ + $ $ $ + & @ $ @ * = % -   . + @ # @ @ + $ $ % @ @ + @ @ & # @ @ @ + $ $ + @ @ @ + @ & @ @ + @ @ @ $ $ @ @ @ + @ @ # $ $ @ @ @ + $ $ $ + & @ $ @ * = % -   . + @ # @ @ + $ $ % @ @ + @ @ & # @ @ @ + $ $ + @ @ @ + @ & @ @ + @ @ @ $ $ @ @ @ + @ @ # $ $ @ @ @ + $ $ $ + & @ $ @ * = % -   . + @ # @ @ + $ $ % @ @ + @ @ ",
"  . + @ # @ @ + $ $ % @ @ + @ @ & # @ @ @ + $ $ + @ @ @ + @ & @ @ + @ @ @ $ $ @ @ @ + @ @ # $ $ @ @ @ + $ $ $ + & @ $ @ * = % -   . + @ # @ @ + $ $ % @ @ + @ @ & # @ @ @ + $ $ + @ @ @ + @ & @ @ + @ @ @ $ $ @ @ @ + @ @ # $ $ @ @ @ + $ $ $ + & @ $ @ * = % -   . + @ # @ @ + $ $ % @ @ + @ @ & # @ @ @ + $ $ + @ @ @ + @ & @ @ + @ @ @ $ $ @ @ @ + @ @ # $ $ @ @ @ + $ $ $ + & @ $ @ * = % -   . + @ # @ @ + $ $ % @ @ + @ @ & # @ @ @ + $ $ + @ @ @ + @ & @ @ + @ @ @ $ $ @ @ @ + @ @ # $ $ @ @ @ + $ $ $ + & @ $ @ * = % -   . + @ # @ @ + $ $ % @ @ + @ @ & # @ @ @ + $ $ + @ @ @ + @ & @ @ + @ @ @ $ $ @ @ @ + @ @ # $ $ @ @ @ + $ $ $ + & @ $ @ * = % -   . + @ # @ @ + $ $ % @ @ + @ @ & # @ @ @ + $ $ + @ @ @ + @ & @ @ + @ @ @ $ $ @ @ @ + @ @ # $ $ @ @ @ + $ $ $ + & @ $ @ * = % -   . + @ # @ @ + $ $ % @ @ + @ @ ",
"  . + @ # @ @ + $ $ % @ @ @ + @ & # @ @ @ + $ $ + @ @ @ + @ & @ @ + @ @ @ $ $ @ @ @ + @ @ # $ $ @ @ @ + $ $ $ + & @ $ @ * = % -   . + @ # @ @ + $ $ % @ @ @ + @ & # @ @ @ + $ $ + @ @ @ + @ & @ @ + @ @ @ $ $ @ @ @ + @ @ # $ $ @ @ @ + $ $ $ + & @ $ @ * = % -   . + @ # @ @ + $ $ % @ @ @ + @ & # @ @ @ + $ $ + @ @ @ + @ & @ @ + @ @ @ $ $ @ @ @ + @ @ # $ $ @ @ @ + $ $ $ + & @ $ @ * = % -   . + @ # @ @ + $ $ % @ @ @ + @ & # @ @ @ + $ $ + @ @ @ + @ & @ @ + @ @ @ $ $ @ @ @ + @ @ # $ $ @ @ @ + $ $ $ + & @ $ @ * = % -   . + @ # @ @ + $ $ % @ @ @ + @ & # @ @ @ + $ $ + @ @ @ + @ & @ @ + @ @ @ $ $ @ @ @ + @ @ # $ $ @ @ @ + $ $ $ + & @ $ @ * = % -   . + @ # @ @ + $ $ % @ @ @ + @ & # @ @ @ + $ $ + @ @ @ + @ & @ @ + @ @ @ $ $ @ @ @ + @ @ # $ $ @ @ @ + $ $ $ + & @ $ @ * = % -   . + @ # @ @ + $ $ % @ @ @ + @ ",
"  . + @ # @ @ + $ $ % @ @ @ + @ & # @ @ @ @ + $ $ + @ @ + @ & @ @ + @ @ @ $ $ @ @ @ + @ @ # $ $ @ @ @ + $ $ $ + & @ $ @ * = % -   . + @ # @ @ + $ $ % @ @ @ + @ & # @ @ @ @ + $ $ + @ @ + @ & @ @ + @ @ @ $ $ @ @ @ + @ @ # $ $ @ @ @ + $ $ $ + & @ $ @ * = % -   . + @ # @ @ + $ $ % @ @ @ + @ & # @ @ @ @ + $ $ + @ @ + @ & @ @ + @ @ @ $ $ @ @ @ + @ @ # $ $ @ @ @ + $ $ $ + & @ $ @ * = % -   . + @ # @ @ + $ $ % @ @ @ + @ & # @ @ @ @ + $ $ + @ @ + @ & @ @ + @ @ @ $ $ @ @ @ + @ @ # $ $ @ @ @ + $ $ $ + & @ $ @ * = % -   . + @ # @ @ + $ $ % @ @ @ + @ & # @ @ @ @ + $ $ + @ @ + @ & @ @ + @ @ @ $ $ @ @ @ + @ @ # $ $ @ @ @ + $ $ $ + & @ $ @ * = % -   . + @ # @ @ + $ $ % @ @ @ + @ & # @ @ @ @ + $ $ + @ @ + @ & @ @ + @ @ @ $ $ @ @ @ + @ @ # $ $ @ @ @ + $ $ $ + & @ $ @ * = % -   . + @ # @ @ + $ $ % @ @ @ + @ ",
"  . + @ # @ @ + $ $ % @ @ @ + @ & # @ @ @ @ + $ $ + @ @ + @ & @ @ + @ @ @ $ $ @ @ @ + @ @ # $ $ @ @ @ + $ $ $ + & @ $ @ * = % -   . + @ # @ @ + $ $ % @ @ @ + @ & # @ @ @ @ + $ $ + @ @ + @ & @ @ + @ @ @ $ $ @ @ @ + @ @ # $ $ @ @ @ + $ $ $ + & @ $ @ * = % -   . + @ # @ @ + $ $ % @ @ @ + @ & # @ @ @ @ + $ $ + @ @ + @ & @ @ + @ @ @ $ $ @ @ @ + @ @ # $ $ @ @ @ + $ $ $ + & @ $ @ * = % -   . + @ # @ @ + $ $ % @ @ @ + @ & # @ @ @ @ + $ $ + @ @ + @ & @ @ + @ @ @ $ $ @ @ @ + @ @ # $ $ @ @ @ + $ $ $ + & @ $ @ * = % -   . + @ # @ @ + $ $ % @ @ @ + @ & # @ @ @ @ + $ $ + @ @ + @ & @ @ + @ @ @ $ $ @ @ @ + @ @ # $ $ @ @ @ + $ $ $ + & @ $ @ * = % -   . + @ # @ @ + $ $ % @ @ @ + @ & # @ @ @ @ + $ $ + @ @ + @ & @ @ + @ @ @ $ $ @ @ @ + @ @ # $ $ @ @ @ + $ $ $ + & @ $ @ * = % -   . + @ # @ @ + $ $ % @ @ @ + @ ",
"  . + @ # @ @ + $ $ % @ @ @ + @ & # @ @ @ @ + $ $ + @ @ + @ & @ @ + @ @ @ $ $ @ @ @ + @ @ # $ $ @ @ @ + $ $ $ + & @ $ @ * = % -   . + @ # @ @ + $ $ % @ @ @ + @ & # @ @ @ @ + $ $ + @ @ + @ & @ @ + @ @ @ $ $ @ @ @ + @ @ # $ $ @ @ @ + $ $ $ + & @ $ @ * = % -   . + @ # @ @ + $ $ % @ @ @ + @ & # @ @ @ @ + $ $ + @ @ + @ & @ @ + @ @ @ $ $ @ @ @ + @ @ # $ $ @ @ @ + $ $ $ + & @ $ @ * = % -   . + @ # @ @ + $ $ % @ @ @ + @ & # @ @ @ @ + $ $ + @ @ + @ & @ @ + @ @ @ $ $ @ @ @ + @ @ # $ $ @ @ @ + $ $ $ + & @ $ @ * = % -   . + @ # @ @ + $ $ % @ @ @ + @ & # @ @ @ @ + $ $ + @ @ + @ & @ @ + @ @ @ $ $ @ @ @ + @ @ # $ $ @ @ @ + $ $ $ + & @ $ @ * = % -   . + @ # @ @ + $ $ % @ @ @ + @ & # @ @ @ @ + $ $ + @ @ + @ & @ @ + @ @ @ $ $ @ @ @ + @ @ # $ $ @ @ @ + $ $ $ + & @ $ @ * = % -   . + @ # @ @ + $ $ % @ @ @ + @ ",
"  . + @ # @ @ + $ $ % @ @ @ + @ & # @ @ @ @ + $ $ + @ @ + @ & @ @ + @ @ @ $ $ @ @ @ + @ @ # $ $ @ @ @ + $ $ $ + & @ $ @ * = % -   . + @ # @ @ + $ $ % @ @ @ + @ & # @ @ @ @ + $ $ + @ @ + @ & @ @ + @ @ @ $ $ @ @ @ + @ @ # $ $ @ @ @ + $ $ $ + & @ $ @ * = % -   . + @ # @ @ + $ $ % @ @ @ + @ & # @ @ @ @ + $ $ + @ @ + @ & @ @ + @ @ @ $ $ @ @ @ + @ @ # $ $ @ @ @ + $ $ $ + & @ $ @ * = % -   . + @ # @ @ + $ $ % @ @ @ + @ & # @ @ @ @ + $ $ + @ @ + @ & @ @ + @ @ @ $ $ @ @ @ + @ @ # $ $ @ @ @ + $ $ $ + & @ $ @ * = % -   . + @ # @ @ + $ $ % @ @ @ + @ & # @ @ @ @ + $ $ + @ @ + @ & @ @ + @ @ @ $ $ @ @ @ + @ @ # $ $ @ @ @ + $ $ $ + & @ $ @ * = % -   . + @ # @ @ + $ $ % @ @ @ + @ & # @ @ @ @ + $ $ + @ @ + @ & @ @ + @ @ @ $ $ @ @ @ + @ @ # $ $ @ @ @ + $ $ $ + & @ $ @ * = % -   . + @ # @ @ + $ $ % @ @ @ + @ ",
"  . + @ # @ @ + $ $ % @ @ @ + @ & # @ @ @ @ + $ $ + @ @ + @ & @ @ + @ @ @ $ $ @ @ @ + @ @ # $ $ @ @ @ + $ $ $ + & @ $ @ * = % -   . + @ # @ @ + $ $ % @ @ @ + @ & # @ @ @ @ + $ $ + @ @ + @ & @ @ + @ @ @ $ $ @ @ @ + @ @ # $ $ @ @ @ + $ $ $ + & @ $ @ * = % -   . + @ # @ @ + $ $ % @ @ @ + @ & # @ @ @ @ + $ $ + @ @ + @ & @ @ + @ @ @ $ $ @ @ @ + @ @ # $ $ @ @ @ + $ $ $ + & @ $ @ * = % -   . + @ # @ @ + $ $ % @ @ @ + @ & # @ @ @ @ + $ $ + @ @ + @ & @ @ + @ @ @ $ $ @ @ @ + @ @ # $ $ @ @ @ + $ $ $ + & @ $ @ * = % -   . + @ # @ @ + $ $ % @ @ @ + @ & # @ @ @ @ + $ $ + @ @ + @ & @ @ + @ @ @ $ $ @ @ @ + @ @ # $ $ @ @ @ + $ $ $ + & @ $ @ * = % -   . + @ # @ @ + $ $ % @ @ @ + @ & # @ @ @ @ + $ $ + @ @ + @ & @ @ + @ @ @ $ $ @ @ @ + @ @ # $ $ @ @ @ + $ $ $ + & @ $ @ * = % -   . + @ # @ @ + $ $ % @ @ @ + @ ",
"  . + @ # @ @ + $ $ % @ @ @ + @ & # @ @ @ @ + $ $ + @ @ + @ & @ @ @ + @ @ $ $ @ @ @ + @ @ # $ $ @ @ @ + $ $ $ + & @ $ @ * = % -   . + @ # @ @ + $ $ % @ @ @ + @ & # @ @ @ @ + $ $ + @ @ + @ & @ @ @ + @ @ $ $ @ @ @ + @ @ # $ $ @ @ @ + $ $ $ + & @ $ @ * = % -   . + @ # @ @ + $ $ % @ @ @ + @ & # @ @ @ @ + $ $ + @ @ + @ & @ @ @ + @ @ $ $ @ @ @ + @ @ # $ $ @ @ @ + $ $ $ + & @ $ @ * = % -   . + @ # @ @ + $ $ % @ @ @ + @ & # @ @ @ @ + $ $ + @ @ + @ & @ @ @ + @ @ $ $ @ @ @ + @ @ # $ $ @ @ @ + $ $ $ + & @ $ @ * = % -   . + @ # @ @ + $ $ % @ @ @ + @ & # @ @ @ @ + $ $ + @ @ + @ & @ @ @ + @ @ $ $ @ @ @ + @ @ # $ $ @ @ @ + $ $ $ + & @ $ @ * = % -   . + @ # @ @ + $ $ % @ @ @ + @ & # @ @ @ @ + $ $ + @ @ + @ & @ @ @ + @ @ $ $ @ @ @ + @ @ # $ $ @ @ @ + $ $ $ + & @ $ @ * = % -   . + @ # @ @ + $ $ % @ @ @ + @ ",
"  . + @ # @ @ + $ $ % @ @ @ + @ & # @ @ @ @ + $ $ + @ @ + @ & @ @ @ + @ @ $ $ @ @ @ + @ @ # $ $ @ @ @ + $ $ $ + & @ $ @ * = % -   . + @ # @ @ + $ $ % @ @ @ + @ & # @ @ @ @ + $ $ + @ @ + @ & @ @ @ + @ @ $ $ @ @ @ + @ @ # $ $ @ @ @ + $ $ $ + & @ $ @ * = % -   . + @ # @ @ + $ $ % @ @ @ + @ & # @ @ @ @ + $ $ + @ @ + @ & @ @ @ + @ @ $ $ @ @ @ + @ @ # $ $ @ @ @ + $ $ $ + & @ $ @ * = % -   . + @ # @ @ + $ $ % @ @ @ + @ & # @ @ @ @ + $ $ + @ @ + @ & @ @ @ + @ @ $ $ @ @ @ + @ @ # $ $ @ @ @ + $ $ $ + & @ $ @ * = % -   . + @ # @ @ + $ $ % @ @ @ + @ & # @ @ @ @ + $ $ + @ @ + @ & @ @ @ + @ @ $ $ @ @ @ + @ @ # $ $ @ @ @ + $ $ $ + & @ $ @ * = % -   . + @ # @ @ + $ $ % @ @ @ + @ & # @ @ @ @ + $ $ + @ @ + @ & @ @ @ + @ @ $ $ @ @ @ + @ @ # $ $ @ @ @ + $ $ $ + & @ $ @ * = % -   . + @ # @ @ + $ $ % @ @ @ + @ ",
"  . + @ # @ @ + $ $ % @ @ @ + @ & # @ @ @ @ + $ $ + @ @ + @ & @ @ @ + @ @ $ $ @ @ @ + @ @ # $ $ @ @ @ + $ $ $ + & @ $ @ * = % -   . + @ # @ @ + $ $ % @ @ @ + @ & # @ @ @ @ + $ $ + @ @ + @ & @ @ @ + @ @ $ $ @ @ @ + @ @ # $ $ @ @ @ + $ $ $ + & @ $ @ * = % -   . + @ # @ @ + $ $ % @ @ @ + @ & # @ @ @ @ + $ $ + @ @ + @ & @ @ @ + @ @ $ $ @ @ @ + @ @ # $ $ @ @ @ + $ $ $ + & @ $ @ * = % -   . + @ # @ @ + $ $ % @ @ @ + @ & # @ @ @ @ + $ $ + @ @ + @ & @ @ @ + @ @ $ $ @ @ @ + @ @ # $ $ @ @ @ + $ $ $ + & @ $ @ * = % -   . + @ # @ @ + $ $ % @ @ @ + @ & # @ @ @ @ + $ $ + @ @ + @ & @ @ @ + @ @ $ $ @ @ @ + @ @ # $ $ @ @ @ + $ $ $ + & @ $ @ * = % -   . + @ # @ @ + $ $ % @ @ @ + @ & # @ @ @ @ + $ $ + @ @ + @ & @ @ @ + @ @ $ $ @ @ @ + @ @ # $ $ @ @ @ + $ $ $ + & @ $ @ * = % -   . + @ # @ @ + $ $ % @ @ @ + @ ",
"  . + @ # @ @ + $ $ % @ @ @ + @ & # @ @ @ @ + $ $ + @ @ + @ & @ @ @ + @ @ $ $ @ @ @ + @ @ # $ $ @ @ @ + $ $ $ + & @ $ @ * = % -   . + @ # @ @ + $ $ % @ @ @ + @ & # @ @ @ @ + $ $ + @ @ + @ & @ @ @ + @ @ $ $ @ @ @ + @ @ # $ $ @ @ @ + $ $ $ + & @ $ @ * = % -   . + @ # @ @ + $ $ % @ @ @ + @ & # @ @ @ @ + $ $ + @ @ + @ & @ @ @ + @ @ $ $ @ @ @ + @ @ # $ $ @ @ @ + $ $ $ + & @ $ @ * = % -   . + @ # @ @ + $ $ % @ @ @ + @ & # @ @ @ @ + $ $ + @ @ + @ & @ @ @ + @ @ $ $ @ @ @ + @ @ # $ $ @ @ @ + $ $ $ + & @ $ @ * = % -   . + @ # @ @ + $ $ % @ @ @ + @ & # @ @ @ @ + $ $ + @ @ + @ & @ @ @ + @ @ $ $ @ @ @ + @ @ # $ $ @ @ @ + $ $ $ + & @ $ @ * = % -   . + @ # @ @ + $ $ % @ @ @ + @ & # @ @ @ @ + $ $ + @ @ + @ & @ @ @ + @ @ $ $ @ @ @ + @ @ # $ $ @ @ @ + $ $ $ + & @ $ @ * = % -   . + @ # @ @ + $ $ % @ @ @ + @ ",
"  . + @ # @ @ + $ $ % @ @ @ + @ & # @ @ @ @ + $ + @ @ @ + @ @ @ @ @ + @ @ $ & @ @ + @ @ @ # $ $ @ @ @ + $ $ $ + & @ $ @ * = % -   . + @ # @ @ + $ $ % @ @ @ + @ & # @ @ @ @ + $ + @ @ @ + @ @ @ @ @ + @ @ $ & @ @ + @ @ @ # $ $ @ @ @ + $ $ $ + & @ $ @ * = % -   . + @ # @ @ + $ $ % @ @ @ + @ & # @ @ @ @ + $ + @ @ @ + @ @ @ @ @ + @ @ $ & @ @ + @ @ @ # $ $ @ @ @ + $ $ $ + & @ $ @ * = % -   . + @ # @ @ + $ $ % @ @ @ + @ & # @ @ @ @ + $ + @ @ @ + @ @ @ @ @ + @ @ $ & @ @ + @ @ @ # $ $ @ @ @ + $ $ $ + & @ $ @ * = % -   . + @ # @ @ + $ $ % @ @ @ + @ & # @ @ @ @ + $ + @ @ @ + @ @ @ @ @ + @ @ $ & @ @ + @ @ @ # $ $ @ @ @ + $ $ $ + & @ $ @ * = % -   . + @ # @ @ + $ $ % @ @ @ + @ & # @ @ @ @ + $ + @ @ @ + @ @ @ @ @ + @ @ $ & @ @ + @ @ @ # $ $ @ @ @ + $ $ $ + & @ $ @ * = % -   . + @ # @ @ + $ $ % @ @ @ + @ ",
"  . + @ # @ @ + $ $ % @ @ @ + @ & # @ @ @ + $ $ + @ @ @ + @ @ @ @ @ + @ @ $ & @ @ @ + @ @ # $ $ & @ @ + $ $ $ + & @ $ @ * = % -   . + @ # @ @ + $ $ % @ @ @ + @ & # @ @ @ + $ $ + @ @ @ + @ @ @ @ @ + @ @ $ & @ @ @ + @ @ # $ $ & @ @ + $ $ $ + & @ $ @ * = % -   . + @ # @ @ + $ $ % @ @ @ + @ & # @ @ @ + $ $ + @ @ @ + @ @ @ @ @ + @ @ $ & @ @ @ + @ @ # $ $ & @ @ + $ $ $ + & @ $ @ * = % -   . + @ # @ @ + $ $ % @ @ @ + @ & # @ @ @ + $ $ + @ @ @ + @ @ @ @ @ + @ @ $ & @ @ @ + @ @ # $ $ & @ @ + $ $ $ + & @ $ @ * = % -   . + @ # @ @ + $ $ % @ @ @ + @ & # @ @ @ + $ $ + @ @ @ + @ @ @ @ @ + @ @ $ & @ @ @ + @ @ # $ $ & @ @ + $ $ $ + & @ $ @ * = % -   . + @ # @ @ + $ $ % @ @ @ + @ & # @ @ @ + $ $ + @ @ @ + @ @ @ @ @ + @ @ $ & @ @ @ + @ @ # $ $ & @ @ + $ $ $ + & @ $ @ * = % -   . + @ # @ @ + $ $ % @ @ @ + @ ",
"  . + @ # @ @ + $ $ % @ @ @ + @ & # @ @ @ + $ $ + @ @ @ + @ @ @ @ @ + @ @ $ $ @ @ @ + @ @ # $ $ & @ @ + $ $ $ + & @ $ @ * = % -   . + @ # @ @ + $ $ % @ @ @ + @ & # @ @ @ + $ $ + @ @ @ + @ @ @ @ @ + @ @ $ $ @ @ @ + @ @ # $ $ & @ @ + $ $ $ + & @ $ @ * = % -   . + @ # @ @ + $ $ % @ @ @ + @ & # @ @ @ + $ $ + @ @ @ + @ @ @ @ @ + @ @ $ $ @ @ @ + @ @ # $ $ & @ @ + $ $ $ + & @ $ @ * = % -   . + @ # @ @ + $ $ % @ @ @ + @ & # @ @ @ + $ $ + @ @ @ + @ @ @ @ @ + @ @ $ $ @ @ @ + @ @ # $ $ & @ @ + $ $ $ + & @ $ @ * = % -   . + @ # @ @ + $ $ % @ @ @ + @ & # @ @ @ + $ $ + @ @ @ + @ @ @ @ @ + @ @ $ $ @ @ @ + @ @ # $ $ & @ @ + $ $ $ + & @ $ @ * = % -   . + @ # @ @ + $ $ % @ @ @ + @ & # @ @ @ + $ $ + @ @ @ + @ @ @ @ @ + @ @ $ $ @ @ @ + @ @ # $ $ & @ @ + $ $ $ + & @ $ @ * = % -   . + @ # @ @ + $ $ % @ @ @ + @ ",
"  . + @ # @ @ + $ $ % @ @ @ + @ & # @ @ @ + $ $ + @ @ @ + @ @ @ @ + @ @ @ @ $ $ @ @ + @ @ # $ $ & @ @ + $ $ $ + & @ $ @ * = % -   . + @ # @ @ + $ $ % @ @ @ + @ & # @ @ @ + $ $ + @ @ @ + @ @ @ @ + @ @ @ @ $ $ @ @ + @ @ # $ $ & @ @ + $ $ $ + & @ $ @ * = % -   . + @ # @ @ + $ $ % @ @ @ + @ & # @ @ @ + $ $ + @ @ @ + @ @ @ @ + @ @ @ @ $ $ @ @ + @ @ # $ $ & @ @ + $ $ $ + & @ $ @ * = % -   . + @ # @ @ + $ $ % @ @ @ + @ & # @ @ @ + $ $ + @ @ @ + @ @ @ @ + @ @ @ @ $ $ @ @ + @ @ # $ $ & @ @ + $ $ $ + & @ $ @ * = % -   . + @ # @ @ + $ $ % @ @ @ + @ & # @ @ @ + $ $ + @ @ @ + @ @ @ @ + @ @ @ @ $ $ @ @ + @ @ # $ $ & @ @ + $ $ $ + & @ $ @ * = % -   . + @ # @ @ + $ $ % @ @ @ + @ & # @ @ @ + $ $ + @ @ @ + @ @ @ @ + @ @ @ @ $ $ @ @ + @ @ # $ $ & @ @ + $ $ $ + & @ $ @ * = % -   . + @ # @ @ + $ $ % @ @ @ + @ ",
"  . + @ # @ @ + $ $ % @ @ + @ @ & # @ @ @ + $ $ + @ @ @ + @ @ @ + @ @ + @ @ $ $ @ @ + @ @ # $ $ & @ @ + $ $ $ + & @ $ @ * = % -   . + @ # @ @ + $ $ % @ @ + @ @ & # @ @ @ + $ $ + @ @ @ + @ @ @ + @ @ + @ @ $ $ @ @ + @ @ # $ $ & @ @ + $ $ $ + & @ $ @ * = % -   . + @ # @ @ + $ $ % @ @ + @ @ & # @ @ @ + $ $ + @ @ @ + @ @ @ + @ @ + @ @ $ $ @ @ + @ @ # $ $ & @ @ + $ $ $ + & @ $ @ * = % -   . + @ # @ @ + $ $ % @ @ + @ @ & # @ @ @ + $ $ + @ @ @ + @ @ @ + @ @ + @ @ $ $ @ @ + @ @ # $ $ & @ @ + $ $ $ + & @ $ @ * = % -   . + @ # @ @ + $ $ % @ @ + @ @ & # @ @ @ + $ $ + @ @ @ + @ @ @ + @ @ + @ @ $ $ @ @ + @ @ # $ $ & @ @ + $ $ $ + & @ $ @ * = % -   . + @ # @ @ + $ $ % @ @ + @ @ & # @ @ @ + $ $ + @ @ @ + @ @ @ + @ @ + @ @ $ $ @ @ + @ @ # $ $ & @ @ + $ $ $ + & @ $ @ * = % -   . + @ # @ @ + $ $ % @ @ + @ @ ",
"  . + @ # @ @ + $ $ % @ @ + @ @ & # @ @ @ + $ $ + @ @ @ + @ @ @ + @ @ + + @ $ $ @ @ + @ @ # $ $ & @ @ + $ $ $ + & @ $ @ * = % -   . + @ # @ @ + $ $ % @ @ + @ @ & # @ @ @ + $ $ + @ @ @ + @ @ @ + @ @ + + @ $ $ @ @ + @ @ # $ $ & @ @ + $ $ $ + & @ $ @ * = % -   . + @ # @ @ + $ $ % @ @ + @ @ & # @ @ @ + $ $ + @ @ @ + @ @ @ + @ @ + + @ $ $ @ @ + @ @ # $ $ & @ @ + $ $ $ + & @ $ @ * = % -   . + @ # @ @ + $ $ % @ @ + @ @ & # @ @ @ + $ $ + @ @ @ + @ @ @ + @ @ + + @ $ $ @ @ + @ @ # $ $ & @ @ + $ $ $ + & @ $ @ * = % -   . + @ # @ @ + $ $ % @ @ + @ @ & # @ @ @ + $ $ + @ @ @ + @ @ @ + @ @ + + @ $ $ @ @ + @ @ # $ $ & @ @ + $ $ $ + & @ $ @ * = % -   . + @ # @ @ + $ $ % @ @ + @ @ & # @ @ @ + $ $ + @ @ @ + @ @ @ + @ @ + + @ $ $ @ @ + @ @ # $ $ & @ @ + $ $ $ + & @ $ @ * = % -   . + @ # @ @ + $ $ % @ @ + @ @ ",
"  . + @ # @ @ + $ $ % @ @ + @ @ & # @ @ @ + $ $ + @ @ @ + @ @ @ + @ @ + + @ $ $ @ @ + @ @ # $ $ & @ @ + $ $ $ + & @ $ @ * = % -   . + @ # @ @ + $ $ % @ @ + @ @ & # @ @ @ + $ $ + @ @ @ + @ @ @ + @ @ + + @ $ $ @ @ + @ @ # $ $ & @ @ + $ $ $ + & @ $ @ * = % -   . + @ # @ @ + $ $ % @ @ + @ @ & # @ @ @ + $ $ + @ @ @ + @ @ @ + @ @ + + @ $ $ @ @ + @ @ # $ $ & @ @ + $ $ $ + & @ $ @ * = % -   . + @ # @ @ + $ $ % @ @ + @ @ & # @ @ @ + $ $ + @ @ @ + @ @ @ + @ @ + + @ $ $ @ @ + @ @ # $ $ & @ @ + $ $ $ + & @ $ @ * = % -   . + @ # @ @ + $ $ % @ @ + @ @ & # @ @ @ + $ $ + @ @ @ + @ @ @ + @ @ + + @ $ $ @ @ + @ @ # $ $ & @ @ + $ $ $ + & @ $ @ * = % -   . + @ # @ @ + $ $ % @ @ + @ @ & # @ @ @ + $ $ + @ @ @ + @ @ @ + @ @ + + @ $ $ @ @ + @ @ # $ $ & @ @ + $ $ $ + & @ $ @ * = % -   . + @ # @ @ + $ $ % @ @ + @ @ ",
"  . + @ # @ @ + $ $ % @ @ + @ @ & # @ @ @ @ + $ + @ @ @ + @ @ + @ @ + @ + @ $ $ @ @ + @ @ # $ $ & @ @ + $ $ $ + & @ $ @ * = % -   . + @ # @ @ + $ $ % @ @ + @ @ & # @ @ @ @ + $ + @ @ @ + @ @ + @ @ + @ + @ $ $ @ @ + @ @ # $ $ & @ @ + $ $ $ + & @ $ @ * = % -   . + @ # @ @ + $ $ % @ @ + @ @ & # @ @ @ @ + $ + @ @ @ + @ @ + @ @ + @ + @ $ $ @ @ + @ @ # $ $ & @ @ + $ $ $ + & @ $ @ * = % -   . + @ # @ @ + $ $ % @ @ + @ @ & # @ @ @ @ + $ + @ @ @ + @ @ + @ @ + @ + @ $ $ @ @ + @ @ # $ $ & @ @ + $ $ $ + & @ $ @ * = % -   . + @ # @ @ + $ $ % @ @ + @ @ & # @ @ @ @ + $ + @ @ @ + @ @ + @ @ + @ + @ $ $ @ @ + @ @ # $ $ & @ @ + $ $ $ + & @ $ @ * = % -   . + @ # @ @ + $ $ % @ @ + @ @ & # @ @ @ @ + $ + @ @ @ + @ @ + @ @ + @ + @ $ $ @ @ + @ @ # $ $ & @ @ + $ $ $ + & @ $ @ * = % -   . + @ # @ @ + $ $ % @ @ + @ @ "};
