/* XPM */
static char * west_xpm[] = {
"400 400 234 2",
"  	c #E0E0E0",
". 	c #D8D8D8",
"+ 	c #DBDBDB",
"@ 	c #D3D3D3",
"# 	c #D0D0D0",
"$ 	c #CBCBCB",
"% 	c #BFBFBF",
"& 	c #A2A2A2",
"* 	c #B1B1B1",
"= 	c #BABABA",
"- 	c #C2C2C2",
"; 	c #C8C8C8",
"> 	c #E1E1E1",
", 	c #E3E3E3",
"' 	c #E9E9E9",
") 	c #F1F1F1",
"! 	c #ECECEC",
"~ 	c #EEEEEE",
"{ 	c #E4E4E4",
"] 	c #E6E6E6",
"^ 	c #C0C0C0",
"/ 	c #B7B7B7",
"( 	c #AFAFAF",
"_ 	c #999999",
": 	c #8C8C8C",
"< 	c #D9D9D9",
"[ 	c #DADADA",
"} 	c #C6C6C6",
"| 	c #C9C9C9",
"1 	c #CACACA",
"2 	c #D2D2D2",
"3 	c #D6D6D6",
"4 	c #B9B9B9",
"5 	c #BDBDBD",
"6 	c #EBEBEB",
"7 	c #F3F3F3",
"8 	c #E8E8E8",
"9 	c #D1D1D1",
"0 	c #C3C3C3",
"a 	c #B2B2B2",
"b 	c #909090",
"c 	c #BCBCBC",
"d 	c #C7C7C7",
"e 	c #AAAAAA",
"f 	c #B4B4B4",
"g 	c #B8B8B8",
"h 	c #CCCCCC",
"i 	c #F0F0F0",
"j 	c #A1A1A1",
"k 	c #C5C5C5",
"l 	c #B5B5B5",
"m 	c #CECECE",
"n 	c #C1C1C1",
"o 	c #E7E7E7",
"p 	c #949494",
"q 	c #A5A5A5",
"r 	c #C4C4C4",
"s 	c #A4A4A4",
"t 	c #9C9C9C",
"u 	c #919191",
"v 	c #DEDEDE",
"w 	c #8B8B8B",
"x 	c #7B7B7B",
"y 	c #ADADAD",
"z 	c #A9A9A9",
"A 	c #E5E5E5",
"B 	c #DCDCDC",
"C 	c #D4D4D4",
"D 	c #808080",
"E 	c #818181",
"F 	c #ACACAC",
"G 	c #848484",
"H 	c #969696",
"I 	c #B0B0B0",
"J 	c #CDCDCD",
"K 	c #9A9A9A",
"L 	c #989898",
"M 	c #D7D7D7",
"N 	c #BBBBBB",
"O 	c #9B9B9B",
"P 	c #CFCFCF",
"Q 	c #F9F9F9",
"R 	c #EFEFEF",
"S 	c #B3B3B3",
"T 	c #939393",
"U 	c #D5D5D5",
"V 	c #A7A7A7",
"W 	c #A8A8A8",
"X 	c #A3A3A3",
"Y 	c #737373",
"Z 	c #979797",
"` 	c #9E9E9E",
" .	c #898989",
"..	c #595959",
"+.	c #5F5F5F",
"@.	c #7A7A7A",
"#.	c #9F9F9F",
"$.	c #787878",
"%.	c #8A8A8A",
"&.	c #868686",
"*.	c #E2E2E2",
"=.	c #ABABAB",
"-.	c #838383",
";.	c #EDEDED",
">.	c #7D7D7D",
",.	c #B6B6B6",
"'.	c #929292",
").	c #F4F4F4",
"!.	c #F2F2F2",
"~.	c #DDDDDD",
"{.	c #575757",
"].	c #000000",
"^.	c #676767",
"/.	c #646464",
"(.	c #7F7F7F",
"_.	c #6F6F6F",
":.	c #555555",
"<.	c #151515",
"[.	c #212121",
"}.	c #434343",
"|.	c #686868",
"1.	c #313131",
"2.	c #222222",
"3.	c #535353",
"4.	c #4F4F4F",
"5.	c #6A6A6A",
"6.	c #797979",
"7.	c #252525",
"8.	c #373737",
"9.	c #464646",
"0.	c #717171",
"a.	c #545454",
"b.	c #3D3D3D",
"c.	c #323232",
"d.	c #525252",
"e.	c #444444",
"f.	c #767676",
"g.	c #828282",
"h.	c #3B3B3B",
"i.	c #4A4A4A",
"j.	c #8E8E8E",
"k.	c #4D4D4D",
"l.	c #727272",
"m.	c #484848",
"n.	c #494949",
"o.	c #7C7C7C",
"p.	c #5C5C5C",
"q.	c #3F3F3F",
"r.	c #3C3C3C",
"s.	c #1F1F1F",
"t.	c #030303",
"u.	c #6C6C6C",
"v.	c #5A5A5A",
"w.	c #4E4E4E",
"x.	c #0A0A0A",
"y.	c #515151",
"z.	c #707070",
"A.	c #A6A6A6",
"B.	c #262626",
"C.	c #626262",
"D.	c #0B0B0B",
"E.	c #282828",
"F.	c #101010",
"G.	c #585858",
"H.	c #696969",
"I.	c #BEBEBE",
"J.	c #353535",
"K.	c #414141",
"L.	c #959595",
"M.	c #404040",
"N.	c #565656",
"O.	c #292929",
"P.	c #9D9D9D",
"Q.	c #2E2E2E",
"R.	c #6E6E6E",
"S.	c #6D6D6D",
"T.	c #393939",
"U.	c #1D1D1D",
"V.	c #858585",
"W.	c #040404",
"X.	c #8D8D8D",
"Y.	c #2F2F2F",
"Z.	c #4C4C4C",
"`.	c #303030",
" +	c #888888",
".+	c #0E0E0E",
"++	c #7E7E7E",
"@+	c #636363",
"#+	c #191919",
"$+	c #1A1A1A",
"%+	c #656565",
"&+	c #757575",
"*+	c #AEAEAE",
"=+	c #383838",
"-+	c #1C1C1C",
";+	c #606060",
">+	c #070707",
",+	c #5B5B5B",
"'+	c #111111",
")+	c #6B6B6B",
"!+	c #363636",
"~+	c #5D5D5D",
"{+	c #878787",
"]+	c #232323",
"^+	c #3E3E3E",
"/+	c #1E1E1E",
"(+	c #121212",
"_+	c #505050",
":+	c #343434",
"<+	c #060606",
"[+	c #141414",
"}+	c #0D0D0D",
"|+	c #454545",
"1+	c #161616",
"2+	c #616161",
"3+	c #2A2A2A",
"4+	c #080808",
"5+	c #1B1B1B",
"6+	c #DFDFDF",
"7+	c #2C2C2C",
"8+	c #8F8F8F",
"9+	c #050505",
"0+	c #333333",
"a+	c #666666",
"b+	c #272727",
"c+	c #2B2B2B",
"d+	c #131313",
"e+	c #171717",
"f+	c #A0A0A0",
"g+	c #777777",
"h+	c #4B4B4B",
"i+	c #474747",
"j+	c #747474",
"k+	c #090909",
"  . + @ # $ % & * * = - ; @ . >   > , ' > ' ) ' ' ' ) ! ) ' ) ' ) ! ) ! ~ ' ' ' ) ! ) ' ' ' +     { ] ' ' { > >   @ # ^ / ( _ : < [ < @ [ } | } - 1 ; $ $ 1 # @ $ 1 - $ $ 2 . [ + + { ' ' ! { ! { { + [ [ . 1 + + + . + . $ 1 $ 2 2 @ @ [ + . [ . 3 . + + + . :   . + @ # $ % & * * = - ; @ . >   > , ' > ' ) ' ' ' ) ! ) ' ) ' ) ! ) ! ~ ' ' ' ) ! ) ' ' ' +     { ] ' ' { > >   @ # ^ / ( _ : < [ < @ [ } | } - 1 ; $ $ 1 # @ $ 1 - $ $ 2 . [ + + { ' ' ! { ! { { + [ [ . 1 + + + . + . $ 1 $ 2 2 @ @ [ + . [ . 3 . + + + . :   . + @ # $ % & * * = - ; @ . >   > , ' > ' ) ' ' ' ) ! ) ' ) ' ) ! ) ! ~ ' ' ' ) ! ) ' ' ' +     { ] ' ' { > >   @ # ^ / ( _ : < [ < @ [ } | } - 1 ; $ $ 1 # @ $ 1 - $ $ 2 . [ + + { ' ' ! { ! { { + [ [ . 1 + + + . + . $ 1 $ 2 2 @ @ [ + . [ . 3 . + + + . :   . + @ # $ % & * * = - ; @ . > ",
"< @ . @ . ; * 4 5 - ; 2 @ @ + +   + { > , ' ! 6 ' ' ! 6 6 ' 6 7 ! ! 8 { ' { ! 6 ' ' + ' { [ + 2 [ { { { ' , 6   > + 9 $ 0 a b : @ 2 . @ # @ - c - - 5 d 1 0 1 $ $ 0 @ 2 . @ 3 + [ + { { 6 { ' , + 2 @   + + [ @ [ @ @ @ @ $ 5 0 $ 0 2 2 @ $ $ @ @ . 2 [ + [ [ : < @ . @ . ; * 4 5 - ; 2 @ @ + +   + { > , ' ! 6 ' ' ! 6 6 ' 6 7 ! ! 8 { ' { ! 6 ' ' + ' { [ + 2 [ { { { ' , 6   > + 9 $ 0 a b : @ 2 . @ # @ - c - - 5 d 1 0 1 $ $ 0 @ 2 . @ 3 + [ + { { 6 { ' , + 2 @   + + [ @ [ @ @ @ @ $ 5 0 $ 0 2 2 @ $ $ @ @ . 2 [ + [ [ : < @ . @ . ; * 4 5 - ; 2 @ @ + +   + { > , ' ! 6 ' ' ! 6 6 ' 6 7 ! ! 8 { ' { ! 6 ' ' + ' { [ + 2 [ { { { ' , 6   > + 9 $ 0 a b : @ 2 . @ # @ - c - - 5 d 1 0 1 $ $ 0 @ 2 . @ 3 + [ + { { 6 { ' , + 2 @   + + [ @ [ @ @ @ @ $ 5 0 $ 0 2 2 @ $ $ @ @ . 2 [ + [ [ : < @ . @ . ; * 4 5 - ; 2 @ @ + + ",
"@ [ @ # $ $ ; 1 $ ; $ @ . @ <     > , { ' { 6 6 ! { 6 ! ! ! ! ' ' 6 { { ' + ' { 6 { { > , + [ 2 + ,   { { > { + + < $ $ ^ e b : $ # @ . @ 2 @ 1 f g - 5 = * 0 } # 1 2 h 3 . @ . + + + + { { { { , { + 3   + + . + + + . [ $ # 0 | $ $ $ @ @ @ @ @ 2 @ + [ < + : @ [ @ # $ $ ; 1 $ ; $ @ . @ <     > , { ' { 6 6 ! { 6 ! ! ! ! ' ' 6 { { ' + ' { 6 { { > , + [ 2 + ,   { { > { + + < $ $ ^ e b : $ # @ . @ 2 @ 1 f g - 5 = * 0 } # 1 2 h 3 . @ . + + + + { { { { , { + 3   + + . + + + . [ $ # 0 | $ $ $ @ @ @ @ @ 2 @ + [ < + : @ [ @ # $ $ ; 1 $ ; $ @ . @ <     > , { ' { 6 6 ! { 6 ! ! ! ! ' ' 6 { { ' + ' { 6 { { > , + [ 2 + ,   { { > { + + < $ $ ^ e b : $ # @ . @ 2 @ 1 f g - 5 = * 0 } # 1 2 h 3 . @ . + + + + { { { { , { + 3   + + . + + + . [ $ # 0 | $ $ $ @ @ @ @ @ 2 @ + [ < + : @ [ @ # $ $ ; 1 $ ; $ @ . @ <   ",
"9 h ; $ $ # 2 @ @ @ . . @ . @ [ >   {   { ' ' ' ' ' ! ' ' i ' 6 ' ' , 6 { ' ' ' '   ' '   [ . + , ' > , '   + + . @ ; ; a j b : @ $ # @ 2 $ $ 1 $ $ k 4 c l - 0 0 m 9 . [ . + 3 . @ [ {   { 6 ' { , { , + { [ @ < @ 9 + . $ 1 0 - n } 1 # # @ # 1 @ @ . @ 3 . : 9 h ; $ $ # 2 @ @ @ . . @ . @ [ >   {   { ' ' ' ' ' ! ' ' i ' 6 ' ' , 6 { ' ' ' '   ' '   [ . + , ' > , '   + + . @ ; ; a j b : @ $ # @ 2 $ $ 1 $ $ k 4 c l - 0 0 m 9 . [ . + 3 . @ [ {   { 6 ' { , { , + { [ @ < @ 9 + . $ 1 0 - n } 1 # # @ # 1 @ @ . @ 3 . : 9 h ; $ $ # 2 @ @ @ . . @ . @ [ >   {   { ' ' ' ' ' ! ' ' i ' 6 ' ' , 6 { ' ' ' '   ' '   [ . + , ' > , '   + + . @ ; ; a j b : @ $ # @ 2 $ $ 1 $ $ k 4 c l - 0 0 m 9 . [ . + 3 . @ [ {   { 6 ' { , { , + { [ @ < @ 9 + . $ 1 0 - n } 1 # # @ # 1 @ @ . @ 3 . : 9 h ; $ $ # 2 @ @ @ . . @ . @ [ ",
"$ 1 - = 1 2 @ . [ 2 . $ . 9 2 $   +   6 ' ' 6 ' ' 6 , 8 6 ' o ' 6 {   ' , { , { , ' , ' ,   @     , , '   {   [ @ ; 5 / j & a : @ 2 @ 2 @ # m 1 1 $ 0 n g = - 0 ; $ @ @ < + + . 2 @ [ + > { { { { ' { { { + [ @ 2 # @ $ $ $ 5 ; } 5 $ 1 0 3 @ m $ # $ @ $ # @ : $ 1 - = 1 2 @ . [ 2 . $ . 9 2 $   +   6 ' ' 6 ' ' 6 , 8 6 ' o ' 6 {   ' , { , { , ' , ' ,   @     , , '   {   [ @ ; 5 / j & a : @ 2 @ 2 @ # m 1 1 $ 0 n g = - 0 ; $ @ @ < + + . 2 @ [ + > { { { { ' { { { + [ @ 2 # @ $ $ $ 5 ; } 5 $ 1 0 3 @ m $ # $ @ $ # @ : $ 1 - = 1 2 @ . [ 2 . $ . 9 2 $   +   6 ' ' 6 ' ' 6 , 8 6 ' o ' 6 {   ' , { , { , ' , ' ,   @     , , '   {   [ @ ; 5 / j & a : @ 2 @ 2 @ # m 1 1 $ 0 n g = - 0 ; $ @ @ < + + . 2 @ [ + > { { { { ' { { { + [ @ 2 # @ $ $ $ 5 ; } 5 $ 1 0 3 @ m $ # $ @ $ # @ : $ 1 - = 1 2 @ . [ 2 . $ . 9 2 $ ",
"# 0 * a # @ + + + < < @ @ ; = @ [ +   { {   { o 6 , { 6 ! { , ' { { ' { ' , , ' o {   { + , [ + , { '   , + + @ # ^ ( p e / a : 2 2 # 2 $ 2 @ $ 1 - $ 1 - c 4 0 1 $ @ + . + + + # 1 [ + , [ { ' , { { ' ,   2 $ 0 } 0 / = ^ 5 0 ; 1 1 $ 1 # 2 # } 1 $ - * 0 @ : # 0 * a # @ + + + < < @ @ ; = @ [ +   { {   { o 6 , { 6 ! { , ' { { ' { ' , , ' o {   { + , [ + , { '   , + + @ # ^ ( p e / a : 2 2 # 2 $ 2 @ $ 1 - $ 1 - c 4 0 1 $ @ + . + + + # 1 [ + , [ { ' , { { ' ,   2 $ 0 } 0 / = ^ 5 0 ; 1 1 $ 1 # 2 # } 1 $ - * 0 @ : # 0 * a # @ + + + < < @ @ ; = @ [ +   { {   { o 6 , { 6 ! { , ' { { ' { ' , , ' o {   { + , [ + , { '   , + + @ # ^ ( p e / a : 2 2 # 2 $ 2 @ $ 1 - $ 1 - c 4 0 1 $ @ + . + + + # 1 [ + , [ { ' , { { ' ,   2 $ 0 } 0 / = ^ 5 0 ; 1 1 $ 1 # 2 # } 1 $ - * 0 @ : # 0 * a # @ + + + < < @ @ ; = @ ",
"; 0 4 1 @ [     >     < # ; a # . {   ! ' 6 ' ' ' ' ' ' , ' ' 6 ' 6 , '   ' , ,   ' ,   {       ' { > {   . @ # 0 ( q / = ^ % : 1 $ 1 1 # $ $ 1 $ - 0 ; 0 4 c - $ 1 @ @ @ @ [ . m $ @ + > {   , ! { 6 { + [ } * / * e q q e a 0 r $ $ $ 2 $ 2 $ 0 % - 0 q ; @ : ; 0 4 1 @ [     >     < # ; a # . {   ! ' 6 ' ' ' ' ' ' , ' ' 6 ' 6 , '   ' , ,   ' ,   {       ' { > {   . @ # 0 ( q / = ^ % : 1 $ 1 1 # $ $ 1 $ - 0 ; 0 4 c - $ 1 @ @ @ @ [ . m $ @ + > {   , ! { 6 { + [ } * / * e q q e a 0 r $ $ $ 2 $ 2 $ 0 % - 0 q ; @ : ; 0 4 1 @ [     >     < # ; a # . {   ! ' 6 ' ' ' ' ' ' , ' ' 6 ' 6 , '   ' , ,   ' ,   {       ' { > {   . @ # 0 ( q / = ^ % : 1 $ 1 1 # $ $ 1 $ - 0 ; 0 4 c - $ 1 @ @ @ @ [ . m $ @ + > {   , ! { 6 { + [ } * / * e q q e a 0 r $ $ $ 2 $ 2 $ 0 % - 0 q ; @ : ; 0 4 1 @ [     >     < # ; a # ",
"0 d 0 # @ < +   + . [ 9 $ 4 * $ 9 [   + ,   { ' 6 ' { , ' , '   , '   { , ' ,   > , >   .     +       [ @ @ # 0 a s / 5 ^ - / : 1 1 $ $ } 1 $ 2 2 $ $ - 0 0 4 - 1 $ # 9 @ @ + . @ 1 [ + + + { { ' { , ' + @ - j t _ _ b u t / - 0 1 $ $ 1 1 1 1 0 s 0 = - $ @ : 0 d 0 # @ < +   + . [ 9 $ 4 * $ 9 [   + ,   { ' 6 ' { , ' , '   , '   { , ' ,   > , >   .     +       [ @ @ # 0 a s / 5 ^ - / : 1 1 $ $ } 1 $ 2 2 $ $ - 0 0 4 - 1 $ # 9 @ @ + . @ 1 [ + + + { { ' { , ' + @ - j t _ _ b u t / - 0 1 $ $ 1 1 1 1 0 s 0 = - $ @ : 0 d 0 # @ < +   + . [ 9 $ 4 * $ 9 [   + ,   { ' 6 ' { , ' , '   , '   { , ' ,   > , >   .     +       [ @ @ # 0 a s / 5 ^ - / : 1 1 $ $ } 1 $ 2 2 $ $ - 0 0 4 - 1 $ # 9 @ @ + . @ 1 [ + + + { { ' { , ' + @ - j t _ _ b u t / - 0 1 $ $ 1 1 1 1 0 s 0 = - $ @ : 0 d 0 # @ < +   + . [ 9 $ 4 * $ ",
"= / 0 # . +   > +   + # $ a % $ . + >   ' { ' , ' ) , { {   { ,   { , 8 ' { ' '   { { +   > + .   +   . # $ = / * / 0 ; 0 - g : 9 2 1 2 k # m # @ # $ 1 4 4 4 = 0 # m $ @ @ . @ [ 2 @ [ + , , { + 6 + { v 2 5 j p w b x b y = 0 ; 5 # 2 2 @ 2 $ 1 4 - 0 $ ; @ : = / 0 # . +   > +   + # $ a % $ . + >   ' { ' , ' ) , { {   { ,   { , 8 ' { ' '   { { +   > + .   +   . # $ = / * / 0 ; 0 - g : 9 2 1 2 k # m # @ # $ 1 4 4 4 = 0 # m $ @ @ . @ [ 2 @ [ + , , { + 6 + { v 2 5 j p w b x b y = 0 ; 5 # 2 2 @ 2 $ 1 4 - 0 $ ; @ : = / 0 # . +   > +   + # $ a % $ . + >   ' { ' , ' ) , { {   { ,   { , 8 ' { ' '   { { +   > + .   +   . # $ = / * / 0 ; 0 - g : 9 2 1 2 k # m # @ # $ 1 4 4 4 = 0 # m $ @ @ . @ [ 2 @ [ + , , { + 6 + { v 2 5 j p w b x b y = 0 ; 5 # 2 2 @ 2 $ 1 4 - 0 $ ; @ : = / 0 # . +   > +   + # $ a % $ ",
"= z 0 @   < , + > + . @ ; l q ; @ + + { , ' > ' 6 { '   , { , > , 6 A ! + ' { B > { + { C [ < + [ @ + . 1 / e * e ^ 1 $ $ ; = : 2 1 1 2 $ 1 @ $ @ $ - k 5 * f g - $ # $ $ # @ @ + 2 $ [ + + @ + , { , +   + - j j p D E _ a ^ $ $ 0 @ $ < @ @ @ @ 2 0 1 4 0 @ : = z 0 @   < , + > + . @ ; l q ; @ + + { , ' > ' 6 { '   , { , > , 6 A ! + ' { B > { + { C [ < + [ @ + . 1 / e * e ^ 1 $ $ ; = : 2 1 1 2 $ 1 @ $ @ $ - k 5 * f g - $ # $ $ # @ @ + 2 $ [ + + @ + , { , +   + - j j p D E _ a ^ $ $ 0 @ $ < @ @ @ @ 2 0 1 4 0 @ : = z 0 @   < , + > + . @ ; l q ; @ + + { , ' > ' 6 { '   , { , > , 6 A ! + ' { B > { + { C [ < + [ @ + . 1 / e * e ^ 1 $ $ ; = : 2 1 1 2 $ 1 @ $ @ $ - k 5 * f g - $ # $ $ # @ @ + 2 $ [ + + @ + , { , +   + - j j p D E _ a ^ $ $ 0 @ $ < @ @ @ @ 2 0 1 4 0 @ : = z 0 @   < , + > + . @ ; l q ; ",
"= e 0 9 + <     + + < @ ; / * 0 @ +   { > { ' { { ' { { ' +   v   > ' ' {   ' + {     [ + @ 2 2 # @ @ 9 } 4 4 4 4 0 ; # ; $ 4 : # @ $ @ @ 1 m # @ 2 @ 1 4 F * = l 0 $ 1 # $ @ . + @ . C [ , , { { , +   [ < m 0 l j G u & = 0 $ $ @ 9 + @ + . @ + @ $ 1 = 1 1 : = e 0 9 + <     + + < @ ; / * 0 @ +   { > { ' { { ' { { ' +   v   > ' ' {   ' + {     [ + @ 2 2 # @ @ 9 } 4 4 4 4 0 ; # ; $ 4 : # @ $ @ @ 1 m # @ 2 @ 1 4 F * = l 0 $ 1 # $ @ . + @ . C [ , , { { , +   [ < m 0 l j G u & = 0 $ $ @ 9 + @ + . @ + @ $ 1 = 1 1 : = e 0 9 + <     + + < @ ; / * 0 @ +   { > { ' { { ' { { ' +   v   > ' ' {   ' + {     [ + @ 2 2 # @ @ 9 } 4 4 4 4 0 ; # ; $ 4 : # @ $ @ @ 1 m # @ 2 @ 1 4 F * = l 0 $ 1 # $ @ . + @ . C [ , , { { , +   [ < m 0 l j G u & = 0 $ $ @ 9 + @ + . @ + @ $ 1 = 1 1 : = e 0 9 + <     + + < @ ; / * 0 ",
"/ * 4 $ . + +   + + < @ 0 y 0 ; @ < <   , { + { >   ,   +     + , ' , { { ! { +   +   + . 2 0 = $ 2 2 @ 2 @ 1 ; # $ 2 2 @ $ 0 : 2 . 2 @ # 2 1 $ m # $ # - = * * - 0 $ $ 9 m $ # @ < 2 m . 3   {   { { { + + @ @ ; q H t e = 0 $ < @ < + . + @ + + . @ 1 2 $ $ : / * 4 $ . + +   + + < @ 0 y 0 ; @ < <   , { + { >   ,   +     + , ' , { { ! { +   +   + . 2 0 = $ 2 2 @ 2 @ 1 ; # $ 2 2 @ $ 0 : 2 . 2 @ # 2 1 $ m # $ # - = * * - 0 $ $ 9 m $ # @ < 2 m . 3   {   { { { + + @ @ ; q H t e = 0 $ < @ < + . + @ + + . @ 1 2 $ $ : / * 4 $ . + +   + + < @ 0 y 0 ; @ < <   , { + { >   ,   +     + , ' , { { ! { +   +   + . 2 0 = $ 2 2 @ 2 @ 1 ; # $ 2 2 @ $ 0 : 2 . 2 @ # 2 1 $ m # $ # - = * * - 0 $ $ 9 m $ # @ < 2 m . 3   {   { { { + + @ @ ; q H t e = 0 $ < @ < + . + @ + + . @ 1 2 $ $ : / * 4 $ . + +   + + < @ 0 y 0 ; ",
"l = 1 @ @ < + + +   + @ / 0 $ @ 2 < + + +   +   { , + { + , +   > { { { > + + > + . + + # @ 2 # 2 [   + . . 2 @ $ . @ 9 $ 9 ; : . [ + @ [ 2 1 $ 2 @ $ $ - y l * 4 0 0 $ ; $ # 2 h @ . @ . + + + , { , [   + + . 1 = l I a = ; @ @ . 3 @ @ [ . @ [ @ @ 2 [ # 1 : l = 1 @ @ < + + +   + @ / 0 $ @ 2 < + + +   +   { , + { + , +   > { { { > + + > + . + + # @ 2 # 2 [   + . . 2 @ $ . @ 9 $ 9 ; : . [ + @ [ 2 1 $ 2 @ $ $ - y l * 4 0 0 $ ; $ # 2 h @ . @ . + + + , { , [   + + . 1 = l I a = ; @ @ . 3 @ @ [ . @ [ @ @ 2 [ # 1 : l = 1 @ @ < + + +   + @ / 0 $ @ 2 < + + +   +   { , + { + , +   > { { { > + + > + . + + # @ 2 # 2 [   + . . 2 @ $ . @ 9 $ 9 ; : . [ + @ [ 2 1 $ 2 @ $ $ - y l * 4 0 0 $ ; $ # 2 h @ . @ . + + + , { , [   + + . 1 = l I a = ; @ @ . 3 @ @ [ . @ [ @ @ 2 [ # 1 : l = 1 @ @ < + + +   + @ / 0 $ @ ",
"0 0 9 @ . + < + > C + . $ # # @ . + . + + + , { { { ,   { {   { , {   { {   { +   $ . @ [ @ @ [ + . { [ + + @ < @ m @ 0 $ @ @ : + [ @ . @ 2 k 1 2 $ # 1 0 * a 4 4 0 0 $ ; } r ; @ @ @ + 3 + +   + { + [ + + + [ @ $ 0 0 4 5 2 $ > + @ @ @ @ @ < . + [ [ @ 2 m : 0 0 9 @ . + < + > C + . $ # # @ . + . + + + , { { { ,   { {   { , {   { {   { +   $ . @ [ @ @ [ + . { [ + + @ < @ m @ 0 $ @ @ : + [ @ . @ 2 k 1 2 $ # 1 0 * a 4 4 0 0 $ ; } r ; @ @ @ + 3 + +   + { + [ + + + [ @ $ 0 0 4 5 2 $ > + @ @ @ @ @ < . + [ [ @ 2 m : 0 0 9 @ . + < + > C + . $ # # @ . + . + + + , { { { ,   { {   { , {   { {   { +   $ . @ [ @ @ [ + . { [ + + @ < @ m @ 0 $ @ @ : + [ @ . @ 2 k 1 2 $ # 1 0 * a 4 4 0 0 $ ; } r ; @ @ @ + 3 + +   + { + [ + + + [ @ $ 0 0 4 5 2 $ > + @ @ @ @ @ < . + [ [ @ 2 m : 0 0 9 @ . + < + > C + . $ # # @ ",
"$ @ # + < @ + < @ # 9 @ @ < @ # 2 @ + [ +   3 , ,   { + + + . + + + +   > + @ C [ [ @ . @ . +   + . +   @ # @ # $ # $ ; # + + : . . @ + [ @ 9 $ 1 # $ 1 0 * * a * = 0 0 $ $ 1 0 1 # [ 2 . . [ [ + [ + +   + . . $ 2 # 0 $ ; $ $ + + + < 2 1 @ [ @ [ C [ [ . 2 : $ @ # + < @ + < @ # 9 @ @ < @ # 2 @ + [ +   3 , ,   { + + + . + + + +   > + @ C [ [ @ . @ . +   + . +   @ # @ # $ # $ ; # + + : . . @ + [ @ 9 $ 1 # $ 1 0 * * a * = 0 0 $ $ 1 0 1 # [ 2 . . [ [ + [ + +   + . . $ 2 # 0 $ ; $ $ + + + < 2 1 @ [ @ [ C [ [ . 2 : $ @ # + < @ + < @ # 9 @ @ < @ # 2 @ + [ +   3 , ,   { + + + . + + + +   > + @ C [ [ @ . @ . +   + . +   @ # @ # $ # $ ; # + + : . . @ + [ @ 9 $ 1 # $ 1 0 * * a * = 0 0 $ $ 1 0 1 # [ 2 . . [ [ + [ + +   + . . $ 2 # 0 $ ; $ $ + + + < 2 1 @ [ @ [ C [ [ . 2 : $ @ # + < @ + < @ # 9 @ @ < @ # ",
"@ ; @ 9 @ > . @ @ @ @ @ . # @ $ @ + + .   + +     3   +   + . @ . + . + + $ < 2 # < @   > + + @ < +   + + @ @ 0 0 0 $ 0 $ @   : @ + @ . @ . @ # J 1 1 $ 0 y q a * 4 = 0 ; 1 0 - ; $ m @ . @ . + + . + @ [ @ [ @ 2 @ m $ $ $ } ; @ # < [ $ 0 1 @ @ . @ . @ + . : @ ; @ 9 @ > . @ @ @ @ @ . # @ $ @ + + .   + +     3   +   + . @ . + . + + $ < 2 # < @   > + + @ < +   + + @ @ 0 0 0 $ 0 $ @   : @ + @ . @ . @ # J 1 1 $ 0 y q a * 4 = 0 ; 1 0 - ; $ m @ . @ . + + . + @ [ @ [ @ 2 @ m $ $ $ } ; @ # < [ $ 0 1 @ @ . @ . @ + . : @ ; @ 9 @ > . @ @ @ @ @ . # @ $ @ + + .   + +     3   +   + . @ . + . + + $ < 2 # < @   > + + @ < +   + + @ @ 0 0 0 $ 0 $ @   : @ + @ . @ . @ # J 1 1 $ 0 y q a * 4 = 0 ; 1 0 - ; $ m @ . @ . + + . + @ [ @ [ @ 2 @ m $ $ $ } ; @ # < [ $ 0 1 @ @ . @ . @ + . : @ ; @ 9 @ > . @ @ @ @ @ . # @ $ ",
"< # $ @ . $ 9 $ $ # @ 2 @ @ $ $ @ @ . @ @ [ + > v < [ + @ 9 @ # @ . < @ # 1 # @ < [ . [ [   + + + . + < + . - $ 1 0 1 @ @   > : + @ . [ @ 2 2 @ 2 2 $ 1 ; * j * * z a 0 ; ; $ } r ; 2 9 @ m @ [ [ + . [ + + [ . [ @ @ 1 ; $ $ @ @ @ @ @ @ 2 $ @ @ @ @ @ [ . 2 : < # $ @ . $ 9 $ $ # @ 2 @ @ $ $ @ @ . @ @ [ + > v < [ + @ 9 @ # @ . < @ # 1 # @ < [ . [ [   + + + . + < + . - $ 1 0 1 @ @   > : + @ . [ @ 2 2 @ 2 2 $ 1 ; * j * * z a 0 ; ; $ } r ; 2 9 @ m @ [ [ + . [ + + [ . [ @ @ 1 ; $ $ @ @ @ @ @ @ 2 $ @ @ @ @ @ [ . 2 : < # $ @ . $ 9 $ $ # @ 2 @ @ $ $ @ @ . @ @ [ + > v < [ + @ 9 @ # @ . < @ # 1 # @ < [ . [ [   + + + . + < + . - $ 1 0 1 @ @   > : + @ . [ @ 2 2 @ 2 2 $ 1 ; * j * * z a 0 ; ; $ } r ; 2 9 @ m @ [ [ + . [ + + [ . [ @ @ 1 ; $ $ @ @ @ @ @ @ 2 $ @ @ @ @ @ [ . 2 : < # $ @ . $ 9 $ $ # @ 2 @ @ $ $ ",
". $ ; ; $ 0 - 0 4 = @ 2 . @ 2 2 . + + [ + @ + , { + < @ # 1 0 $ $ $ $ $ # 2 @ 2 $ @ @ @ < +   < [ . + [ @ . $ 2 0 1 @ @   { { :   3 @ @ @ @ 2 @ 2 2 1 - 0 5 z a * K z a 0 0 ; 1 0 $ 9 m @ 2 @ . C [ C . @ . + [ < . 2 $ 1 $ $ # $ @ @ @ # $ 2 # 2 2 $ @ @ 2 @ : . $ ; ; $ 0 - 0 4 = @ 2 . @ 2 2 . + + [ + @ + , { + < @ # 1 0 $ $ $ $ $ # 2 @ 2 $ @ @ @ < +   < [ . + [ @ . $ 2 0 1 @ @   { { :   3 @ @ @ @ 2 @ 2 2 1 - 0 5 z a * K z a 0 0 ; 1 0 $ 9 m @ 2 @ . C [ C . @ . + [ < . 2 $ 1 $ $ # $ @ @ @ # $ 2 # 2 2 $ @ @ 2 @ : . $ ; ; $ 0 - 0 4 = @ 2 . @ 2 2 . + + [ + @ + , { + < @ # 1 0 $ $ $ $ $ # 2 @ 2 $ @ @ @ < +   < [ . + [ @ . $ 2 0 1 @ @   { { :   3 @ @ @ @ 2 @ 2 2 1 - 0 5 z a * K z a 0 0 ; 1 0 $ 9 m @ 2 @ . C [ C . @ . + [ < . 2 $ 1 $ $ # $ @ @ @ # $ 2 # 2 2 $ @ @ 2 @ : . $ ; ; $ 0 - 0 4 = @ 2 . @ 2 2 ",
"@ $ $ - = y = - 2 @ . [ + + + +   + +   + + + +   { . @ 1 a p & 0 1 0 0 } ; $ $ @ ; 9 @ @ @ @ . + + @ . [ @ # $ ; @ < + + { { : < [ . [ @ . 3 . . 2 $ - ; l * a * L j e = 0 0 ; $ m 2 @ # @ @ 2 @ . @ [ 3 [ [ + [ @ 2 - 5 m 2 @ @ 2 @ $ $ ; $ $ $ - 4 $ 2 2 9 : @ $ $ - = y = - 2 @ . [ + + + +   + +   + + + +   { . @ 1 a p & 0 1 0 0 } ; $ $ @ ; 9 @ @ @ @ . + + @ . [ @ # $ ; @ < + + { { : < [ . [ @ . 3 . . 2 $ - ; l * a * L j e = 0 0 ; $ m 2 @ # @ @ 2 @ . @ [ 3 [ [ + [ @ 2 - 5 m 2 @ @ 2 @ $ $ ; $ $ $ - 4 $ 2 2 9 : @ $ $ - = y = - 2 @ . [ + + + +   + +   + + + +   { . @ 1 a p & 0 1 0 0 } ; $ $ @ ; 9 @ @ @ @ . + + @ . [ @ # $ ; @ < + + { { : < [ . [ @ . 3 . . 2 $ - ; l * a * L j e = 0 0 ; $ m 2 @ # @ @ 2 @ . @ [ 3 [ [ + [ @ 2 - 5 m 2 @ @ 2 @ $ $ ; $ $ $ - 4 $ 2 2 9 : @ $ $ - = y = - 2 @ . [ + + + + ",
"$ a l 0 # # @ @ @ @ [ +   , + , { +   , + . 2 [   + @ # = 4 a 4 0 0 / a = 0 0 $ ^ 0 0 ; # . @ @ . $ + . @ < [ $ @ [ . + <   ' : + @ [ @ 2 [ + @ [ $ 0 1 1 - 0 4 a F j e 4 = 5 0 $ . @ @ @ @ @ . @ @ [   @ + @ . 3 . @ $ $ # 9 $ @ 9 2 2 $ * 0 $ 4 $ 1 M 3 2 @ : $ a l 0 # # @ @ @ @ [ +   , + , { +   , + . 2 [   + @ # = 4 a 4 0 0 / a = 0 0 $ ^ 0 0 ; # . @ @ . $ + . @ < [ $ @ [ . + <   ' : + @ [ @ 2 [ + @ [ $ 0 1 1 - 0 4 a F j e 4 = 5 0 $ . @ @ @ @ @ . @ @ [   @ + @ . 3 . @ $ $ # 9 $ @ 9 2 2 $ * 0 $ 4 $ 1 M 3 2 @ : $ a l 0 # # @ @ @ @ [ +   , + , { +   , + . 2 [   + @ # = 4 a 4 0 0 / a = 0 0 $ ^ 0 0 ; # . @ @ . $ + . @ < [ $ @ [ . + <   ' : + @ [ @ 2 [ + @ [ $ 0 1 1 - 0 4 a F j e 4 = 5 0 $ . @ @ @ @ @ . @ @ [   @ + @ . 3 . @ $ $ # 9 $ @ 9 2 2 $ * 0 $ 4 $ 1 M 3 2 @ : $ a l 0 # # @ @ @ @ [ +   , + , ",
"+ $ $ # @ @ + + + +   + { { { {   { + + 3 $ @ + + + @ = 5 0 $ 0 0 = = - - N = a l / a = } $ h 2 @ @ + + @ @ @ + + + + [ + , v : + [ < + 2 2 . [ + $ @ # @ $ $ 1 = F s j z a } 0 $ 9 @ @ @ @ @ @ @ [ @ + +   + [ + + . @ 1 m $ 2 $ $ 0 0 1 1 0 0 - # m @ . [ . : + $ $ # @ @ + + + +   + { { { {   { + + 3 $ @ + + + @ = 5 0 $ 0 0 = = - - N = a l / a = } $ h 2 @ @ + + @ @ @ + + + + [ + , v : + [ < + 2 2 . [ + $ @ # @ $ $ 1 = F s j z a } 0 $ 9 @ @ @ @ @ @ @ [ @ + +   + [ + + . @ 1 m $ 2 $ $ 0 0 1 1 0 0 - # m @ . [ . : + $ $ # @ @ + + + +   + { { { {   { + + 3 $ @ + + + @ = 5 0 $ 0 0 = = - - N = a l / a = } $ h 2 @ @ + + @ @ @ + + + + [ + , v : + [ < + 2 2 . [ + $ @ # @ $ $ 1 = F s j z a } 0 $ 9 @ @ @ @ @ @ @ [ @ + +   + [ + + . @ 1 m $ 2 $ $ 0 0 1 1 0 0 - # m @ . [ . : + $ $ # @ @ + + + +   + { { { { ",
"@ # 9 $ 9 m + < { + { { { { { '   { + . . $ - # @ [ @ @ @ @ ; ; N a l ^ r $ ; ^ * _ q * = 1 ; $ 9 @ @ 9 $ @ + . @ . . C @ + < : + + , @ 2 2 @ @ @ . [ 2 @ # $ $ ; - * s q * N ; $ $ @ $ $ $ # 1 $ @ @ [ + +   +   3 . @ [ @ # $ 1 0 0 0 $ $ $ 2 $ @ @ @ [ < @ : @ # 9 $ 9 m + < { + { { { { { '   { + . . $ - # @ [ @ @ @ @ ; ; N a l ^ r $ ; ^ * _ q * = 1 ; $ 9 @ @ 9 $ @ + . @ . . C @ + < : + + , @ 2 2 @ @ @ . [ 2 @ # $ $ ; - * s q * N ; $ $ @ $ $ $ # 1 $ @ @ [ + +   +   3 . @ [ @ # $ 1 0 0 0 $ $ $ 2 $ @ @ @ [ < @ : @ # 9 $ 9 m + < { + { { { { { '   { + . . $ - # @ [ @ @ @ @ ; ; N a l ^ r $ ; ^ * _ q * = 1 ; $ 9 @ @ 9 $ @ + . @ . . C @ + < : + + , @ 2 2 @ @ @ . [ 2 @ # $ $ ; - * s q * N ; $ $ @ $ $ $ # 1 $ @ @ [ + +   +   3 . @ [ @ # $ 1 0 0 0 $ $ $ 2 $ @ @ @ [ < @ : @ # 9 $ 9 m + < { + { { { { { ' ",
"@ # $ 0 $ @ [ , { { { ' ' 8 { { , + + 2 2 = 5 3 . ,   [ + . $ $ - * - $ # ; $ 0 0 = a ( a = = 0 $ ; h 2 @ @ # . @ 2 m # @ . . :   . [ [ [ [ 2 2 2 @ . @ @ @ 2 9 m - l O L z 4 0 $ $ 1 ; - 0 = - $ @ @ . + 3 { ,   + + < @ m 0 - = * = ; 0 $ $ @ $ $ # + @ [ @ : @ # $ 0 $ @ [ , { { { ' ' 8 { { , + + 2 2 = 5 3 . ,   [ + . $ $ - * - $ # ; $ 0 0 = a ( a = = 0 $ ; h 2 @ @ # . @ 2 m # @ . . :   . [ [ [ [ 2 2 2 @ . @ @ @ 2 9 m - l O L z 4 0 $ $ 1 ; - 0 = - $ @ @ . + 3 { ,   + + < @ m 0 - = * = ; 0 $ $ @ $ $ # + @ [ @ : @ # $ 0 $ @ [ , { { { ' ' 8 { { , + + 2 2 = 5 3 . ,   [ + . $ $ - * - $ # ; $ 0 0 = a ( a = = 0 $ ; h 2 @ @ # . @ 2 m # @ . . :   . [ [ [ [ 2 2 2 @ . @ @ @ 2 9 m - l O L z 4 0 $ $ 1 ; - 0 = - $ @ @ . + 3 { ,   + + < @ m 0 - = * = ; 0 $ $ @ $ $ # + @ [ @ : @ # $ 0 $ @ [ , { { { ' ' 8 { { ",
"$ # - * 1 # [ 9   +   { , { {   + + [ 2 @ @ . [ , { > > < @ < $ 0 e 0 0 $ $ $ ; = 4 e L z e * e = = 0 ; # ; 0 @ 1 0 % 0 1 $ $ : + 3   + + [ 2 2 2 @ 3 2 2 @ 2 @ 1 1 = I f y * % 0 - = 0 0 * t = - $ # + [ < [ + + + +   @ $ * e q z e 1 $ 0 ; $ 1 1 0 2 @ . [ : $ # - * 1 # [ 9   +   { , { {   + + [ 2 @ @ . [ , { > > < @ < $ 0 e 0 0 $ $ $ ; = 4 e L z e * e = = 0 ; # ; 0 @ 1 0 % 0 1 $ $ : + 3   + + [ 2 2 2 @ 3 2 2 @ 2 @ 1 1 = I f y * % 0 - = 0 0 * t = - $ # + [ < [ + + + +   @ $ * e q z e 1 $ 0 ; $ 1 1 0 2 @ . [ : $ # - * 1 # [ 9   +   { , { {   + + [ 2 @ @ . [ , { > > < @ < $ 0 e 0 0 $ $ $ ; = 4 e L z e * e = = 0 ; # ; 0 @ 1 0 % 0 1 $ $ : + 3   + + [ 2 2 2 @ 3 2 2 @ 2 @ 1 1 = I f y * % 0 - = 0 0 * t = - $ # + [ < [ + + + +   @ $ * e q z e 1 $ 0 ; $ 1 1 0 2 @ . [ : $ # - * 1 # [ 9   +   { , { {   ",
"[ $ 4 a $ @ [ { { { ' ,   , , , , , ,   , , > , { + { [   . @ $ / y ; r $ # ; 0 0 a a b & O b : * = l - 0 0 1 4 = F y z 5 # 1 : + [ + . + + [ @ . 2 . . 2 @ 2 . $ 1 - c * I F 4 - = - - a l s = F a @ < + + + [ [ [   @ . m 0 * = 4 0 } $ $ 0 - 0 $ 4 $ 2 @ @ : [ $ 4 a $ @ [ { { { ' ,   , , , , , ,   , , > , { + { [   . @ $ / y ; r $ # ; 0 0 a a b & O b : * = l - 0 0 1 4 = F y z 5 # 1 : + [ + . + + [ @ . 2 . . 2 @ 2 . $ 1 - c * I F 4 - = - - a l s = F a @ < + + + [ [ [   @ . m 0 * = 4 0 } $ $ 0 - 0 $ 4 $ 2 @ @ : [ $ 4 a $ @ [ { { { ' ,   , , , , , ,   , , > , { + { [   . @ $ / y ; r $ # ; 0 0 a a b & O b : * = l - 0 0 1 4 = F y z 5 # 1 : + [ + . + + [ @ . 2 . . 2 @ 2 . $ 1 - c * I F 4 - = - - a l s = F a @ < + + + [ [ [   @ . m 0 * = 4 0 } $ $ 0 - 0 $ 4 $ 2 @ @ : [ $ 4 a $ @ [ { { { ' ,   , , , ",
". $ * $ 2 + + { {   , + + [ +   +   {   { { , { ' { , > + + $ ; - 0 0 ; 0 % 5 % a 0 = * * ( j b z * a 4 4 4 - c - 1 # m [ @ . : . 3 @ { , + + [ [ @ 3 . @ 2 @ @ 2 $ } n * c 4 F F 4 = 5 0 4 / - 0 $ $ [ [ + + + [ + + @ 2 # $ 1 r $ 0 # 1 $ } 4 0 0 - 5 # @ . : . $ * $ 2 + + { {   , + + [ +   +   {   { { , { ' { , > + + $ ; - 0 0 ; 0 % 5 % a 0 = * * ( j b z * a 4 4 4 - c - 1 # m [ @ . : . 3 @ { , + + [ [ @ 3 . @ 2 @ @ 2 $ } n * c 4 F F 4 = 5 0 4 / - 0 $ $ [ [ + + + [ + + @ 2 # $ 1 r $ 0 # 1 $ } 4 0 0 - 5 # @ . : . $ * $ 2 + + { {   , + + [ +   +   {   { { , { ' { , > + + $ ; - 0 0 ; 0 % 5 % a 0 = * * ( j b z * a 4 4 4 - c - 1 # m [ @ . : . 3 @ { , + + [ [ @ 3 . @ 2 @ @ 2 $ } n * c 4 F F 4 = 5 0 4 / - 0 $ $ [ [ + + + [ + + @ 2 # $ 1 r $ 0 # 1 $ } 4 0 0 - 5 # @ . : . $ * $ 2 + + { {   , + + [ +   ",
"[ 2 2 @ + . {   { , + [ . m [ v [ v , 6 ' 6 ' { A   ' { < . # $ = 5 ; 0 e y = 0 % $ % $ 0 0 = % 1 ; $ 2 $ @ @ . @ + . [ + [ , : [ [ [ . + [ . + [ [ . 2 @ 2 @ . 2 # 1 } - n f 4 f g l 0 - 0 5 0 $ @ 2 @ . @ @ [ < [ @ . @ @ @ $ @ # } $ $ @ 0 $ $ 0 $ 0 $ [ + : [ 2 2 @ + . {   { , + [ . m [ v [ v , 6 ' 6 ' { A   ' { < . # $ = 5 ; 0 e y = 0 % $ % $ 0 0 = % 1 ; $ 2 $ @ @ . @ + . [ + [ , : [ [ [ . + [ . + [ [ . 2 @ 2 @ . 2 # 1 } - n f 4 f g l 0 - 0 5 0 $ @ 2 @ . @ @ [ < [ @ . @ @ @ $ @ # } $ $ @ 0 $ $ 0 $ 0 $ [ + : [ 2 2 @ + . {   { , + [ . m [ v [ v , 6 ' 6 ' { A   ' { < . # $ = 5 ; 0 e y = 0 % $ % $ 0 0 = % 1 ; $ 2 $ @ @ . @ + . [ + [ , : [ [ [ . + [ . + [ [ . 2 @ 2 @ . 2 # 1 } - n f 4 f g l 0 - 0 5 0 $ @ 2 @ . @ @ [ < [ @ . @ @ @ $ @ # } $ $ @ 0 $ $ 0 $ 0 $ [ + : [ 2 2 @ + . {   { , + [ . m [ v ",
"    + [ +   +   { { { , [ [ ,   ,   ' { ' ' ' ! 6 ' 6 { , @ 0 = a 0 a % $ $ ; 1 $ $ 2 # $ # 2 $ @ $ [ [     + , , , , ' , , ' : [ @ . 3 [ + @ 3 + @ 3 @ 2 @ 2 @ $ 2 $ 1 0 1 - - 4 g 4 0 0 $ $ ; $ # $ @ [ @ [ . . 2 2 2 m 1 # @ 9 @ 2 $ $ $ $ $ @ - $ 2 @ 9 + :     + [ +   +   { { { , [ [ ,   ,   ' { ' ' ' ! 6 ' 6 { , @ 0 = a 0 a % $ $ ; 1 $ $ 2 # $ # 2 $ @ $ [ [     + , , , , ' , , ' : [ @ . 3 [ + @ 3 + @ 3 @ 2 @ 2 @ $ 2 $ 1 0 1 - - 4 g 4 0 0 $ $ ; $ # $ @ [ @ [ . . 2 2 2 m 1 # @ 9 @ 2 $ $ $ $ $ @ - $ 2 @ 9 + :     + [ +   +   { { { , [ [ ,   ,   ' { ' ' ' ! 6 ' 6 { , @ 0 = a 0 a % $ $ ; 1 $ $ 2 # $ # 2 $ @ $ [ [     + , , , , ' , , ' : [ @ . 3 [ + @ 3 + @ 3 @ 2 @ 2 @ $ 2 $ 1 0 1 - - 4 g 4 0 0 $ $ ; $ # $ @ [ @ [ . . 2 2 2 m 1 # @ 9 @ 2 $ $ $ $ $ @ - $ 2 @ 9 + :     + [ +   +   { { { , [ [ ,   ",
"{ { @ { + , + [ , { 6 { { , + , , 6 ] { 6 6 6 6 { , { > + @ 0 y y - $ $ # @ @ 2 @ @ + + + + @ [   3 + + , { , { + ' 6 { , ! o : + [ @ . 2 3 @ 3 @ [ 2 . M 2 2 2 2 2 2 2 # m 1 1 1 - 5 - $ 0 0 0 - 1 $ 9 . @ @ 2 $ m 0 0 2 $ $ $ $ $ $ 1 $ # 1 # $ $ 1 # $ $ [ : { { @ { + , + [ , { 6 { { , + , , 6 ] { 6 6 6 6 { , { > + @ 0 y y - $ $ # @ @ 2 @ @ + + + + @ [   3 + + , { , { + ' 6 { , ! o : + [ @ . 2 3 @ 3 @ [ 2 . M 2 2 2 2 2 2 2 # m 1 1 1 - 5 - $ 0 0 0 - 1 $ 9 . @ @ 2 $ m 0 0 2 $ $ $ $ $ $ 1 $ # 1 # $ $ 1 # $ $ [ : { { @ { + , + [ , { 6 { { , + , , 6 ] { 6 6 6 6 { , { > + @ 0 y y - $ $ # @ @ 2 @ @ + + + + @ [   3 + + , { , { + ' 6 { , ! o : + [ @ . 2 3 @ 3 @ [ 2 . M 2 2 2 2 2 2 2 # m 1 1 1 - 5 - $ 0 0 0 - 1 $ 9 . @ @ 2 $ m 0 0 2 $ $ $ $ $ $ 1 $ # 1 # $ $ 1 # $ $ [ : { { @ { + , + [ , { 6 { { , + , ",
"+ +     , { o { , { { , , v , , { , { 6 { ' { + { { + + + # 0 * $ # # @ @ [ $ @ . [ + @   +   + ,   + , { , ! { 6 6 { ) { 6 ~ :   3 [ [ 2 # 2 @ [ . @ [ 3 @ k # 2 2 @ 2 $ @ $ m $ $ c 4 ; 1 $ 0 } 0 # # @ @ @ $ . 1 - 5 - 0 1 1 $ 2 $ $ $ # $ @ $ 9 $ @ P $ @ : + +     , { o { , { { , , v , , { , { 6 { ' { + { { + + + # 0 * $ # # @ @ [ $ @ . [ + @   +   + ,   + , { , ! { 6 6 { ) { 6 ~ :   3 [ [ 2 # 2 @ [ . @ [ 3 @ k # 2 2 @ 2 $ @ $ m $ $ c 4 ; 1 $ 0 } 0 # # @ @ @ $ . 1 - 5 - 0 1 1 $ 2 $ $ $ # $ @ $ 9 $ @ P $ @ : + +     , { o { , { { , , v , , { , { 6 { ' { + { { + + + # 0 * $ # # @ @ [ $ @ . [ + @   +   + ,   + , { , ! { 6 6 { ) { 6 ~ :   3 [ [ 2 # 2 @ [ . @ [ 3 @ k # 2 2 @ 2 $ @ $ m $ $ c 4 ; 1 $ 0 } 0 # # @ @ @ $ . 1 - 5 - 0 1 1 $ 2 $ $ $ # $ @ $ 9 $ @ P $ @ : + +     , { o { , { { , , v , , ",
"{ { { { { { ' ' ' 6 { { + + { , 6 , ' , ' , { ' {   {   @ @ 9 $ @ @ @ . . . @ . + +   , +   [   + , , { ' { ' 6 ' ' 6 ' 6 6 6 :   + + + @ @ 2 2 [ + @ + . [ @ 2 # @ @ . @ 2 @ . $ 2 - f c - 5 - 4 0 0 $ 1 @ $ 1 0 1 5 - 4 5 = 0 ; $ $ $ $ $ $ $ $ @ @ 2 @ $ 1 : { { { { { { ' ' ' 6 { { + + { , 6 , ' , ' , { ' {   {   @ @ 9 $ @ @ @ . . . @ . + +   , +   [   + , , { ' { ' 6 ' ' 6 ' 6 6 6 :   + + + @ @ 2 2 [ + @ + . [ @ 2 # @ @ . @ 2 @ . $ 2 - f c - 5 - 4 0 0 $ 1 @ $ 1 0 1 5 - 4 5 = 0 ; $ $ $ $ $ $ $ $ @ @ 2 @ $ 1 : { { { { { { ' ' ' 6 { { + + { , 6 , ' , ' , { ' {   {   @ @ 9 $ @ @ @ . . . @ . + +   , +   [   + , , { ' { ' 6 ' ' 6 ' 6 6 6 :   + + + @ @ 2 2 [ + @ + . [ @ 2 # @ @ . @ 2 @ . $ 2 - f c - 5 - 4 0 0 $ 1 @ $ 1 0 1 5 - 4 5 = 0 ; $ $ $ $ $ $ $ $ @ @ 2 @ $ 1 : { { { { { { ' ' ' 6 { { + + { , ",
"{ + , { ' { { 6 { ' { + +   v , { v , o , { { A { , + C + @ 2 @ < @ [ @ + [ + + + + {   { { v , + { { { { ! o ! ) o ! o 6 ! ! : , [ . + @ 2 2 @ @ @ @ . + [ 2 [ 2 2 @ @ . @ [ 2 @ # - 4 - = c = % l - 0 $ $ $ $ } $ } 0 F 4 4 = 0 ; $ $ 1 m # $ @ @ @ # m # 1 : { + , { ' { { 6 { ' { + +   v , { v , o , { { A { , + C + @ 2 @ < @ [ @ + [ + + + + {   { { v , + { { { { ! o ! ) o ! o 6 ! ! : , [ . + @ 2 2 @ @ @ @ . + [ 2 [ 2 2 @ @ . @ [ 2 @ # - 4 - = c = % l - 0 $ $ $ $ } $ } 0 F 4 4 = 0 ; $ $ 1 m # $ @ @ @ # m # 1 : { + , { ' { { 6 { ' { + +   v , { v , o , { { A { , + C + @ 2 @ < @ [ @ + [ + + + + {   { { v , + { { { { ! o ! ) o ! o 6 ! ! : , [ . + @ 2 2 @ @ @ @ . + [ 2 [ 2 2 @ @ . @ [ 2 @ # - 4 - = c = % l - 0 $ $ $ $ } $ } 0 F 4 4 = 0 ; $ $ 1 m # $ @ @ @ # m # 1 : { + , { ' { { 6 { ' { + +   v , ",
"! + { { { ,   ' 6 { ' ' [ @ [ ' , '     , , 6 6 ' + + @ 9 @ 2 @ @ + . + < +   +   ' + ' v 8 , < , ' , ' { { ' 6 6 ' ) 6 ) 6 ' : B [ . @ @ 1 $ @ 2 . 2 [ [ @ @ . 2 @ [ @ @ 2 @ @ @ 2 4 - f 4 4 4 5 * = 0 0 0 ; 1 ; $ $ 4 - c * l - 0 0 ; $ $ $ $ # 3 < @ $ $ $ : ! + { { { ,   ' 6 { ' ' [ @ [ ' , '     , , 6 6 ' + + @ 9 @ 2 @ @ + . + < +   +   ' + ' v 8 , < , ' , ' { { ' 6 6 ' ) 6 ) 6 ' : B [ . @ @ 1 $ @ 2 . 2 [ [ @ @ . 2 @ [ @ @ 2 @ @ @ 2 4 - f 4 4 4 5 * = 0 0 0 ; 1 ; $ $ 4 - c * l - 0 0 ; $ $ $ $ # 3 < @ $ $ $ : ! + { { { ,   ' 6 { ' ' [ @ [ ' , '     , , 6 6 ' + + @ 9 @ 2 @ @ + . + < +   +   ' + ' v 8 , < , ' , ' { { ' 6 6 ' ) 6 ) 6 ' : B [ . @ @ 1 $ @ 2 . 2 [ [ @ @ . 2 @ [ @ @ 2 @ @ @ 2 4 - f 4 4 4 5 * = 0 0 0 ; 1 ; $ $ 4 - c * l - 0 0 ; $ $ $ $ # 3 < @ $ $ $ : ! + { { { ,   ' 6 { ' ' [ @ [ ' ",
"  { { , ' ! o ' ! ' o   , [ + + , , v , { { , + >   B # $ $ h . + < + . + +     { , { { , { + [ y o { , 6 ' 6 Q o 6 R ) ! 6 6 :   + @ @ 2 $ 1 $ 2 @ 2 @ . @ [ @ 2 $ 2 2 . 2 . @ @ 2 } c 4 F g l = 4 - 4 = 4 y 0 ; $ ; $ c l f 4 = $ } 1 0 % 0 $ # @ @ 2 2 1 4 :   { { , ' ! o ' ! ' o   , [ + + , , v , { { , + >   B # $ $ h . + < + . + +     { , { { , { + [ y o { , 6 ' 6 Q o 6 R ) ! 6 6 :   + @ @ 2 $ 1 $ 2 @ 2 @ . @ [ @ 2 $ 2 2 . 2 . @ @ 2 } c 4 F g l = 4 - 4 = 4 y 0 ; $ ; $ c l f 4 = $ } 1 0 % 0 $ # @ @ 2 2 1 4 :   { { , ' ! o ' ! ' o   , [ + + , , v , { { , + >   B # $ $ h . + < + . + +     { , { { , { + [ y o { , 6 ' 6 Q o 6 R ) ! 6 6 :   + @ @ 2 $ 1 $ 2 @ 2 @ . @ [ @ 2 $ 2 2 . 2 . @ @ 2 } c 4 F g l = 4 - 4 = 4 y 0 ; $ ; $ c l f 4 = $ } 1 0 % 0 $ # @ @ 2 2 1 4 :   { { , ' ! o ' ! ' o   , [ + + ",
"' { + + v ' 6 { 6 ! , , v   [ [ v , + , o ' { { + + @ @ 0 ; = @ . 3 { . + [ v { , , + , ! 6 , 6 { ' 6 6 { , 6 6 6 ! 6 ! ! 6 ) : v +   2 [ 1 1 0 2 @ @ 2 @ @ 2 [ 2 2 $ 2 @ @ + M @ 2 # 1 - S f 4 n = l * 4 0 4 4 - 0 $ 0 1 - - * - - 0 - y 0 = = $ $ @ # 2 $ # : ' { + + v ' 6 { 6 ! , , v   [ [ v , + , o ' { { + + @ @ 0 ; = @ . 3 { . + [ v { , , + , ! 6 , 6 { ' 6 6 { , 6 6 6 ! 6 ! ! 6 ) : v +   2 [ 1 1 0 2 @ @ 2 @ @ 2 [ 2 2 $ 2 @ @ + M @ 2 # 1 - S f 4 n = l * 4 0 4 4 - 0 $ 0 1 - - * - - 0 - y 0 = = $ $ @ # 2 $ # : ' { + + v ' 6 { 6 ! , , v   [ [ v , + , o ' { { + + @ @ 0 ; = @ . 3 { . + [ v { , , + , ! 6 , 6 { ' 6 6 { , 6 6 6 ! 6 ! ! 6 ) : v +   2 [ 1 1 0 2 @ @ 2 @ @ 2 [ 2 2 $ 2 @ @ + M @ 2 # 1 - S f 4 n = l * 4 0 4 4 - 0 $ 0 1 - - * - - 0 - y 0 = = $ $ @ # 2 $ # : ' { + + v ' 6 { 6 ! , , v   [ [ ",
"{ , , ,   + { ' { ' { , + [   , . [ { , { , ,     < @ $ ; 0 0 $ @ + . @ + +     { { , ' ! ! ! ' { { 6 ! ! 6 { ! ! ) ! 6 ) 6 { : ,   3 [ @ @ 0 1 $ 1 $ # 9 2 3 2 @ 2 2 2 @ 2 @ 3 @ . @ @ 1 - 1 - - } 4 a 4 0 0 c = 0 1 1 } - g 5 - 0 1 0 4 e 4 4 0 $ 9 $ 2 9 m : { , , ,   + { ' { ' { , + [   , . [ { , { , ,     < @ $ ; 0 0 $ @ + . @ + +     { { , ' ! ! ! ' { { 6 ! ! 6 { ! ! ) ! 6 ) 6 { : ,   3 [ @ @ 0 1 $ 1 $ # 9 2 3 2 @ 2 2 2 @ 2 @ 3 @ . @ @ 1 - 1 - - } 4 a 4 0 0 c = 0 1 1 } - g 5 - 0 1 0 4 e 4 4 0 $ 9 $ 2 9 m : { , , ,   + { ' { ' { , + [   , . [ { , { , ,     < @ $ ; 0 0 $ @ + . @ + +     { { , ' ! ! ! ' { { 6 ! ! 6 { ! ! ) ! 6 ) 6 { : ,   3 [ @ @ 0 1 $ 1 $ # 9 2 3 2 @ 2 2 2 @ 2 @ 3 @ . @ @ 1 - 1 - - } 4 a 4 0 0 c = 0 1 1 } - g 5 - 0 1 0 4 e 4 4 0 $ 9 $ 2 9 m : { , , ,   + { ' { ' { , + [   , ",
"' { { , + , + , ' ! { B , > v v   , + +   + + + @ + 9 $ ; m 1 $ @ @ @ < + +   { {   > { { ' { { ' o ' ! ! { ! 7 ) ! ! ! ! 6 ! :   3 + . + 2 1 0 - 2 # 2 @ 1 2 @ 2 @ 2 # @ 2 2 2 . [ @ 2 2 m $ 1 $ } - - = = 0 % 4 = = ; - - k 1 1 $ } 0 - = * * = 0 $ $ 1 @ 9 : ' { { , + , + , ' ! { B , > v v   , + +   + + + @ + 9 $ ; m 1 $ @ @ @ < + +   { {   > { { ' { { ' o ' ! ! { ! 7 ) ! ! ! ! 6 ! :   3 + . + 2 1 0 - 2 # 2 @ 1 2 @ 2 @ 2 # @ 2 2 2 . [ @ 2 2 m $ 1 $ } - - = = 0 % 4 = = ; - - k 1 1 $ } 0 - = * * = 0 $ $ 1 @ 9 : ' { { , + , + , ' ! { B , > v v   , + +   + + + @ + 9 $ ; m 1 $ @ @ @ < + +   { {   > { { ' { { ' o ' ! ! { ! 7 ) ! ! ! ! 6 ! :   3 + . + 2 1 0 - 2 # 2 @ 1 2 @ 2 @ 2 # @ 2 2 2 . [ @ 2 2 m $ 1 $ } - - = = 0 % 4 = = ; - - k 1 1 $ } 0 - = * * = 0 $ $ 1 @ 9 : ' { { , + , + , ' ! { B , > v v ",
"{ { { { '   @ { { , ' , . { ' , { ' , + + +   + 9 @ # 0 4 = ; 2 9 9 @ $ < < { > > { { ' { { ' !   ! ! ' ! ' ) ) { ) { ) ) ' ) :   [ + [ [ @ @ c $ } 0 1 # 2 $ # 2 2 @ $ . @ 2 @ @ . + @ @ . 2 @ 2 | 1 0 1 0 0 0 l / - 0 k n k 1 $ 1 $ m ; 5 l a 4 0 $ ; $ ; $ : { { { { '   @ { { , ' , . { ' , { ' , + + +   + 9 @ # 0 4 = ; 2 9 9 @ $ < < { > > { { ' { { ' !   ! ! ' ! ' ) ) { ) { ) ) ' ) :   [ + [ [ @ @ c $ } 0 1 # 2 $ # 2 2 @ $ . @ 2 @ @ . + @ @ . 2 @ 2 | 1 0 1 0 0 0 l / - 0 k n k 1 $ 1 $ m ; 5 l a 4 0 $ ; $ ; $ : { { { { '   @ { { , ' , . { ' , { ' , + + +   + 9 @ # 0 4 = ; 2 9 9 @ $ < < { > > { { ' { { ' !   ! ! ' ! ' ) ) { ) { ) ) ' ) :   [ + [ [ @ @ c $ } 0 1 # 2 $ # 2 2 @ $ . @ 2 @ @ . + @ @ . 2 @ 2 | 1 0 1 0 0 0 l / - 0 k n k 1 $ 1 $ m ; 5 l a 4 0 $ ; $ ; $ : { { { { '   @ { { , ' , . { ' , ",
"] ' , + + v , v @ { { o { { { {   v + [ . [ + + < $ 0 * _ t ; h @ @ # @ . , > , + { >     + { 6 { > 6 ! ' 6 ! 6 ! ! 6 6 6 { { : , , + + . [ 2 1 0 0 - 1 } 1 2 2 2 $ $ 2 @ @ @ M @ [ @ [ . [ [ [ @ 2 1 1 1 1 1 = * y = 0 0 $ $ 2 2 @ @ 1 - - 0 4 = = = % 0 0 1 : ] ' , + + v , v @ { { o { { { {   v + [ . [ + + < $ 0 * _ t ; h @ @ # @ . , > , + { >     + { 6 { > 6 ! ' 6 ! 6 ! ! 6 6 6 { { : , , + + . [ 2 1 0 0 - 1 } 1 2 2 2 $ $ 2 @ @ @ M @ [ @ [ . [ [ [ @ 2 1 1 1 1 1 = * y = 0 0 $ $ 2 2 @ @ 1 - - 0 4 = = = % 0 0 1 : ] ' , + + v , v @ { { o { { { {   v + [ . [ + + < $ 0 * _ t ; h @ @ # @ . , > , + { >     + { 6 { > 6 ! ' 6 ! 6 ! ! 6 6 6 { { : , , + + . [ 2 1 0 0 - 1 } 1 2 2 2 $ $ 2 @ @ @ M @ [ @ [ . [ [ [ @ 2 1 1 1 1 1 = * y = 0 0 $ $ 2 2 @ @ 1 - - 0 4 = = = % 0 0 1 : ] ' , + + v , v @ { { o { { { { ",
", , ! 6   ' {   [ { { ' 6 { ' 6 v , , +   +   . [ 0 g q j & - $ . @ . +     { + + >   + + {   ' ' { ' ! ' ! ) ! 6 ) 6 { ' 6 ' : + [ [ . + [ @ $ 4 1 $ } ; - k $ 1 2 1 # 2 2 @ [ @ [ [ . + @ [ [ + + @ 1 } $ 0 4 y F a % $ $ # @ 2 9 2 $ 1 $ - 0 4 4 a y a = % : , , ! 6   ' {   [ { { ' 6 { ' 6 v , , +   +   . [ 0 g q j & - $ . @ . +     { + + >   + + {   ' ' { ' ! ' ! ) ! 6 ) 6 { ' 6 ' : + [ [ . + [ @ $ 4 1 $ } ; - k $ 1 2 1 # 2 2 @ [ @ [ [ . + @ [ [ + + @ 1 } $ 0 4 y F a % $ $ # @ 2 9 2 $ 1 $ - 0 4 4 a y a = % : , , ! 6   ' {   [ { { ' 6 { ' 6 v , , +   +   . [ 0 g q j & - $ . @ . +     { + + >   + + {   ' ' { ' ! ' ! ) ! 6 ) 6 { ' 6 ' : + [ [ . + [ @ $ 4 1 $ } ; - k $ 1 2 1 # 2 2 @ [ @ [ [ . + @ [ [ + + @ 1 } $ 0 4 y F a % $ $ # @ 2 9 2 $ 1 $ - 0 4 4 a y a = % : , , ! 6   ' {   [ { { ' 6 { ' 6 ",
"{ {   + , + , + , { ' 6 ' ' 6 ! ' { ,   , , { + . 0 * & z q 5 $ @ @ . < 2 h . .   + @   , + +   + {   { ' 6 { ' 6 ' ' 6 ' { { : , + [ [ @ [ @ 2 - - m # 1 1 - 1 - 1 - } 1 $ @ @ . [ [ [ 3 3 [ +   [ . @ 1 1 0 n e T a 5 ; h @ @ 2 @ @ @ @ $ $ % 5 & p L _ z a : { {   + , + , + , { ' 6 ' ' 6 ! ' { ,   , , { + . 0 * & z q 5 $ @ @ . < 2 h . .   + @   , + +   + {   { ' 6 { ' 6 ' ' 6 ' { { : , + [ [ @ [ @ 2 - - m # 1 1 - 1 - 1 - } 1 $ @ @ . [ [ [ 3 3 [ +   [ . @ 1 1 0 n e T a 5 ; h @ @ 2 @ @ @ @ $ $ % 5 & p L _ z a : { {   + , + , + , { ' 6 ' ' 6 ! ' { ,   , , { + . 0 * & z q 5 $ @ @ . < 2 h . .   + @   , + +   + {   { ' 6 { ' 6 ' ' 6 ' { { : , + [ [ @ [ @ 2 - - m # 1 1 - 1 - 1 - } 1 $ @ @ . [ [ [ 3 3 [ +   [ . @ 1 1 0 n e T a 5 ; h @ @ 2 @ @ @ @ $ $ % 5 & p L _ z a : { {   + , + , + , { ' 6 ' ' 6 ! ",
"' ' v + +   + + + , { { 6 ! ' { { ' { , > { + + < $ e * ( a 0 $ 9 9 . + < + + . 2 @ # @ @ . < < + [ + { > ' > ! ' 6 ! A {   > : , + . + [ 2 3 @ $ 2 @ 2 9 $ 1 1 - n 5 1 0 2 U . @   + + [ . + { + [ , @ [ 1 } = I & * l ; $ # 2 @ @ 9 @ # # 0 $ - a j _ b t j : ' ' v + +   + + + , { { 6 ! ' { { ' { , > { + + < $ e * ( a 0 $ 9 9 . + < + + . 2 @ # @ @ . < < + [ + { > ' > ! ' 6 ! A {   > : , + . + [ 2 3 @ $ 2 @ 2 9 $ 1 1 - n 5 1 0 2 U . @   + + [ . + { + [ , @ [ 1 } = I & * l ; $ # 2 @ @ 9 @ # # 0 $ - a j _ b t j : ' ' v + +   + + + , { { 6 ! ' { { ' { , > { + + < $ e * ( a 0 $ 9 9 . + < + + . 2 @ # @ @ . < < + [ + { > ' > ! ' 6 ! A {   > : , + . + [ 2 3 @ $ 2 @ 2 9 $ 1 1 - n 5 1 0 2 U . @   + + [ . + { + [ , @ [ 1 } = I & * l ; $ # 2 @ @ 9 @ # # 0 $ - a j _ b t j : ' ' v + +   + + + , { { 6 ! ' { ",
", 3 . # m $ [ {     6 { ' { ' o ' { , { , { , > [ 2 ; } - 0 - 0 2 m @ . + . $ $ 1 $ $ $ 0 $ 0 @ $ . @ . . + ,   { > > , , { + :   + [ + [ [ . @ [ # @ @ 2 $ m - - l | } 1 1 @ 2 + + + , + [   + { , B   [ @ 1 - l F a 4 0 $ $ 9 $ 2 @ $ @ @ @ $ 0 0 l q j L p : , 3 . # m $ [ {     6 { ' { ' o ' { , { , { , > [ 2 ; } - 0 - 0 2 m @ . + . $ $ 1 $ $ $ 0 $ 0 @ $ . @ . . + ,   { > > , , { + :   + [ + [ [ . @ [ # @ @ 2 $ m - - l | } 1 1 @ 2 + + + , + [   + { , B   [ @ 1 - l F a 4 0 $ $ 9 $ 2 @ $ @ @ @ $ 0 0 l q j L p : , 3 . # m $ [ {     6 { ' { ' o ' { , { , { , > [ 2 ; } - 0 - 0 2 m @ . + . $ $ 1 $ $ $ 0 $ 0 @ $ . @ . . + ,   { > > , , { + :   + [ + [ [ . @ [ # @ @ 2 $ m - - l | } 1 1 @ 2 + + + , + [   + { , B   [ @ 1 - l F a 4 0 $ $ 9 $ 2 @ $ @ @ @ $ 0 0 l q j L p : , 3 . # m $ [ {     6 { ' { ' o ",
"{ @ 2 $ 1 . +   @ , { ' 6 ! ! ) { 6 { , ' { { ,   @ @ # $ 0 0 0 @ @ . @ @ @ 1 $ ; 0 - 4 % 0 - ; $ # @ 9 @ 3 . > , {   { {   + :   , @ [ 3 . . [ [ @ 3 . @ 2 m ; 5 - } ; | - m 2 . + , +   , , + [ +   + [ . @ 1 - l z a 0 0 $ 2 $ # # m # $ $ # $ 0 0 - 4 z j : { @ 2 $ 1 . +   @ , { ' 6 ! ! ) { 6 { , ' { { ,   @ @ # $ 0 0 0 @ @ . @ @ @ 1 $ ; 0 - 4 % 0 - ; $ # @ 9 @ 3 . > , {   { {   + :   , @ [ 3 . . [ [ @ 3 . @ 2 m ; 5 - } ; | - m 2 . + , +   , , + [ +   + [ . @ 1 - l z a 0 0 $ 2 $ # # m # $ $ # $ 0 0 - 4 z j : { @ 2 $ 1 . +   @ , { ' 6 ! ! ) { 6 { , ' { { ,   @ @ # $ 0 0 0 @ @ . @ @ @ 1 $ ; 0 - 4 % 0 - ; $ # @ 9 @ 3 . > , {   { {   + :   , @ [ 3 . . [ [ @ 3 . @ 2 m ; 5 - } ; | - m 2 . + , +   , , + [ +   + [ . @ 1 - l z a 0 0 $ 2 $ # # m # $ $ # $ 0 0 - 4 z j : { @ 2 $ 1 . +   @ , { ' 6 ! ! ) ",
"2 2 } 2 [ @ 2 [ + + ' { { 6 ' ! { { , { v   { + + + . @ $ - $ 2 $ # @ 2 # 2 # 0 - 4 a = = = 0 0 $ 0 = 0 0 0 $ @ + , + + + @ @ : + [ [   [ [ + 3 + . @ $ @ 2 # 5 ; 1 1 $ 2 $ 1 2 @ . , > [ v + [   , + + + 2 @ . - 4 F y = 0 $ $ 1 $ $ $ $ $ 2 $ $ $ ; $ r 5 % : 2 2 } 2 [ @ 2 [ + + ' { { 6 ' ! { { , { v   { + + + . @ $ - $ 2 $ # @ 2 # 2 # 0 - 4 a = = = 0 0 $ 0 = 0 0 0 $ @ + , + + + @ @ : + [ [   [ [ + 3 + . @ $ @ 2 # 5 ; 1 1 $ 2 $ 1 2 @ . , > [ v + [   , + + + 2 @ . - 4 F y = 0 $ $ 1 $ $ $ $ $ 2 $ $ $ ; $ r 5 % : 2 2 } 2 [ @ 2 [ + + ' { { 6 ' ! { { , { v   { + + + . @ $ - $ 2 $ # @ 2 # 2 # 0 - 4 a = = = 0 0 $ 0 = 0 0 0 $ @ + , + + + @ @ : + [ [   [ [ + 3 + . @ $ @ 2 # 5 ; 1 1 $ 2 $ 1 2 @ . , > [ v + [   , + + + 2 @ . - 4 F y = 0 $ $ 1 $ $ $ $ $ 2 $ $ $ ; $ r 5 % : 2 2 } 2 [ @ 2 [ + + ' { { 6 ' ! ",
"[ 2 [ + [ + @ [ v { { 6 ! ! 6 { ' , , , + , { , { + @ + 2 $ @ $ 2 } 1 1 $ m c c g * * * * y 4 = - - 4 * 4 4 - @ @ +   [ @ 2 # : , @ . + [ 3 . @ + . [ 2 @ 2 $ # 1 m $ @ 1 2 k @ 2 2 [ + + + { { + , + , [ < @ @ $ 5 * z a % 0 0 0 - 0 0 0 $ # $ # $ 2 # @ 2 $ : [ 2 [ + [ + @ [ v { { 6 ! ! 6 { ' , , , + , { , { + @ + 2 $ @ $ 2 } 1 1 $ m c c g * * * * y 4 = - - 4 * 4 4 - @ @ +   [ @ 2 # : , @ . + [ 3 . @ + . [ 2 @ 2 $ # 1 m $ @ 1 2 k @ 2 2 [ + + + { { + , + , [ < @ @ $ 5 * z a % 0 0 0 - 0 0 0 $ # $ # $ 2 # @ 2 $ : [ 2 [ + [ + @ [ v { { 6 ! ! 6 { ' , , , + , { , { + @ + 2 $ @ $ 2 } 1 1 $ m c c g * * * * y 4 = - - 4 * 4 4 - @ @ +   [ @ 2 # : , @ . + [ 3 . @ + . [ 2 @ 2 $ # 1 m $ @ 1 2 k @ 2 2 [ + + + { { + , + , [ < @ @ $ 5 * z a % 0 0 0 - 0 0 0 $ # $ # $ 2 # @ 2 $ : [ 2 [ + [ + @ [ v { { 6 ! ! 6 { ",
"+ + , + + v   , { { 6 { ' ! A 6 { { { { , v { + + + + < @ @ m 1 1 - 4 k - 1 - g c s e z e e e - = = = q = - 0 $ @ @ @ 2 ; } $ : < [ @ . . @ [ + [ + + . + @ [ 2 @ @ 2 $ @ 0 2 1 # @ 3 @   + {   { +   .   [ [ @ 2 ; - * s y 4 = l % = = - } ; m $ # @ @ @ [ @ : + + , + + v   , { { 6 { ' ! A 6 { { { { , v { + + + + < @ @ m 1 1 - 4 k - 1 - g c s e z e e e - = = = q = - 0 $ @ @ @ 2 ; } $ : < [ @ . . @ [ + [ + + . + @ [ 2 @ @ 2 $ @ 0 2 1 # @ 3 @   + {   { +   .   [ [ @ 2 ; - * s y 4 = l % = = - } ; m $ # @ @ @ [ @ : + + , + + v   , { { 6 { ' ! A 6 { { { { , v { + + + + < @ @ m 1 1 - 4 k - 1 - g c s e z e e e - = = = q = - 0 $ @ @ @ 2 ; } $ : < [ @ . . @ [ + [ + + . + @ [ 2 @ @ 2 $ @ 0 2 1 # @ 3 @   + {   { +   .   [ [ @ 2 ; - * s y 4 = l % = = - } ; m $ # @ @ @ [ @ : + + , + + v   , { { 6 { ' ! A 6 ",
"+ ' + { , , + +   , { { 6 ! { 6 ' { ,   +     +   @ + [ . @ . 0 k n N N - 2 $ } % * F * e s z l e e F a c 0 1 ; 1 1 0 1 - 4 4 : @ @ 2 @ @ [ @ [   [ + [ . . 3 < . . @ $ 1 1 1 0 1 k | 2 [ v + , +   . + 3 + . @ @ 1 $ 4 s z e * j e F 4 0 ; $ $ $ 2 @ @ . @ + : + ' + { , , + +   , { { 6 ! { 6 ' { ,   +     +   @ + [ . @ . 0 k n N N - 2 $ } % * F * e s z l e e F a c 0 1 ; 1 1 0 1 - 4 4 : @ @ 2 @ @ [ @ [   [ + [ . . 3 < . . @ $ 1 1 1 0 1 k | 2 [ v + , +   . + 3 + . @ @ 1 $ 4 s z e * j e F 4 0 ; $ $ $ 2 @ @ . @ + : + ' + { , , + +   , { { 6 ! { 6 ' { ,   +     +   @ + [ . @ . 0 k n N N - 2 $ } % * F * e s z l e e F a c 0 1 ; 1 1 0 1 - 4 4 : @ @ 2 @ @ [ @ [   [ + [ . . 3 < . . @ $ 1 1 1 0 1 k | 2 [ v + , +   . + 3 + . @ @ 1 $ 4 s z e * j e F 4 0 ; $ $ $ 2 @ @ . @ + : + ' + { , , + +   , { { 6 ! { 6 ",
"{ { , ' , > , , , ' 6 ! ' ! ' ! { '   v +   , + [ . [ < . 2 . 2 - 1 1 1 ; 1 2 # 1 0 / y e z / a * / * * f % - - - S c 4 - } - : 2 # # $ [ @ . @ 3 < @ . + @ @ [ @ @ @ @ ; - 5 - - - - $ @ < { + + + + [ [ . 3 [ . m $ = * t z q q * y ^ } $ $ # 2 @ @ [ + . + : { { , ' , > , , , ' 6 ! ' ! ' ! { '   v +   , + [ . [ < . 2 . 2 - 1 1 1 ; 1 2 # 1 0 / y e z / a * / * * f % - - - S c 4 - } - : 2 # # $ [ @ . @ 3 < @ . + @ @ [ @ @ @ @ ; - 5 - - - - $ @ < { + + + + [ [ . 3 [ . m $ = * t z q q * y ^ } $ $ # 2 @ @ [ + . + : { { , ' , > , , , ' 6 ! ' ! ' ! { '   v +   , + [ . [ < . 2 . 2 - 1 1 1 ; 1 2 # 1 0 / y e z / a * / * * f % - - - S c 4 - } - : 2 # # $ [ @ . @ 3 < @ . + @ @ [ @ @ @ @ ; - 5 - - - - $ @ < { + + + + [ [ . 3 [ . m $ = * t z q q * y ^ } $ $ # 2 @ @ [ + . + : { { , ' , > , , , ' 6 ! ' ! ' ! ",
"{ , { { ' , + @ + , { ' ! { ' ' { { , +   v + [ + . . 2 @ 2 1 2 J 2 2 $ 2 1 # 2 0 = * z s y a - = = - 4 4 - g 5 0 - % 5 = - - : ; $ $ # $ @ @ . @ . @ @ [ @ [ . [ $ . $ } * 4 - = 5 1 $ J 2   [ { , @ 2 2 +   < [ @ # 0 f T V j a = % 0 $ 2 @ . @ + + + + + , : { , { { ' , + @ + , { ' ! { ' ' { { , +   v + [ + . . 2 @ 2 1 2 J 2 2 $ 2 1 # 2 0 = * z s y a - = = - 4 4 - g 5 0 - % 5 = - - : ; $ $ # $ @ @ . @ . @ @ [ @ [ . [ $ . $ } * 4 - = 5 1 $ J 2   [ { , @ 2 2 +   < [ @ # 0 f T V j a = % 0 $ 2 @ . @ + + + + + , : { , { { ' , + @ + , { ' ! { ' ' { { , +   v + [ + . . 2 @ 2 1 2 J 2 2 $ 2 1 # 2 0 = * z s y a - = = - 4 4 - g 5 0 - % 5 = - - : ; $ $ # $ @ @ . @ . @ @ [ @ [ . [ $ . $ } * 4 - = 5 1 $ J 2   [ { , @ 2 2 +   < [ @ # 0 f T V j a = % 0 $ 2 @ . @ + + + + + , : { , { { ' , + @ + , { ' ! { ' ' ",
"v ' { , ' { ' { + { + {   { { {   +   + + + . @ . 3 [ @ 2 [ 1 2 # @ @ 2 @ @ @ @ $ W F * e ( 4 = 0 - 0 $ 0 1 $ $ 0 % - 5 4 0 $ : 0 0 1 $ $ # m $ @ 9 @ 1 @ @ @ @ # @ m # ; = y * a 4 0 $ # 2 @ . . + + @ 2 . @ + . @ $ 1 = T s z a = 5 $ # @ @ @ @ + + , [ { , : v ' { , ' { ' { + { + {   { { {   +   + + + . @ . 3 [ @ 2 [ 1 2 # @ @ 2 @ @ @ @ $ W F * e ( 4 = 0 - 0 $ 0 1 $ $ 0 % - 5 4 0 $ : 0 0 1 $ $ # m $ @ 9 @ 1 @ @ @ @ # @ m # ; = y * a 4 0 $ # 2 @ . . + + @ 2 . @ + . @ $ 1 = T s z a = 5 $ # @ @ @ @ + + , [ { , : v ' { , ' { ' { + { + {   { { {   +   + + + . @ . 3 [ @ 2 [ 1 2 # @ @ 2 @ @ @ @ $ W F * e ( 4 = 0 - 0 $ 0 1 $ $ 0 % - 5 4 0 $ : 0 0 1 $ $ # m $ @ 9 @ 1 @ @ @ @ # @ m # ; = y * a 4 0 $ # 2 @ . . + + @ 2 . @ + . @ $ 1 = T s z a = 5 $ # @ @ @ @ + + , [ { , : v ' { , ' { ' { + { + {   { { { ",
"' , 6 + { , { v , @ + , + { , v + + + . @ @ @ # 3 . 2 2 [ @ 3 [ @ [ . @ . @ @ @ 2 - 5 X s t q l 0 ; $ $ $ @ $ 1 - - = - 0 2 2 : a 4 = ^ ; } ; $ $ $ ; # $ $ 2 @ 2 @ 9 $ r - F z q 4 - 0 $ m 2 2 [ + [ [ [ 3 @ . [ @ # $ - l z s * % 0 ; $ @ @ [ + ,   + +   ' : ' , 6 + { , { v , @ + , + { , v + + + . @ @ @ # 3 . 2 2 [ @ 3 [ @ [ . @ . @ @ @ 2 - 5 X s t q l 0 ; $ $ $ @ $ 1 - - = - 0 2 2 : a 4 = ^ ; } ; $ $ $ ; # $ $ 2 @ 2 @ 9 $ r - F z q 4 - 0 $ m 2 2 [ + [ [ [ 3 @ . [ @ # $ - l z s * % 0 ; $ @ @ [ + ,   + +   ' : ' , 6 + { , { v , @ + , + { , v + + + . @ @ @ # 3 . 2 2 [ @ 3 [ @ [ . @ . @ @ @ 2 - 5 X s t q l 0 ; $ $ $ @ $ 1 - - = - 0 2 2 : a 4 = ^ ; } ; $ $ $ ; # $ $ 2 @ 2 @ 9 $ r - F z q 4 - 0 $ m 2 2 [ + [ [ [ 3 @ . [ @ # $ - l z s * % 0 ; $ @ @ [ + ,   + +   ' : ' , 6 + { , { v , @ + , + { , v ",
"o { {   { > + , + + + < + + < . @ @ $ 0 1 2 2 @ 2 2 m 2 [ . + + { + + @ 2 $ 2 # $ 0 0 - a E G z 0 1 1 $ $ $ $ $ = * } $ $ @ # : z F a 4 4 = = - N % 0 - 0 ; 0 $ 1 9 1 $ 0 - a j * a = - ; $ @ 2 # [ C @ @ @ 2 @ @ # @ 1 0 0 f W l 4 5 0 2 @ . + + [ + , ' o ' : o { {   { > + , + + + < + + < . @ @ $ 0 1 2 2 @ 2 2 m 2 [ . + + { + + @ 2 $ 2 # $ 0 0 - a E G z 0 1 1 $ $ $ $ $ = * } $ $ @ # : z F a 4 4 = = - N % 0 - 0 ; 0 $ 1 9 1 $ 0 - a j * a = - ; $ @ 2 # [ C @ @ @ 2 @ @ # @ 1 0 0 f W l 4 5 0 2 @ . + + [ + , ' o ' : o { {   { > + , + + + < + + < . @ @ $ 0 1 2 2 @ 2 2 m 2 [ . + + { + + @ 2 $ 2 # $ 0 0 - a E G z 0 1 1 $ $ $ $ $ = * } $ $ @ # : z F a 4 4 = = - N % 0 - 0 ; 0 $ 1 9 1 $ 0 - a j * a = - ; $ @ 2 # [ C @ @ @ 2 @ @ # @ 1 0 0 f W l 4 5 0 2 @ . + + [ + , ' o ' : o { {   { > + , + + + < + + < . ",
"{ { { { , { + + . @ @ 2 @ @ 1 m $ ; 0 * 5 1 @ 2 1 3 2 , +   + +   , +   [ @ @ # $ $ 1 = * T p l - 0 0 1 m 2 $ 0 c } - 2 2 $ [ : z F & z & j & e e e ( a a - 0 ^ 0 $ 0 $ ; 0 4 * & * l l % 0 0 # $ 2 2 # @ $ . 2 $ 2 $ $ # 0 5 = - = = - $ 2 @ < +   , { , , 6 : { { { { , { + + . @ @ 2 @ @ 1 m $ ; 0 * 5 1 @ 2 1 3 2 , +   + +   , +   [ @ @ # $ $ 1 = * T p l - 0 0 1 m 2 $ 0 c } - 2 2 $ [ : z F & z & j & e e e ( a a - 0 ^ 0 $ 0 $ ; 0 4 * & * l l % 0 0 # $ 2 2 # @ $ . 2 $ 2 $ $ # 0 5 = - = = - $ 2 @ < +   , { , , 6 : { { { { , { + + . @ @ 2 @ @ 1 m $ ; 0 * 5 1 @ 2 1 3 2 , +   + +   , +   [ @ @ # $ $ 1 = * T p l - 0 0 1 m 2 $ 0 c } - 2 2 $ [ : z F & z & j & e e e ( a a - 0 ^ 0 $ 0 $ ; 0 4 * & * l l % 0 0 # $ 2 2 # @ $ . 2 $ 2 $ $ # 0 5 = - = = - $ 2 @ < +   , { , , 6 : { { { { , { + + . @ @ 2 @ @ 1 m ",
"    v > [ + + . @ $ ; l 0 0 0 4 4 e l 4 $ $ # 2 2 [ . + + ,     v   , + . . @ 2 0 # 1 0 * s F 4 0 - 0 1 # @ 1 1 $ 1 $ 2 m @ . : * * z z q T Y b b L t s e * y 4 = 4 N - 0 = = a & z j e a = ^ 0 0 ; ; 0 $ # $ 2 # 0 $ $ $ $ $ $ 0 n y 4 1 $ % +   + { + , { { :     v > [ + + . @ $ ; l 0 0 0 4 4 e l 4 $ $ # 2 2 [ . + + ,     v   , + . . @ 2 0 # 1 0 * s F 4 0 - 0 1 # @ 1 1 $ 1 $ 2 m @ . : * * z z q T Y b b L t s e * y 4 = 4 N - 0 = = a & z j e a = ^ 0 0 ; ; 0 $ # $ 2 # 0 $ $ $ $ $ $ 0 n y 4 1 $ % +   + { + , { { :     v > [ + + . @ $ ; l 0 0 0 4 4 e l 4 $ $ # 2 2 [ . + + ,     v   , + . . @ 2 0 # 1 0 * s F 4 0 - 0 1 # @ 1 1 $ 1 $ 2 m @ . : * * z z q T Y b b L t s e * y 4 = 4 N - 0 = = a & z j e a = ^ 0 0 ; ; 0 $ # $ 2 # 0 $ $ $ $ $ $ 0 n y 4 1 $ % +   + { + , { { :     v > [ + + . @ $ ; l 0 0 0 4 ",
"+ v   + + $ 0 $ 0 0 4 e q j q z z * - } 1 2 2 J 2 @ + [ { , { , , { { + [ + @ 2 $ $ ; c g - % 5 0 m 1 $ 2 2 @ 2 1 1 2 @ @ . + : 0 4 l a y j E L : : p L b : L & z * * l g - a * & O b u & a 4 a = a 4 - 0 0 $ 0 - 1 - 0 - $ $ $ ; = W l ; $ @ [ + { + , , { ! : + v   + + $ 0 $ 0 0 4 e q j q z z * - } 1 2 2 J 2 @ + [ { , { , , { { + [ + @ 2 $ $ ; c g - % 5 0 m 1 $ 2 2 @ 2 1 1 2 @ @ . + : 0 4 l a y j E L : : p L b : L & z * * l g - a * & O b u & a 4 a = a 4 - 0 0 $ 0 - 1 - 0 - $ $ $ ; = W l ; $ @ [ + { + , , { ! : + v   + + $ 0 $ 0 0 4 e q j q z z * - } 1 2 2 J 2 @ + [ { , { , , { { + [ + @ 2 $ $ ; c g - % 5 0 m 1 $ 2 2 @ 2 1 1 2 @ @ . + : 0 4 l a y j E L : : p L b : L & z * * l g - a * & O b u & a 4 a = a 4 - 0 0 $ 0 - 1 - 0 - $ $ $ ; = W l ; $ @ [ + { + , , { ! : + v   + + $ 0 $ 0 0 4 e q j q z ",
"+ C @ @ $ @ ; a l e e q f s 4 - = - $ $ @ # 1 1 @     + ,   , + > > +   B + . @ $ # 1 1 $ 0 - ; $ # $ 9 9 @ @ < 2 $ 1 2 { + + : $ 0 ^ = a t : p & L t L p Z q z z t z s e l e z & t u T ` & & _ L p _ e 4 - 0 0 0 } - l - } 1 ; $ - 4 4 - 1 2 < +   , { , ' 6 : + C @ @ $ @ ; a l e e q f s 4 - = - $ $ @ # 1 1 @     + ,   , + > > +   B + . @ $ # 1 1 $ 0 - ; $ # $ 9 9 @ @ < 2 $ 1 2 { + + : $ 0 ^ = a t : p & L t L p Z q z z t z s e l e z & t u T ` & & _ L p _ e 4 - 0 0 0 } - l - } 1 ; $ - 4 4 - 1 2 < +   , { , ' 6 : + C @ @ $ @ ; a l e e q f s 4 - = - $ $ @ # 1 1 @     + ,   , + > > +   B + . @ $ # 1 1 $ 0 - ; $ # $ 9 9 @ @ < 2 $ 1 2 { + + : $ 0 ^ = a t : p & L t L p Z q z z t z s e l e z & t u T ` & & _ L p _ e 4 - 0 0 0 } - l - } 1 ; $ - 4 4 - 1 2 < +   , { , ' 6 : + C @ @ $ @ ; a l e e q f s 4 - ",
"[ [ + . @ @ 1 * 0 - - 0 % 1 0 0 k 1 1 1 1 $ 0 1 @ +   { { { A , v   { + , + + + [ 1 $ # $ $ 1 $ # @ 2 @ @ @ . @ @ @ . + +   , : @ 0 1 0 = z : t j z q j q q e a / = 4 = = 4 * z L t L u  .L  .G u u t H e = - 0 ; 0 $ 0 - 0 ; 0 0 } 4 5 0 $ m . 3 + { , { , ! : [ [ + . @ @ 1 * 0 - - 0 % 1 0 0 k 1 1 1 1 $ 0 1 @ +   { { { A , v   { + , + + + [ 1 $ # $ $ 1 $ # @ 2 @ @ @ . @ @ @ . + +   , : @ 0 1 0 = z : t j z q j q q e a / = 4 = = 4 * z L t L u  .L  .G u u t H e = - 0 ; 0 $ 0 - 0 ; 0 0 } 4 5 0 $ m . 3 + { , { , ! : [ [ + . @ @ 1 * 0 - - 0 % 1 0 0 k 1 1 1 1 $ 0 1 @ +   { { { A , v   { + , + + + [ 1 $ # $ $ 1 $ # @ 2 @ @ @ . @ @ @ . + +   , : @ 0 1 0 = z : t j z q j q q e a / = 4 = = 4 * z L t L u  .L  .G u u t H e = - 0 ; 0 $ 0 - 0 ; 0 0 } 4 5 0 $ m . 3 + { , { , ! : [ [ + . @ @ 1 * 0 - - 0 % 1 0 0 ",
"< @ @ @ $ @ $ $ $ ; @ 0 - $ 1 0 1 1 - 1 - - 2 . [ + { [ + { { { > v   + > . + . 9 9 $ $ $ $ 1 m $ @ m # $ @ @ [   + @ , , { > : 9 1 ; - = = * F q e & s z * * 0 = - l 0 - 0 0 4 4 e q p G E ..+.D : b L z e 4 % 0 0 0 0 - } 0 0 0 0 = - } # 2 @ . [ + , { ' 6 : < @ @ @ $ @ $ $ $ ; @ 0 - $ 1 0 1 1 - 1 - - 2 . [ + { [ + { { { > v   + > . + . 9 9 $ $ $ $ 1 m $ @ m # $ @ @ [   + @ , , { > : 9 1 ; - = = * F q e & s z * * 0 = - l 0 - 0 0 4 4 e q p G E ..+.D : b L z e 4 % 0 0 0 0 - } 0 0 0 0 = - } # 2 @ . [ + , { ' 6 : < @ @ @ $ @ $ $ $ ; @ 0 - $ 1 0 1 1 - 1 - - 2 . [ + { [ + { { { > v   + > . + . 9 9 $ $ $ $ 1 m $ @ m # $ @ @ [   + @ , , { > : 9 1 ; - = = * F q e & s z * * 0 = - l 0 - 0 0 4 4 e q p G E ..+.D : b L z e 4 % 0 0 0 0 - } 0 0 0 0 = - } # 2 @ . [ + , { ' 6 : < @ @ @ $ @ $ $ $ ; @ 0 - $ 1 0 ",
"[ 2 . 2 2 @ $ # @ 2 1 1 5 - - ; k - N 1 k 1 2 @ @ [ + +   +   {   [ { [ + [ + @ @ 1 $ 0 0 n } # 1 - - 0 4 1 [ + , v , , { { 6 : $ # $ r 0 % l * e q a 4 * a l 4 - 0 $ $ 9 $ 0 1 ^ = I q u @.Y  .p : b j t j q l = = 4 - 0 = * 4 4 4 0 % - 0 $ $ @ + + + , { ' : [ 2 . 2 2 @ $ # @ 2 1 1 5 - - ; k - N 1 k 1 2 @ @ [ + +   +   {   [ { [ + [ + @ @ 1 $ 0 0 n } # 1 - - 0 4 1 [ + , v , , { { 6 : $ # $ r 0 % l * e q a 4 * a l 4 - 0 $ $ 9 $ 0 1 ^ = I q u @.Y  .p : b j t j q l = = 4 - 0 = * 4 4 4 0 % - 0 $ $ @ + + + , { ' : [ 2 . 2 2 @ $ # @ 2 1 1 5 - - ; k - N 1 k 1 2 @ @ [ + +   +   {   [ { [ + [ + @ @ 1 $ 0 0 n } # 1 - - 0 4 1 [ + , v , , { { 6 : $ # $ r 0 % l * e q a 4 * a l 4 - 0 $ $ 9 $ 0 1 ^ = I q u @.Y  .p : b j t j q l = = 4 - 0 = * 4 4 4 0 % - 0 $ $ @ + + + , { ' : [ 2 . 2 2 @ $ # @ 2 1 1 5 - - ; ",
". @ 2 $ 0 @ 2 . @ . @ ; 4 1 l k 1 1 1 1 $ 2 @ @ + + +   + { , + + , . . @ + @ 2 $ ; - = * = ; } 0 5 # J @ [ + , { ' ' { { ' ' : h @ ; $ ^ 5 = a e e e c y a 4 = 0 0 $ # @ $ $ ; 5 = a e & p b t e e a a y q I I z F * a l / a z * = 4 = 5 0 - $ # . [ + { , { : . @ 2 $ 0 @ 2 . @ . @ ; 4 1 l k 1 1 1 1 $ 2 @ @ + + +   + { , + + , . . @ + @ 2 $ ; - = * = ; } 0 5 # J @ [ + , { ' ' { { ' ' : h @ ; $ ^ 5 = a e e e c y a 4 = 0 0 $ # @ $ $ ; 5 = a e & p b t e e a a y q I I z F * a l / a z * = 4 = 5 0 - $ # . [ + { , { : . @ 2 $ 0 @ 2 . @ . @ ; 4 1 l k 1 1 1 1 $ 2 @ @ + + +   + { , + + , . . @ + @ 2 $ ; - = * = ; } 0 5 # J @ [ + , { ' ' { { ' ' : h @ ; $ ^ 5 = a e e e c y a 4 = 0 0 $ # @ $ $ ; 5 = a e & p b t e e a a y q I I z F * a l / a z * = 4 = 5 0 - $ # . [ + { , { : . @ 2 $ 0 @ 2 . @ . @ ; 4 1 l k ",
"3 2 1 $ $ 2 . @ 2 3 $ m $ 2 2 $ 2 # m # m $ $ # @ [ +   [ + +   [ < 3 2 + . @ 9 $ = 4 * * l 1 1 2 @ # . v { { ' { , o ' o { ! : # $ $ 1 = * e a z e z a 4 a 4 - - } ; @ 9 < @ $ 0 4 * q ` t _ z a = ^ = = 4 l = 4 a 4 = W q s j T j y a - 4 4 % $ @ @ + +   { : 3 2 1 $ $ 2 . @ 2 3 $ m $ 2 2 $ 2 # m # m $ $ # @ [ +   [ + +   [ < 3 2 + . @ 9 $ = 4 * * l 1 1 2 @ # . v { { ' { , o ' o { ! : # $ $ 1 = * e a z e z a 4 a 4 - - } ; @ 9 < @ $ 0 4 * q ` t _ z a = ^ = = 4 l = 4 a 4 = W q s j T j y a - 4 4 % $ @ @ + +   { : 3 2 1 $ $ 2 . @ 2 3 $ m $ 2 2 $ 2 # m # m $ $ # @ [ +   [ + +   [ < 3 2 + . @ 9 $ = 4 * * l 1 1 2 @ # . v { { ' { , o ' o { ! : # $ $ 1 = * e a z e z a 4 a 4 - - } ; @ 9 < @ $ 0 4 * q ` t _ z a = ^ = = 4 l = 4 a 4 = W q s j T j y a - 4 4 % $ @ @ + +   { : 3 2 1 $ $ 2 . @ 2 3 $ m $ 2 2 $ ",
"[ @ $ 2 @ $ + + @ . 2 2 2 @ @ 2 @ 1 1 @ . @ 1 l ; [ + B , + + + 3 [ 9 $ @ @ 2 $ - * t & * - 1 @ . [ + + 6 { { 6 o ' ! ' 6 { ! : $ 0 0 = a j & y e j & z * = a 0 = 0 } $ . C . @ $ 0 - y _ & q e = = 0 1 0 5 4 4 4 4 4 5 = 4 * q T L & F e = * a 0 $ m < [ { 6 : [ @ $ 2 @ $ + + @ . 2 2 2 @ @ 2 @ 1 1 @ . @ 1 l ; [ + B , + + + 3 [ 9 $ @ @ 2 $ - * t & * - 1 @ . [ + + 6 { { 6 o ' ! ' 6 { ! : $ 0 0 = a j & y e j & z * = a 0 = 0 } $ . C . @ $ 0 - y _ & q e = = 0 1 0 5 4 4 4 4 4 5 = 4 * q T L & F e = * a 0 $ m < [ { 6 : [ @ $ 2 @ $ + + @ . 2 2 2 @ @ 2 @ 1 1 @ . @ 1 l ; [ + B , + + + 3 [ 9 $ @ @ 2 $ - * t & * - 1 @ . [ + + 6 { { 6 o ' ! ' 6 { ! : $ 0 0 = a j & y e j & z * = a 0 = 0 } $ . C . @ $ 0 - y _ & q e = = 0 1 0 5 4 4 4 4 4 5 = 4 * q T L & F e = * a 0 $ m < [ { 6 : [ @ $ 2 @ $ + + @ . 2 2 2 @ @ 2 ",
": : : : : : : : : : : : : : : : : : : : : : : : : : : : : : : : : : : : : : : : : : : : : : : : : : : : : : : : : : : : : : : : : : : : : : : : : : : : : : : : : : : : : : : : : : : : : : : : : : : : : : : : : : : : : : : : : : : : : : : : : : : : : : : : : : : : : : : : : : : : : : : : : : : : : : : : : : : : : : : : : : : : : : : : : : : : : : : : : : : : : : : : : : : : : : : : : : : : : : : : : : : : : : : : : : : : : : : : : : : : : : : : : : : : : : : : : : : : : : : : : : : : : : : : : : : : : : : : : : : : : : : : : : : : : : : : : : : : : : : : : : : : : : : : : : : : : : : : : : : : : : : : : : : : : : : : : : : : : : : : : : : : : : : : : : : : : : : : : : : : : : : : : : : : : : : : : : : : : : : : : : : : : : : : : : : : : : : : : : : : : : : : : : : : : : : : : : : : : : : : ",
",   { ' ! ! { { , ' v . C { { { {   + . m $ 1 = = e q & * a N 0 0 $ $ $ 0 = 4 & p ` & j _ t j X a y ^ 0 0 $ = 4 0 $ $ @ @ 9 < : g e #.L #.p E $.$.$.Z W = N = = a F 4 $ ; @ @ C [ > B   + B < @ 9 $ ; r 0 r ; r ^ N $ ^ N 0 ; $ ; $ C < < + > B > > [ < 9 < 2 : ,   { ' ! ! { { , ' v . C { { { {   + . m $ 1 = = e q & * a N 0 0 $ $ $ 0 = 4 & p ` & j _ t j X a y ^ 0 0 $ = 4 0 $ $ @ @ 9 < : g e #.L #.p E $.$.$.Z W = N = = a F 4 $ ; @ @ C [ > B   + B < @ 9 $ ; r 0 r ; r ^ N $ ^ N 0 ; $ ; $ C < < + > B > > [ < 9 < 2 : ,   { ' ! ! { { , ' v . C { { { {   + . m $ 1 = = e q & * a N 0 0 $ $ $ 0 = 4 & p ` & j _ t j X a y ^ 0 0 $ = 4 0 $ $ @ @ 9 < : g e #.L #.p E $.$.$.Z W = N = = a F 4 $ ; @ @ C [ > B   + B < @ 9 $ ; r 0 r ; r ^ N $ ^ N 0 ; $ ; $ C < < + > B > > [ < 9 < 2 : ,   { ' ! ! { { , ' v . C { { { ",
"+ v { ,   { { { { { [ [ [ ' { { [ + + @ # $ 0 - 0 = a l q q * ^ $ $ $ # $ - 5 = y e p L w D D u ` a 5 ^ 0 ^ 0 a = 0 ; # @ @ @ : = = / a a I Z %.&.Z V I g / 4 * * / 0 $ ; 2 @ < C . + < < @ @ } 0 ; $ ; ; h ; $ ; 0 ^ ; 0 % = $ 9 9 < + < > > > + ] > < < C < : + v { ,   { { { { { [ [ [ ' { { [ + + @ # $ 0 - 0 = a l q q * ^ $ $ $ # $ - 5 = y e p L w D D u ` a 5 ^ 0 ^ 0 a = 0 ; # @ @ @ : = = / a a I Z %.&.Z V I g / 4 * * / 0 $ ; 2 @ < C . + < < @ @ } 0 ; $ ; ; h ; $ ; 0 ^ ; 0 % = $ 9 9 < + < > > > + ] > < < C < : + v { ,   { { { { { [ [ [ ' { { [ + + @ # $ 0 - 0 = a l q q * ^ $ $ $ # $ - 5 = y e p L w D D u ` a 5 ^ 0 ^ 0 a = 0 ; # @ @ @ : = = / a a I Z %.&.Z V I g / 4 * * / 0 $ ; 2 @ < C . + < < @ @ } 0 ; $ ; ; h ; $ ; 0 ^ ; 0 % = $ 9 9 < + < > > > + ] > < < C < : + v { ,   { { { { { [ [ [ ' { { ",
"+   { v ,   { { ,   + +   v + ' { { [ [ 2 @ 0 0 = - 0 = 4 e j a = ; ; $ m 1 0 - a e O : b @.G : & a g - ^ 5 = 4 a 0 ; $ # @ < : 0 ^ 0 0 ; = I V #.W I a a * a a % r ; ; 9 9 < @ @ < @ + < 9 = ; 0 0 ; N a ; 9 $ N ; $ ; $ ; ; 9 C . < < > *.> A > { > < *.> > : +   { v ,   { { ,   + +   v + ' { { [ [ 2 @ 0 0 = - 0 = 4 e j a = ; ; $ m 1 0 - a e O : b @.G : & a g - ^ 5 = 4 a 0 ; $ # @ < : 0 ^ 0 0 ; = I V #.W I a a * a a % r ; ; 9 9 < @ @ < @ + < 9 = ; 0 0 ; N a ; 9 $ N ; $ ; $ ; ; 9 C . < < > *.> A > { > < *.> > : +   { v ,   { { ,   + +   v + ' { { [ [ 2 @ 0 0 = - 0 = 4 e j a = ; ; $ m 1 0 - a e O : b @.G : & a g - ^ 5 = 4 a 0 ; $ # @ < : 0 ^ 0 0 ; = I V #.W I a a * a a % r ; ; 9 9 < @ @ < @ + < 9 = ; 0 0 ; N a ; 9 $ N ; $ ; $ ; ; 9 C . < < > *.> A > { > < *.> > : +   { v ,   { { ,   + +   v + ' ",
"@ [   + , { { , , v + [ { , { + , , + 2 2 $ 1 0 - = N 0 1 = y & a & 4 } ; 1 0 0 4 e j b u p _ L p V g N = % = a a = 0 $ # @ @ : r ; ; ; ; N g I e I g / z g g ^ r ; ; $ h $ 9 9 9 C 9 . @ @ ; h ; ; $ 0 ^ # h ; ; $ ; 9 9 9 C @ < < B > > ' { ' > ' ' *.' > ' : @ [   + , { { , , v + [ { , { + , , + 2 2 $ 1 0 - = N 0 1 = y & a & 4 } ; 1 0 0 4 e j b u p _ L p V g N = % = a a = 0 $ # @ @ : r ; ; ; ; N g I e I g / z g g ^ r ; ; $ h $ 9 9 9 C 9 . @ @ ; h ; ; $ 0 ^ # h ; ; $ ; 9 9 9 C @ < < B > > ' { ' > ' ' *.' > ' : @ [   + , { { , , v + [ { , { + , , + 2 2 $ 1 0 - = N 0 1 = y & a & 4 } ; 1 0 0 4 e j b u p _ L p V g N = % = a a = 0 $ # @ @ : r ; ; ; ; N g I e I g / z g g ^ r ; ; $ h $ 9 9 9 C 9 . @ @ ; h ; ; $ 0 ^ # h ; ; $ ; 9 9 9 C @ < < B > > ' { ' > ' ' *.' > ' : @ [   + , { { , , v + [ { , { + ",
"[ $ 3   { ' v   + { [ > + ' , { v   [ @ $ # $ 0 0 0 0 1 $ } = a z e & a 0 ; $ 0 a * t & _ e e q #.& q a = 0 = * j * = ; @ 9 @ : # $ ; N N a g ( I ( g N % ^ 0 ; | ; $ ; # ; $ r ; $ 9 @ @ < 9 @ 9 9 9 = ; | 0 9 ; 9 ; C C < < < < > B > { ' > > { > A ' { *.A : [ $ 3   { ' v   + { [ > + ' , { v   [ @ $ # $ 0 0 0 0 1 $ } = a z e & a 0 ; $ 0 a * t & _ e e q #.& q a = 0 = * j * = ; @ 9 @ : # $ ; N N a g ( I ( g N % ^ 0 ; | ; $ ; # ; $ r ; $ 9 @ @ < 9 @ 9 9 9 = ; | 0 9 ; 9 ; C C < < < < > B > { ' > > { > A ' { *.A : [ $ 3   { ' v   + { [ > + ' , { v   [ @ $ # $ 0 0 0 0 1 $ } = a z e & a 0 ; $ 0 a * t & _ e e q #.& q a = 0 = * j * = ; @ 9 @ : # $ ; N N a g ( I ( g N % ^ 0 ; | ; $ ; # ; $ r ; $ 9 @ @ < 9 @ 9 9 9 = ; | 0 9 ; 9 ; C C < < < < > B > { ' > > { > A ' { *.A : [ $ 3   { ' v   + { [ > + ' , { ",
"+ 2 @ + + { + v     [ , , { { , {   [ 2 2 2 1 0 0 0 1 - 0 1 1 = = = a e = 5 ; 0 0 a & j & I a a a a & V a = / F z j 4 0 $ @ . : ; r 0 g ( V a S = = ^ 0 ; h ; $ m $ $ 0 5 1 5 0 0 $ h $ C @ C @ C @ C $ 0 $ 9 } r $ C 9 [ @ < + + > < { *.{ B + > > > > > A > : + 2 @ + + { + v     [ , , { { , {   [ 2 2 2 1 0 0 0 1 - 0 1 1 = = = a e = 5 ; 0 0 a & j & I a a a a & V a = / F z j 4 0 $ @ . : ; r 0 g ( V a S = = ^ 0 ; h ; $ m $ $ 0 5 1 5 0 0 $ h $ C @ C @ C @ C $ 0 $ 9 } r $ C 9 [ @ < + + > < { *.{ B + > > > > > A > : + 2 @ + + { + v     [ , , { { , {   [ 2 2 2 1 0 0 0 1 - 0 1 1 = = = a e = 5 ; 0 0 a & j & I a a a a & V a = / F z j 4 0 $ @ . : ; r 0 g ( V a S = = ^ 0 ; h ; $ m $ $ 0 5 1 5 0 0 $ h $ C @ C @ C @ C $ 0 $ 9 } r $ C 9 [ @ < + + > < { *.{ B + > > > > > A > : + 2 @ + + { + v     [ , , { { , ",
"+ @ . 1 [ , { v + + + + > , , { , [ $ 2 | $ $ 0 ; 0 0 - = 0 0 } $ 0 ^ 0 ( a = - } = e _ t e a l N ^ a & e g 4 * s & l % 9 @ < : 0 = / y e =.g n ^ N r | 9 9 9 2 9 9 9 1 0 N ^ 0 ; 0 $ < 9 < @ < @ @ 9 9 h 9 9 0 = ; 9 < < < B < + B > +   {   < B + C > < B { : + @ . 1 [ , { v + + + + > , , { , [ $ 2 | $ $ 0 ; 0 0 - = 0 0 } $ 0 ^ 0 ( a = - } = e _ t e a l N ^ a & e g 4 * s & l % 9 @ < : 0 = / y e =.g n ^ N r | 9 9 9 2 9 9 9 1 0 N ^ 0 ; 0 $ < 9 < @ < @ @ 9 9 h 9 9 0 = ; 9 < < < B < + B > +   {   < B + C > < B { : + @ . 1 [ , { v + + + + > , , { , [ $ 2 | $ $ 0 ; 0 0 - = 0 0 } $ 0 ^ 0 ( a = - } = e _ t e a l N ^ a & e g 4 * s & l % 9 @ < : 0 = / y e =.g n ^ N r | 9 9 9 2 9 9 9 1 0 N ^ 0 ; 0 $ < 9 < @ < @ @ 9 9 h 9 9 0 = ; 9 < < < B < + B > +   {   < B + C > < B { : + @ . 1 [ , { v + + + + > , , { ",
"[ . [ [ + +   + 2 [ [ + , { , ' + + 3 2 | 2 $ $ ; 5 = = c 4 0 ; $ $ $ 0 5 = l ^ 0 0 a s L z a = $ r - a a / = l e z = $ 9 2 < : I a a a I I ^ ; ^ r ; h @ 9 9 @ @ h r - a - } = 0 0 0 ; @ @ + 9 @ < 2 @ h $ ; y g 0 $ + + + < + < + + > B < + + [ < + @ @ @ < : [ . [ [ + +   + 2 [ [ + , { , ' + + 3 2 | 2 $ $ ; 5 = = c 4 0 ; $ $ $ 0 5 = l ^ 0 0 a s L z a = $ r - a a / = l e z = $ 9 2 < : I a a a I I ^ ; ^ r ; h @ 9 9 @ @ h r - a - } = 0 0 0 ; @ @ + 9 @ < 2 @ h $ ; y g 0 $ + + + < + < + + > B < + + [ < + @ @ @ < : [ . [ [ + +   + 2 [ [ + , { , ' + + 3 2 | 2 $ $ ; 5 = = c 4 0 ; $ $ $ 0 5 = l ^ 0 0 a s L z a = $ r - a a / = l e z = $ 9 2 < : I a a a I I ^ ; ^ r ; h @ 9 9 @ @ h r - a - } = 0 0 0 ; @ @ + 9 @ < 2 @ h $ ; y g 0 $ + + + < + < + + > B < + + [ < + @ @ @ < : [ . [ [ + +   + 2 [ [ + , { , ' ",
"@ @ [ > @ , { + [ $ $ @ [ > v + , , 2 9 - 2 $ 1 0 ^ = 4 a l y = $ $ # $ $ 0 a = - ^ l e q & a = ; $ ; - e g = 4 e = - ; @ @   : g = g I ^ ^ r ; ; ; ; 9 h 2 @ C 9 # $ a 4 ^ 0 ; = z * - h 9 < @ 9 < @ @ 9 9 $ 0 0 ; @ C B   > < + + < @ + 2 @ < < @ @ # $ $ # : @ @ [ > @ , { + [ $ $ @ [ > v + , , 2 9 - 2 $ 1 0 ^ = 4 a l y = $ $ # $ $ 0 a = - ^ l e q & a = ; $ ; - e g = 4 e = - ; @ @   : g = g I ^ ^ r ; ; ; ; 9 h 2 @ C 9 # $ a 4 ^ 0 ; = z * - h 9 < @ 9 < @ @ 9 9 $ 0 0 ; @ C B   > < + + < @ + 2 @ < < @ @ # $ $ # : @ @ [ > @ , { + [ $ $ @ [ > v + , , 2 9 - 2 $ 1 0 ^ = 4 a l y = $ $ # $ $ 0 a = - ^ l e q & a = ; $ ; - e g = 4 e = - ; @ @   : g = g I ^ ^ r ; ; ; ; 9 h 2 @ C 9 # $ a 4 ^ 0 ; = z * - h 9 < @ 9 < @ @ 9 9 $ 0 0 ; @ C B   > < + + < @ + 2 @ < < @ @ # $ $ # : @ @ [ > @ , { + [ $ $ @ [ > v + ",
"$ 2 + [ + , { v + 1 a % $ +   { { + 2 9 2 m # 0 5 = = a * y z 4 = 0 $ $ # $ 0 5 0 0 % 4 e q * = 0 ; } ^ l a a = a = ; $ @ . < : = n ^ ^ ; # 9 9 ; ^ 0 J 9 < . [ 9 ; $ 0 ; ; ; r 0 & t / $ @ . @ @ < < @ ; r 0 ; | 9 9 < < < @ < 1 9 > . @ 9 9   + v 9 # = 4 9 : $ 2 + [ + , { v + 1 a % $ +   { { + 2 9 2 m # 0 5 = = a * y z 4 = 0 $ $ # $ 0 5 0 0 % 4 e q * = 0 ; } ^ l a a = a = ; $ @ . < : = n ^ ^ ; # 9 9 ; ^ 0 J 9 < . [ 9 ; $ 0 ; ; ; r 0 & t / $ @ . @ @ < < @ ; r 0 ; | 9 9 < < < @ < 1 9 > . @ 9 9   + v 9 # = 4 9 : $ 2 + [ + , { v + 1 a % $ +   { { + 2 9 2 m # 0 5 = = a * y z 4 = 0 $ $ # $ 0 5 0 0 % 4 e q * = 0 ; } ^ l a a = a = ; $ @ . < : = n ^ ^ ; # 9 9 ; ^ 0 J 9 < . [ 9 ; $ 0 ; ; ; r 0 & t / $ @ . @ @ < < @ ; r 0 ; | 9 9 < < < @ < 1 9 > . @ 9 9   + v 9 # = 4 9 : $ 2 + [ + , { v + 1 a % $ +   { ",
"@ @ [ {   + {   + 2 - a = 0 @ + [ { [ 9 @ 2 $ ; = = 4 * e z s y 4 = 0 $ $ @ 9 $ ; N 0 = a j & e 0 0 ; 0 4 e g 4 l 0 0 # 9 @ < : g ; h ; ; 2 9 9 # ^ & 0 ; < < . @ # # . $ @ U 9 ; 0 = ; m C . 9 9 @ . 9 ; ; 9 $ ; # < < <   B . ; @ <   < + + < + . . 0 e / ; : @ @ [ {   + {   + 2 - a = 0 @ + [ { [ 9 @ 2 $ ; = = 4 * e z s y 4 = 0 $ $ @ 9 $ ; N 0 = a j & e 0 0 ; 0 4 e g 4 l 0 0 # 9 @ < : g ; h ; ; 2 9 9 # ^ & 0 ; < < . @ # # . $ @ U 9 ; 0 = ; m C . 9 9 @ . 9 ; ; 9 $ ; # < < <   B . ; @ <   < + + < + . . 0 e / ; : @ @ [ {   + {   + 2 - a = 0 @ + [ { [ 9 @ 2 $ ; = = 4 * e z s y 4 = 0 $ $ @ 9 $ ; N 0 = a j & e 0 0 ; 0 4 e g 4 l 0 0 # 9 @ < : g ; h ; ; 2 9 9 # ^ & 0 ; < < . @ # # . $ @ U 9 ; 0 = ; m C . 9 9 @ . 9 ; ; 9 $ ; # < < <   B . ; @ <   < + + < + . . 0 e / ; : @ @ [ {   + {   + 2 - a = 0 @ + ",
"$ . + + , [ { , + [ 0 = 4 a - # . . 2 # 1 $ 0 - = = a z q ( a * y * 4 0 ; $ @ $ $ - = 0 = z O j a 4 0 ; = e a a / = $ ; # 9 < : ^ | J h 9 9 9 ; h ^ l / ; 9 < < . @ 9 @ 2 < @ C 9 9 9 9 @ @ 9 @ @ 9 9 $ ; $ ; 5 I $ 9 @ . B < @ @ . < + < . . + > < @ ; 0 5 ; : $ . + + , [ { , + [ 0 = 4 a - # . . 2 # 1 $ 0 - = = a z q ( a * y * 4 0 ; $ @ $ $ - = 0 = z O j a 4 0 ; = e a a / = $ ; # 9 < : ^ | J h 9 9 9 ; h ^ l / ; 9 < < . @ 9 @ 2 < @ C 9 9 9 9 @ @ 9 @ @ 9 9 $ ; $ ; 5 I $ 9 @ . B < @ @ . < + < . . + > < @ ; 0 5 ; : $ . + + , [ { , + [ 0 = 4 a - # . . 2 # 1 $ 0 - = = a z q ( a * y * 4 0 ; $ @ $ $ - = 0 = z O j a 4 0 ; = e a a / = $ ; # 9 < : ^ | J h 9 9 9 ; h ^ l / ; 9 < < . @ 9 @ 2 < @ C 9 9 9 9 @ @ 9 @ @ 9 9 $ ; $ ; 5 I $ 9 @ . B < @ @ . < + < . . + > < @ ; 0 5 ; : $ . + + , [ { , + [ 0 = 4 a - # ",
"@ + @   , { { , {   @ - = a 4 N $ 1 ; 0 5 = = a e a e j y * l = = y a a 0 } @ @ ; 0 } 0 = y w & ( 5 l % = ( & q & g ; h 9 @ . : 9 h 9 9 9 9 h @ 9 ; a 0 @ @ . < @ < + > < + < < < @ 9 @ 9 h # 9 @ . @ $ @ 9 $ ^ a 0 $ . < <   < > < > +   [ + +   < @ $ 0 % 0 : @ + @   , { { , {   @ - = a 4 N $ 1 ; 0 5 = = a e a e j y * l = = y a a 0 } @ @ ; 0 } 0 = y w & ( 5 l % = ( & q & g ; h 9 @ . : 9 h 9 9 9 9 h @ 9 ; a 0 @ @ . < @ < + > < + < < < @ 9 @ 9 h # 9 @ . @ $ @ 9 $ ^ a 0 $ . < <   < > < > +   [ + +   < @ $ 0 % 0 : @ + @   , { { , {   @ - = a 4 N $ 1 ; 0 5 = = a e a e j y * l = = y a a 0 } @ @ ; 0 } 0 = y w & ( 5 l % = ( & q & g ; h 9 @ . : 9 h 9 9 9 9 h @ 9 ; a 0 @ @ . < @ < + > < + < < < @ 9 @ 9 h # 9 @ . @ $ @ 9 $ ^ a 0 $ . < <   < > < > +   [ + +   < @ $ 0 % 0 : @ + @   , { { , {   @ - = a 4 N ",
". m @ + { { , { { { [ m = = = = = 0 = = a / a e a V e e e I 4 % 4 * * F = 0 $ @ 1 * # 1 0 W j _ y g 0 0 0 a z * 4 = 0 ; ; @ @ : h 9 9 C 9 B 9 $ 0 ; ; ; < @ + + > B > + [ + [ + < @ @ C ; $ $ < C @ < @ < # @ $ 0 0 2 @ B B + { > + { > C + < < 3 @ @ # 0 N 0 : . m @ + { { , { { { [ m = = = = = 0 = = a / a e a V e e e I 4 % 4 * * F = 0 $ @ 1 * # 1 0 W j _ y g 0 0 0 a z * 4 = 0 ; ; @ @ : h 9 9 C 9 B 9 $ 0 ; ; ; < @ + + > B > + [ + [ + < @ @ C ; $ $ < C @ < @ < # @ $ 0 0 2 @ B B + { > + { > C + < < 3 @ @ # 0 N 0 : . m @ + { { , { { { [ m = = = = = 0 = = a / a e a V e e e I 4 % 4 * * F = 0 $ @ 1 * # 1 0 W j _ y g 0 0 0 a z * 4 = 0 ; ; @ @ : h 9 9 C 9 B 9 $ 0 ; ; ; < @ + + > B > + [ + [ + < @ @ C ; $ $ < C @ < @ < # @ $ 0 0 2 @ B B + { > + { > C + < < 3 @ @ # 0 N 0 : . m @ + { { , { { { [ m = = = = ",
"3 # [ + [ { { { { ,   @ 1 = * = % = = a = = 4 l ( q ` t z y a 5 4 4 l * * - $ . @ @ m @ 0 e p b L ( 5 ; 0 5 a l g = 4 $ ; h 9 : 2 9 < 9 h # $ $ $ $ @ @ < @ > B +   B + > < @ + < $ @ ; } $ 9 @ + + C . C @ B @ @ 9 @ < + > A > { { > { > + v + + 9 $ 0 ; r ; : 3 # [ + [ { { { { ,   @ 1 = * = % = = a = = 4 l ( q ` t z y a 5 4 4 l * * - $ . @ @ m @ 0 e p b L ( 5 ; 0 5 a l g = 4 $ ; h 9 : 2 9 < 9 h # $ $ $ $ @ @ < @ > B +   B + > < @ + < $ @ ; } $ 9 @ + + C . C @ B @ @ 9 @ < + > A > { { > { > + v + + 9 $ 0 ; r ; : 3 # [ + [ { { { { ,   @ 1 = * = % = = a = = 4 l ( q ` t z y a 5 4 4 l * * - $ . @ @ m @ 0 e p b L ( 5 ; 0 5 a l g = 4 $ ; h 9 : 2 9 < 9 h # $ $ $ $ @ @ < @ > B +   B + > < @ + < $ @ ; } $ 9 @ + + C . C @ B @ @ 9 @ < + > A > { { > { > + v + + 9 $ 0 ; r ; : 3 # [ + [ { { { { ,   @ 1 = * = ",
"@ 1 @ + +   { , { { ] + @ - 5 S 5 - = = 0 ; 0 = a e & K z e ( a = l 4 4 = 0 # @ @ @ @ @ ; * p -.b t % r $ $ % 4 a a / % 0 $ ; : 9 @ 9 9 1 h - $ 9 @ C < + > + <   B @   + . @ @ $ $ ; 0 1 9 # + + + + + + < @ . < @ + <   A { > ;.' ' { {   { > < @ $ ; $ ; $ : @ 1 @ + +   { , { { ] + @ - 5 S 5 - = = 0 ; 0 = a e & K z e ( a = l 4 4 = 0 # @ @ @ @ @ ; * p -.b t % r $ $ % 4 a a / % 0 $ ; : 9 @ 9 9 1 h - $ 9 @ C < + > + <   B @   + . @ @ $ $ ; 0 1 9 # + + + + + + < @ . < @ + <   A { > ;.' ' { {   { > < @ $ ; $ ; $ : @ 1 @ + +   { , { { ] + @ - 5 S 5 - = = 0 ; 0 = a e & K z e ( a = l 4 4 = 0 # @ @ @ @ @ ; * p -.b t % r $ $ % 4 a a / % 0 $ ; : 9 @ 9 9 1 h - $ 9 @ C < + > + <   B @   + . @ @ $ $ ; 0 1 9 # + + + + + + < @ . < @ + <   A { > ;.' ' { {   { > < @ $ ; $ ; $ : @ 1 @ + +   { , { { ] + @ - 5 S ",
"2 0 @ [ { [ { + { 6   , 2 2 - = / = 0 - $ $ $ ; = e j t & a a a a 4 * = - } $ $ @ v m . $ N j >.u s =.0 ; $ 0 4 * z y a = 1 ; : 9 $ ; } ; J h < < <   < > > +   < + < @   < + 9 ; # $ } # . +   >   > { > . + < < B   > { > > ' ' { { ' { ' >   + . 9 ; ; ; $ : 2 0 @ [ { [ { + { 6   , 2 2 - = / = 0 - $ $ $ ; = e j t & a a a a 4 * = - } $ $ @ v m . $ N j >.u s =.0 ; $ 0 4 * z y a = 1 ; : 9 $ ; } ; J h < < <   < > > +   < + < @   < + 9 ; # $ } # . +   >   > { > . + < < B   > { > > ' ' { { ' { ' >   + . 9 ; ; ; $ : 2 0 @ [ { [ { + { 6   , 2 2 - = / = 0 - $ $ $ ; = e j t & a a a a 4 * = - } $ $ @ v m . $ N j >.u s =.0 ; $ 0 4 * z y a = 1 ; : 9 $ ; } ; J h < < <   < > > +   < + < @   < + 9 ; # $ } # . +   >   > { > . + < < B   > { > > ' ' { { ' { ' >   + . 9 ; ; ; $ : 2 0 @ [ { [ { + { 6   , 2 2 - = ",
"@ 2 < < + . @ { , { { + { [ $ - = 4 = 1 $ 2 $ $ - l & L L * / a a * z * = 5 $ $ . @ @ . @ - * Y b L * N $ $ $ = y * ,.* a = 0 : $ % 1 0 $ @ @ . + + > + + + < +   < + @ @ . @ 9 $ @ . 9 @ + + > + > +   > [ @ + . + + + > > , A , > { { { + > + + @ 2 $ } ; 0 : @ 2 < < + . @ { , { { + { [ $ - = 4 = 1 $ 2 $ $ - l & L L * / a a * z * = 5 $ $ . @ @ . @ - * Y b L * N $ $ $ = y * ,.* a = 0 : $ % 1 0 $ @ @ . + + > + + + < +   < + @ @ . @ 9 $ @ . 9 @ + + > + > +   > [ @ + . + + + > > , A , > { { { + > + + @ 2 $ } ; 0 : @ 2 < < + . @ { , { { + { [ $ - = 4 = 1 $ 2 $ $ - l & L L * / a a * z * = 5 $ $ . @ @ . @ - * Y b L * N $ $ $ = y * ,.* a = 0 : $ % 1 0 $ @ @ . + + > + + + < +   < + @ @ . @ 9 $ @ . 9 @ + + > + > +   > [ @ + . + + + > > , A , > { { { + > + + @ 2 $ } ; 0 : @ 2 < < + . @ { , { { + { [ $ - ",
"m @ . [ [ [ @ @ , { , ' + [ 1 - 4 4 l 4 m $ 2 $ $ % 4 e z z 5 0 - a * F * * = - 0 $ @ 2 @ $ = W T j a = ; ; $ ; = = a * = ; 0 : # l % $ $ $ @ < + > +   +     + 3 9 $ 1 $ @ $ @ + + + + +   + { + , { { v @ @ @ < C   > + { > { { { { { ' v   + < # m 0 1 $ 0 : m @ . [ [ [ @ @ , { , ' + [ 1 - 4 4 l 4 m $ 2 $ $ % 4 e z z 5 0 - a * F * * = - 0 $ @ 2 @ $ = W T j a = ; ; $ ; = = a * = ; 0 : # l % $ $ $ @ < + > +   +     + 3 9 $ 1 $ @ $ @ + + + + +   + { + , { { v @ @ @ < C   > + { > { { { { { ' v   + < # m 0 1 $ 0 : m @ . [ [ [ @ @ , { , ' + [ 1 - 4 4 l 4 m $ 2 $ $ % 4 e z z 5 0 - a * F * * = - 0 $ @ 2 @ $ = W T j a = ; ; $ ; = = a * = ; 0 : # l % $ $ $ @ < + > +   +     + 3 9 $ 1 $ @ $ @ + + + + +   + { + , { { v @ @ @ < C   > + { > { { { { { ' v   + < # m 0 1 $ 0 : m @ . [ [ [ @ @ , { , ' + [ 1 - ",
"9 @ @ @ # $ 0 1 @ , { , + , 2 k - 0 a 4 ; $ 2 $ $ $ - = = = $ 1 r % l a F y e e 4 0 $ # @ @ $ 0 = a * l ^ $ $ 1 } 0 4 = ^ 0 0 : m $ $ } 9 % @ +   > + + + { @ . @ $ 0 t l # @ [ @ . + +   + + + +   + > + > 2 . @ 2 + + { + v >   , > { > + . + @ m $ 1 } 0 1 : 9 @ @ @ # $ 0 1 @ , { , + , 2 k - 0 a 4 ; $ 2 $ $ $ - = = = $ 1 r % l a F y e e 4 0 $ # @ @ $ 0 = a * l ^ $ $ 1 } 0 4 = ^ 0 0 : m $ $ } 9 % @ +   > + + + { @ . @ $ 0 t l # @ [ @ . + +   + + + +   + > + > 2 . @ 2 + + { + v >   , > { > + . + @ m $ 1 } 0 1 : 9 @ @ @ # $ 0 1 @ , { , + , 2 k - 0 a 4 ; $ 2 $ $ $ - = = = $ 1 r % l a F y e e 4 0 $ # @ @ $ 0 = a * l ^ $ $ 1 } 0 4 = ^ 0 0 : m $ $ } 9 % @ +   > + + + { @ . @ $ 0 t l # @ [ @ . + +   + + + +   + > + > 2 . @ 2 + + { + v >   , > { > + . + @ m $ 1 } 0 1 : 9 @ @ @ # $ 0 1 @ , { , + , 2 k ",
"m # @ @ $ = * = $ + {   { + 2 1 1 } 4 l - - 2 @ 2 $ 1 0 - 0 1 $ @ $ $ 4 a z j L q / r $ # 9 2 0 0 4 4 a / = ; $ ; $ ; 0 0 ^ 0 : . . . @ # % .   + { '   > +   @ 9 1 % a - ; @ . +   >     { [ > [ > + [   + . < . + @ <   +   > {   { [   [ . @ # 1 1 ; ; ; $ : m # @ @ $ = * = $ + {   { + 2 1 1 } 4 l - - 2 @ 2 $ 1 0 - 0 1 $ @ $ $ 4 a z j L q / r $ # 9 2 0 0 4 4 a / = ; $ ; $ ; 0 0 ^ 0 : . . . @ # % .   + { '   > +   @ 9 1 % a - ; @ . +   >     { [ > [ > + [   + . < . + @ <   +   > {   { [   [ . @ # 1 1 ; ; ; $ : m # @ @ $ = * = $ + {   { + 2 1 1 } 4 l - - 2 @ 2 $ 1 0 - 0 1 $ @ $ $ 4 a z j L q / r $ # 9 2 0 0 4 4 a / = ; $ ; $ ; 0 0 ^ 0 : . . . @ # % .   + { '   > +   @ 9 1 % a - ; @ . +   >     { [ > [ > + [   + . < . + @ <   +   > {   { [   [ . @ # 1 1 ; ; ; $ : m # @ @ $ = * = $ + {   { + 2 1 ",
"@ $ # . $ e e l 0 [ { { , [ [ J 2 # 5 4 0 4 0 m @ 2 $ $ 1 0 # 2 @ @ $ r 0 a z & O & - $ $ 2 $ $ 1 % z s y ( 5 0 ; $ ; r = / / : @ @ < [ < + @   { > , ' {   + + 2 9 1 - * 1 @ + > [ + { { > + , 2 < + > [ + @ [ @ . < [ < + +   + + [ + @ @ @ 1 $ ; = $ $ ; $ : @ $ # . $ e e l 0 [ { { , [ [ J 2 # 5 4 0 4 0 m @ 2 $ $ 1 0 # 2 @ @ $ r 0 a z & O & - $ $ 2 $ $ 1 % z s y ( 5 0 ; $ ; r = / / : @ @ < [ < + @   { > , ' {   + + 2 9 1 - * 1 @ + > [ + { { > + , 2 < + > [ + @ [ @ . < [ < + +   + + [ + @ @ @ 1 $ ; = $ $ ; $ : @ $ # . $ e e l 0 [ { { , [ [ J 2 # 5 4 0 4 0 m @ 2 $ $ 1 0 # 2 @ @ $ r 0 a z & O & - $ $ 2 $ $ 1 % z s y ( 5 0 ; $ ; r = / / : @ @ < [ < + @   { > , ' {   + + 2 9 1 - * 1 @ + > [ + { { > + , 2 < + > [ + @ [ @ . < [ < + +   + + [ + @ @ @ 1 $ ; = $ $ ; $ : @ $ # . $ e e l 0 [ { { , [ [ J ",
"1 2 2 @ $ = a = 4 # + v , + [ 2 2 m ; 4 0 - = 1 $ @ $ @ $ - } $ @ # $ 0 ; = f s W e l 1 $ $ 1 - 0 - F b z e a = 0 0 0 ; = z V : + < + B   { > , ' ' A ! ' { ' + < @ @ $ $ @ . [ ,   { {   { . 9 1 { +   { +   + @ + < < + +   + @ < . . . 2 $ $ 1 $ 1 ; 1 $ # : 1 2 2 @ $ = a = 4 # + v , + [ 2 2 m ; 4 0 - = 1 $ @ $ @ $ - } $ @ # $ 0 ; = f s W e l 1 $ $ 1 - 0 - F b z e a = 0 0 0 ; = z V : + < + B   { > , ' ' A ! ' { ' + < @ @ $ $ @ . [ ,   { {   { . 9 1 { +   { +   + @ + < < + +   + @ < . . . 2 $ $ 1 $ 1 ; 1 $ # : 1 2 2 @ $ = a = 4 # + v , + [ 2 2 m ; 4 0 - = 1 $ @ $ @ $ - } $ @ # $ 0 ; = f s W e l 1 $ $ 1 - 0 - F b z e a = 0 0 0 ; = z V : + < + B   { > , ' ' A ! ' { ' + < @ @ $ $ @ . [ ,   { {   { . 9 1 { +   { +   + @ + < < + +   + @ < . . . 2 $ $ 1 $ 1 ; 1 $ # : 1 2 2 @ $ = a = 4 # + v , + [ 2 ",
"$ $ m . # $ / a = m . {   , [ J 2 m 1 - 0 0 = - 1 @ 2 $ $ 5 a 4 0 $ $ ; $ } % 4 y z * 0 $ $ 1 5 0 0 I '.O V z = % 0 $ 0 = I z : { { ,   { > { { ' ! 6 ' ! ' >   + + . + @ [ @ + > { ' { v + m 2 < + ' { > @ 2 < + @ @ 2 + . + < @ + @ 2 $ $ $ 1 0 $ $ $ $ $ $ : $ $ m . # $ / a = m . {   , [ J 2 m 1 - 0 0 = - 1 @ 2 $ $ 5 a 4 0 $ $ ; $ } % 4 y z * 0 $ $ 1 5 0 0 I '.O V z = % 0 $ 0 = I z : { { ,   { > { { ' ! 6 ' ! ' >   + + . + @ [ @ + > { ' { v + m 2 < + ' { > @ 2 < + @ @ 2 + . + < @ + @ 2 $ $ $ 1 0 $ $ $ $ $ $ : $ $ m . # $ / a = m . {   , [ J 2 m 1 - 0 0 = - 1 @ 2 $ $ 5 a 4 0 $ $ ; $ } % 4 y z * 0 $ $ 1 5 0 0 I '.O V z = % 0 $ 0 = I z : { { ,   { > { { ' ! 6 ' ! ' >   + + . + @ [ @ + > { ' { v + m 2 < + ' { > @ 2 < + @ @ 2 + . + < @ + @ 2 $ $ $ 1 0 $ $ $ $ $ $ : $ $ m . # $ / a = m . {   , [ J ",
"$ 1 9 $ $ 0 a & 4 @ +   , v [ 2 2 2 ; - 1 0 1 4 - # m @ 0 / O q - 0 0 } 0 $ 0 4 y * a 5 ; 1 $ k d 1 4 _ T & y / l 0 ; ; 0 = a : >   + { { { ' { o ' ! { 6 { { { , + + + M + [ B { + { >   { < + , > , + { + [ [ < @ ; 0 # @ @ 2 2 $ $ 1 - 0 1 0 1 $ # - 0 ; $ : $ 1 9 $ $ 0 a & 4 @ +   , v [ 2 2 2 ; - 1 0 1 4 - # m @ 0 / O q - 0 0 } 0 $ 0 4 y * a 5 ; 1 $ k d 1 4 _ T & y / l 0 ; ; 0 = a : >   + { { { ' { o ' ! { 6 { { { , + + + M + [ B { + { >   { < + , > , + { + [ [ < @ ; 0 # @ @ 2 2 $ $ 1 - 0 1 0 1 $ # - 0 ; $ : $ 1 9 $ $ 0 a & 4 @ +   , v [ 2 2 2 ; - 1 0 1 4 - # m @ 0 / O q - 0 0 } 0 $ 0 4 y * a 5 ; 1 $ k d 1 4 _ T & y / l 0 ; ; 0 = a : >   + { { { ' { o ' ! { 6 { { { , + + + M + [ B { + { >   { < + , > , + { + [ [ < @ ; 0 # @ @ 2 2 $ $ 1 - 0 1 0 1 $ # - 0 ; $ : $ 1 9 $ $ 0 a & 4 @ +   , v [ 2 ",
"0 - 1 $ 0 a & t = # + , {   [ 3 [ 2 1 0 = 0 - - 5 ; $ 1 0 a j j l % r ; $ # $ 0 4 a a % 0 $ 1 } } 0 - F %.j z * a = 0 ; ; 0 - : > , > {     ' { { ' ! ) ! { > { + {   + +   + > { , { , > v + > v { B , > { + @ [ @ $ $ $ 0 $ $ $ $ 0 4 l ; } 0 $ 1 $ $ $ $ 0 : 0 - 1 $ 0 a & t = # + , {   [ 3 [ 2 1 0 = 0 - - 5 ; $ 1 0 a j j l % r ; $ # $ 0 4 a a % 0 $ 1 } } 0 - F %.j z * a = 0 ; ; 0 - : > , > {     ' { { ' ! ) ! { > { + {   + +   + > { , { , > v + > v { B , > { + @ [ @ $ $ $ 0 $ $ $ $ 0 4 l ; } 0 $ 1 $ $ $ $ 0 : 0 - 1 $ 0 a & t = # + , {   [ 3 [ 2 1 0 = 0 - - 5 ; $ 1 0 a j j l % r ; $ # $ 0 4 a a % 0 $ 1 } } 0 - F %.j z * a = 0 ; ; 0 - : > , > {     ' { { ' ! ) ! { > { + {   + +   + > { , { , > v + > v { B , > { + @ [ @ $ $ $ 0 $ $ $ $ 0 4 l ; } 0 $ 1 $ $ $ $ 0 : 0 - 1 $ 0 a & t = # + , {   [ 3 ",
"k 0 0 - a j _ t e $ [ { { { ,   [ @ # 1 5 4 5 0 - - 5 1 = e s j a - 0 0 h h 2 $ 0 - l 4 = % 0 $ # 1 0 * K p t e a a 0 } ; 0 ; : { [   +   { ! ' ! ) ' ! ' ! 6   { { + [ . +   , { { { { ,   +   {   {   { + [ < + . @ @ 2 # $ ; $ ; 5 = ; 0 # 1 $ # $ $ $ 1 0 : k 0 0 - a j _ t e $ [ { { { ,   [ @ # 1 5 4 5 0 - - 5 1 = e s j a - 0 0 h h 2 $ 0 - l 4 = % 0 $ # 1 0 * K p t e a a 0 } ; 0 ; : { [   +   { ! ' ! ) ' ! ' ! 6   { { + [ . +   , { { { { ,   +   {   {   { + [ < + . @ @ 2 # $ ; $ ; 5 = ; 0 # 1 $ # $ $ $ 1 0 : k 0 0 - a j _ t e $ [ { { { ,   [ @ # 1 5 4 5 0 - - 5 1 = e s j a - 0 0 h h 2 $ 0 - l 4 = % 0 $ # 1 0 * K p t e a a 0 } ; 0 ; : { [   +   { ! ' ! ) ' ! ' ! 6   { { + [ . +   , { { { { ,   +   {   {   { + [ < + . @ @ 2 # $ ; $ ; 5 = ; 0 # 1 $ # $ $ $ 1 0 : k 0 0 - a j _ t e $ [ { { { ,   ",
"1 | 5 * & t L t & $ @       + [ + [ @ 9 0 = f = = l * y * z & j q 4 1 $ $ @ 9 @ 1 0 - * a l 4 = - } 4 * j b L z a a - ; $ 9 0 : ' { v   3   { { 6 ' ! ! ! A ' ;.+ > + B + > { ' { { ' { { { + { + {   + {   + < @ @ @ 9 $ $ ; 0 $ $ - 0 1 $ $ 9 # $ 9 $ ; 0 h : 1 | 5 * & t L t & $ @       + [ + [ @ 9 0 = f = = l * y * z & j q 4 1 $ $ @ 9 @ 1 0 - * a l 4 = - } 4 * j b L z a a - ; $ 9 0 : ' { v   3   { { 6 ' ! ! ! A ' ;.+ > + B + > { ' { { ' { { { + { + {   + {   + < @ @ @ 9 $ $ ; 0 $ $ - 0 1 $ $ 9 # $ 9 $ ; 0 h : 1 | 5 * & t L t & $ @       + [ + [ @ 9 0 = f = = l * y * z & j q 4 1 $ $ @ 9 @ 1 0 - * a l 4 = - } 4 * j b L z a a - ; $ 9 0 : ' { v   3   { { 6 ' ! ! ! A ' ;.+ > + B + > { ' { { ' { { { + { + {   + {   + < @ @ @ 9 $ $ ; 0 $ $ - 0 1 $ $ 9 # $ 9 $ ; 0 h : 1 | 5 * & t L t & $ @       + [ ",
"2 - 4 * j _ p u z = 2 + + v + , [ + + @ m ; - = = = 4 a * e e z q 4 0 } $ 9 @ 9 $ ; 5 4 q e * l % - = * j T %.L e = = 0 ; ; ; : { , > v   , { 6 ' o ' ! ' 6 ! ' ' { 2   { { { { { ' { ' ' , { {   + { + + + + [ @ @ # $ 0 a c 0 ; ; $ $ 1 h $ 2 @ h $ @ # @ < : 2 - 4 * j _ p u z = 2 + + v + , [ + + @ m ; - = = = 4 a * e e z q 4 0 } $ 9 @ 9 $ ; 5 4 q e * l % - = * j T %.L e = = 0 ; ; ; : { , > v   , { 6 ' o ' ! ' 6 ! ' ' { 2   { { { { { ' { ' ' , { {   + { + + + + [ @ @ # $ 0 a c 0 ; ; $ $ 1 h $ 2 @ h $ @ # @ < : 2 - 4 * j _ p u z = 2 + + v + , [ + + @ m ; - = = = 4 a * e e z q 4 0 } $ 9 @ 9 $ ; 5 4 q e * l % - = * j T %.L e = = 0 ; ; ; : { , > v   , { 6 ' o ' ! ' 6 ! ' ' { 2   { { { { { ' { ' ' , { {   + { + + + + [ @ @ # $ 0 a c 0 ; ; $ $ 1 h $ 2 @ h $ @ # @ < : 2 - 4 * j _ p u z = 2 + + v + , ",
"2 0 5 * q j _ : _ = . +     v     [ , + . $ 0 % 0 0 1 - = a F & z a = ; $ @ . @ $ $ 0 4 * z & ( = a l * e L -.T e / * g r ; 0 : 6 { ' ' { , ' { , 6 { ! 6 ' { ! { { + B + + ' { { { , v { { { {   v + [ > @ @ @ 2 0 0 - 5 q j l 5 $ 1 $ $ $ 1 } $ 2 $ @ C + + : 2 0 5 * q j _ : _ = . +     v     [ , + . $ 0 % 0 0 1 - = a F & z a = ; $ @ . @ $ $ 0 4 * z & ( = a l * e L -.T e / * g r ; 0 : 6 { ' ' { , ' { , 6 { ! 6 ' { ! { { + B + + ' { { { , v { { { {   v + [ > @ @ @ 2 0 0 - 5 q j l 5 $ 1 $ $ $ 1 } $ 2 $ @ C + + : 2 0 5 * q j _ : _ = . +     v     [ , + . $ 0 % 0 0 1 - = a F & z a = ; $ @ . @ $ $ 0 4 * z & ( = a l * e L -.T e / * g r ; 0 : 6 { ' ' { , ' { , 6 { ! 6 ' { ! { { + B + + ' { { { , v { { { {   v + [ > @ @ @ 2 0 0 - 5 q j l 5 $ 1 $ $ $ 1 } $ 2 $ @ C + + : 2 0 5 * q j _ : _ = . +     v   ",
"$ 1 % y V & L b z 0 # + + , + , + +     + . $ 0 1 $ $ $ 5 a & j * z 5 0 $ . @ @ # ; 0 = * a z p e 4 4 l z L w b & a 4 = % 0 ^ : ) ! 6 ! { 6 { ' { ' , ! 6 ' ! o ' { v 2 2 > { { ' + { ' {   { , { + < @ 3 . @ $ l F e q z y _ q % 0 0 $ $ $ 5 ; $ 9 + . + + + : $ 1 % y V & L b z 0 # + + , + , + +     + . $ 0 1 $ $ $ 5 a & j * z 5 0 $ . @ @ # ; 0 = * a z p e 4 4 l z L w b & a 4 = % 0 ^ : ) ! 6 ! { 6 { ' { ' , ! 6 ' ! o ' { v 2 2 > { { ' + { ' {   { , { + < @ 3 . @ $ l F e q z y _ q % 0 0 $ $ $ 5 ; $ 9 + . + + + : $ 1 % y V & L b z 0 # + + , + , + +     + . $ 0 1 $ $ $ 5 a & j * z 5 0 $ . @ @ # ; 0 = * a z p e 4 4 l z L w b & a 4 = % 0 ^ : ) ! 6 ! { 6 { ' { ' , ! 6 ' ! o ' { v 2 2 > { { ' + { ' {   { , { + < @ 3 . @ $ l F e q z y _ q % 0 0 $ $ $ 5 ; $ 9 + . + + + : $ 1 % y V & L b z 0 # + + , + , ",
"@ } 0 l e t G & a 1 @ 3 + v + + [ + + v + @ # $ $ # @ $ 0 4 W q y a l 0 0 # + @ $ ; $ 0 4 l ( s _ a / a j p b %.L y = = a g = : ! 6 ! { ! { { 6 { { ' { 6 { ' ! { {   + . + +   { B , {   { +   > @ [ @ @ @ h $ a j z t t L j a l 1 $ ; $ 0 5 0 h [ @ + < + + : @ } 0 l e t G & a 1 @ 3 + v + + [ + + v + @ # $ $ # @ $ 0 4 W q y a l 0 0 # + @ $ ; $ 0 4 l ( s _ a / a j p b %.L y = = a g = : ! 6 ! { ! { { 6 { { ' { 6 { ' ! { {   + . + +   { B , {   { +   > @ [ @ @ @ h $ a j z t t L j a l 1 $ ; $ 0 5 0 h [ @ + < + + : @ } 0 l e t G & a 1 @ 3 + v + + [ + + v + @ # $ $ # @ $ 0 4 W q y a l 0 0 # + @ $ ; $ 0 4 l ( s _ a / a j p b %.L y = = a g = : ! 6 ! { ! { { 6 { { ' { 6 { ' ! { {   + . + +   { B , {   { +   > @ [ @ @ @ h $ a j z t t L j a l 1 $ ; $ 0 5 0 h [ @ + < + + : @ } 0 l e t G & a 1 @ 3 + v + + ",
". $ = * y j t z = $ + 3   , , + @   + { +   @ 2 1 $ $ 2 1 = = * * a * = 0 m @ @ 2 $ 0 1 % 4 F q L z a 4 a z _ L %.V a a e a a : ) ) ! ! 7 ' ! 6 6 6 { 6 ' ! 6 ' { ' { { + + { {   , > + + + + + [ + @ C 9 9 # $ = & & & _ t & = 0 0 $ # $ 0 1 # @ @ > + + + + : . $ = * y j t z = $ + 3   , , + @   + { +   @ 2 1 $ $ 2 1 = = * * a * = 0 m @ @ 2 $ 0 1 % 4 F q L z a 4 a z _ L %.V a a e a a : ) ) ! ! 7 ' ! 6 6 6 { 6 ' ! 6 ' { ' { { + + { {   , > + + + + + [ + @ C 9 9 # $ = & & & _ t & = 0 0 $ # $ 0 1 # @ @ > + + + + : . $ = * y j t z = $ + 3   , , + @   + { +   @ 2 1 $ $ 2 1 = = * * a * = 0 m @ @ 2 $ 0 1 % 4 F q L z a 4 a z _ L %.V a a e a a : ) ) ! ! 7 ' ! 6 6 6 { 6 ' ! 6 ' { ' { { + + { {   , > + + + + + [ + @ C 9 9 # $ = & & & _ t & = 0 0 $ # $ 0 1 # @ @ > + + + + : . $ = * y j t z = $ + 3   , , + ",
"$ 1 = e * q L a ; @ . + + +   [ + [   , > + @ @ $ @ @ @ 1 0 0 % l 4 a 4 0 9 @ @ $ $ $ $ $ 0 4 y V t e 4 = a z p T w z ( y z V : ).! 7 ) 6 ! 6 ! ' ! 6 ' 6 { ! ' ' { {     + . + > + + + + . < . @ @ # 2 $ $ 0 - = a ( q j & a ^ # h # @ 1 # $ 9 @ . + + . + [ : $ 1 = e * q L a ; @ . + + +   [ + [   , > + @ @ $ @ @ @ 1 0 0 % l 4 a 4 0 9 @ @ $ $ $ $ $ 0 4 y V t e 4 = a z p T w z ( y z V : ).! 7 ) 6 ! 6 ! ' ! 6 ' 6 { ! ' ' { {     + . + > + + + + . < . @ @ # 2 $ $ 0 - = a ( q j & a ^ # h # @ 1 # $ 9 @ . + + . + [ : $ 1 = e * q L a ; @ . + + +   [ + [   , > + @ @ $ @ @ @ 1 0 0 % l 4 a 4 0 9 @ @ $ $ $ $ $ 0 4 y V t e 4 = a z p T w z ( y z V : ).! 7 ) 6 ! 6 ! ' ! 6 ' 6 { ! ' ' { {     + . + > + + + + . < . @ @ # 2 $ $ 0 - = a ( q j & a ^ # h # @ 1 # $ 9 @ . + + . + [ : $ 1 = e * q L a ; @ . + + +   [ ",
"$ 0 l z e & & a $ @ + v { { v ' + , , + {   + @ m # [ @ @ @ @ - 0 % 4 y - $ @ + # 9 $ # $ $ - f F * y 4 = a * j _ Z j ( e & j : !.!.) ! ! ' ' ' ' ! A 6 ' ' { { 6 { { B [ @ C @ 3 . C 2 $ m @ @ # h 0 r = N = / l a & t & a = r $ h 9 $ r $ @ @ @ @ > + [ + > : $ 0 l z e & & a $ @ + v { { v ' + , , + {   + @ m # [ @ @ @ @ - 0 % 4 y - $ @ + # 9 $ # $ $ - f F * y 4 = a * j _ Z j ( e & j : !.!.) ! ! ' ' ' ' ! A 6 ' ' { { 6 { { B [ @ C @ 3 . C 2 $ m @ @ # h 0 r = N = / l a & t & a = r $ h 9 $ r $ @ @ @ @ > + [ + > : $ 0 l z e & & a $ @ + v { { v ' + , , + {   + @ m # [ @ @ @ @ - 0 % 4 y - $ @ + # 9 $ # $ $ - f F * y 4 = a * j _ Z j ( e & j : !.!.) ! ! ' ' ' ' ! A 6 ' ' { { 6 { { B [ @ C @ 3 . C 2 $ m @ @ # h 0 r = N = / l a & t & a = r $ h 9 $ r $ @ @ @ @ > + [ + > : $ 0 l z e & & a $ @ + v { { v ' ",
"1 4 a e & t y a $ @ , { ' , { ,   + , { +   + [ @ @ < [ + [ @ 1 } - = z 4 $ # 9 @ @ # @ @ # $ 0 4 = 4 ( * 4 a q _ & s V & _ t : ! 6 ! 6 ! ) ! ! 6 { 6 ' o { ' ' { '   + @ @ $ $ # $ 1 ; 0 4 z 0 0 0 4 l * a y z a * e I 4 = ^ 1 ; $ - 1 2 # 9 [ + < 2 @ . + , : 1 4 a e & t y a $ @ , { ' , { ,   + , { +   + [ @ @ < [ + [ @ 1 } - = z 4 $ # 9 @ @ # @ @ # $ 0 4 = 4 ( * 4 a q _ & s V & _ t : ! 6 ! 6 ! ) ! ! 6 { 6 ' o { ' ' { '   + @ @ $ $ # $ 1 ; 0 4 z 0 0 0 4 l * a y z a * e I 4 = ^ 1 ; $ - 1 2 # 9 [ + < 2 @ . + , : 1 4 a e & t y a $ @ , { ' , { ,   + , { +   + [ @ @ < [ + [ @ 1 } - = z 4 $ # 9 @ @ # @ @ # $ 0 4 = 4 ( * 4 a q _ & s V & _ t : ! 6 ! 6 ! ) ! ! 6 { 6 ' o { ' ' { '   + @ @ $ $ # $ 1 ; 0 4 z 0 0 0 4 l * a y z a * e I 4 = ^ 1 ; $ - 1 2 # 9 [ + < 2 @ . + , : 1 4 a e & t y a $ @ , { ' , { , ",
"= * l * z & & = $ . C > v ' 6 { , , , v { , +   . @ [ { + @ . $ 1 } - a y % 0 @ # @ @ . . @ @ # ; ; 4 l a a ( V p e z ( e V & : ) , 7 ! , , 6 ' { ' ' { { , { v ' + { @ [ 1 - - 5 = a q q e = 5 = z q e e z L & y I y g N 0 0 r } 0 0 @ @ @ @ @ @ 1 . + + + { : = * l * z & & = $ . C > v ' 6 { , , , v { , +   . @ [ { + @ . $ 1 } - a y % 0 @ # @ @ . . @ @ # ; ; 4 l a a ( V p e z ( e V & : ) , 7 ! , , 6 ' { ' ' { { , { v ' + { @ [ 1 - - 5 = a q q e = 5 = z q e e z L & y I y g N 0 0 r } 0 0 @ @ @ @ @ @ 1 . + + + { : = * l * z & & = $ . C > v ' 6 { , , , v { , +   . @ [ { + @ . $ 1 } - a y % 0 @ # @ @ . . @ @ # ; ; 4 l a a ( V p e z ( e V & : ) , 7 ! , , 6 ' { ' ' { { , { v ' + { @ [ 1 - - 5 = a q q e = 5 = z q e e z L & y I y g N 0 0 r } 0 0 @ @ @ @ @ @ 1 . + + + { : = * l * z & & = $ . C > v ' 6 { ",
"5 4 l a y z V 5 0 @ + + { { , ' + + { , > { +   v 2 @ . [ # $ - $ 1 1 = * l 0 $ $ . + @ + . . @ # m - - = 4 * t a g e & z X ( : 7 ! ' ! 6 { { 6 o { , , { , { , + + [ . m - y z z f 4 * = - 0 ; = a e j t _ & j e a a % 0 0 ; 1 ; $ $ @ 2 < [ @ 2 . + [ , , , : 5 4 l a y z V 5 0 @ + + { { , ' + + { , > { +   v 2 @ . [ # $ - $ 1 1 = * l 0 $ $ . + @ + . . @ # m - - = 4 * t a g e & z X ( : 7 ! ' ! 6 { { 6 o { , , { , { , + + [ . m - y z z f 4 * = - 0 ; = a e j t _ & j e a a % 0 0 ; 1 ; $ $ @ 2 < [ @ 2 . + [ , , , : 5 4 l a y z V 5 0 @ + + { { , ' + + { , > { +   v 2 @ . [ # $ - $ 1 1 = * l 0 $ $ . + @ + . . @ # m - - = 4 * t a g e & z X ( : 7 ! ' ! 6 { { 6 o { , , { , { , + + [ . m - y z z f 4 * = - 0 ; = a e j t _ & j e a a % 0 0 ; 1 ; $ $ @ 2 < [ @ 2 . + [ , , , : 5 4 l a y z V 5 0 @ + + { { , ' ",
"0 0 0 5 #.q q = ; @ @ + { , {   , ,   { , ' , {   + + + h 1 1 k 1 $ $ 0 = 4 - $ @ . C   + + . @ @ # $ 1 ; 0 = V = = ( T _ & a : ! 6 6 6 ' { , ,   + + + @ + @ . 2 2 $ $ 4 ; 0 = = 0 0 ; 0 r 0 0 0 - e O L L p p j z e = = = = 0 $ # @ . @ 2 @ [ + 3 [ @ [ [ { : 0 0 0 5 #.q q = ; @ @ + { , {   , ,   { , ' , {   + + + h 1 1 k 1 $ $ 0 = 4 - $ @ . C   + + . @ @ # $ 1 ; 0 = V = = ( T _ & a : ! 6 6 6 ' { , ,   + + + @ + @ . 2 2 $ $ 4 ; 0 = = 0 0 ; 0 r 0 0 0 - e O L L p p j z e = = = = 0 $ # @ . @ 2 @ [ + 3 [ @ [ [ { : 0 0 0 5 #.q q = ; @ @ + { , {   , ,   { , ' , {   + + + h 1 1 k 1 $ $ 0 = 4 - $ @ . C   + + . @ @ # $ 1 ; 0 = V = = ( T _ & a : ! 6 6 6 ' { , ,   + + + @ + @ . 2 2 $ $ 4 ; 0 = = 0 0 ; 0 r 0 0 0 - e O L L p p j z e = = = = 0 $ # @ . @ 2 @ [ + 3 [ @ [ [ { : 0 0 0 5 #.q q = ; @ @ + { , {   ",
"; $ } % = e e l 0 # @ + + { { { { { , , { , { {   , [ + 2 - - 1 $ @ 1 - 5 = r 2 @ < +   + < + . @ @ 2 $ $ 1 ; N 0 = * T b T ( : ! , { ' , +   + [ 2 1 9 1 1 2 k - = $ $ # @ $ $ 2 # 9 2 $ 0 ^ 0 r 0 a & L p L V X e = = 0 ; $ $ @ @ 3 < [ . +   [   3   +   , : ; $ } % = e e l 0 # @ + + { { { { { , , { , { {   , [ + 2 - - 1 $ @ 1 - 5 = r 2 @ < +   + < + . @ @ 2 $ $ 1 ; N 0 = * T b T ( : ! , { ' , +   + [ 2 1 9 1 1 2 k - = $ $ # @ $ $ 2 # 9 2 $ 0 ^ 0 r 0 a & L p L V X e = = 0 ; $ $ @ @ 3 < [ . +   [   3   +   , : ; $ } % = e e l 0 # @ + + { { { { { , , { , { {   , [ + 2 - - 1 $ @ 1 - 5 = r 2 @ < +   + < + . @ @ 2 $ $ 1 ; N 0 = * T b T ( : ! , { ' , +   + [ 2 1 9 1 1 2 k - = $ $ # @ $ $ 2 # 9 2 $ 0 ^ 0 r 0 a & L p L V X e = = 0 ; $ $ @ @ 3 < [ . +   [   3   +   , : ; $ } % = e e l 0 # @ + + { { { ",
"@ 0 ; 5 5 * z / 0 @ . < + ,   { , ' { ' { {   { { {   @ 3 0 c $ 2 2 m | 1 ; 1 # 2 @ @ . + @ + @ @ @ @ 9 2 # $ $ 0 ^ ( t L b & : 6 > { { + + [ @ $ = - 0 $ # 2 = 0 $ @ @ + @ < . @ < + 9 @ 5 - 0 1 0 z q a a = S 5 ; 0 $ 9 $ @ @ @ + < > + @ + @ [ +   , { , { : @ 0 ; 5 5 * z / 0 @ . < + ,   { , ' { ' { {   { { {   @ 3 0 c $ 2 2 m | 1 ; 1 # 2 @ @ . + @ + @ @ @ @ 9 2 # $ $ 0 ^ ( t L b & : 6 > { { + + [ @ $ = - 0 $ # 2 = 0 $ @ @ + @ < . @ < + 9 @ 5 - 0 1 0 z q a a = S 5 ; 0 $ 9 $ @ @ @ + < > + @ + @ [ +   , { , { : @ 0 ; 5 5 * z / 0 @ . < + ,   { , ' { ' { {   { { {   @ 3 0 c $ 2 2 m | 1 ; 1 # 2 @ @ . + @ + @ @ @ @ 9 2 # $ $ 0 ^ ( t L b & : 6 > { { + + [ @ $ = - 0 $ # 2 = 0 $ @ @ + @ < . @ < + 9 @ 5 - 0 1 0 z q a a = S 5 ; 0 $ 9 $ @ @ @ + < > + @ + @ [ +   , { , { : @ 0 ; 5 5 * z / 0 @ . < + ,   { ",
"@ $ $ 0 0 = l l - $ $ +   v , { ' o { , { , {   { , + [ @ $ 1 1 $ 2 @ $ m $ $ 2 @ @ @ @   C . + @ . @ @ # @ 9 $ ; 0 4 z T L b :   { , [ [ @ @ # - - 0 2 # @ @ @ . @ [ . + + + + + + @ [ 9 $ ; $ ; = 4 = ^ 0 0 $ ; $ 9 2 @ @ + . + + + [   + , >   { + { , { { : @ $ $ 0 0 = l l - $ $ +   v , { ' o { , { , {   { , + [ @ $ 1 1 $ 2 @ $ m $ $ 2 @ @ @ @   C . + @ . @ @ # @ 9 $ ; 0 4 z T L b :   { , [ [ @ @ # - - 0 2 # @ @ @ . @ [ . + + + + + + @ [ 9 $ ; $ ; = 4 = ^ 0 0 $ ; $ 9 2 @ @ + . + + + [   + , >   { + { , { { : @ $ $ 0 0 = l l - $ $ +   v , { ' o { , { , {   { , + [ @ $ 1 1 $ 2 @ $ m $ $ 2 @ @ @ @   C . + @ . @ @ # @ 9 $ ; 0 4 z T L b :   { , [ [ @ @ # - - 0 2 # @ @ @ . @ [ . + + + + + + @ [ 9 $ ; $ ; = 4 = ^ 0 0 $ ; $ 9 2 @ @ + . + + + [   + , >   { + { , { { : @ $ $ 0 0 = l l - $ $ +   v , { ",
"$ $ $ 1 0 4 4 - r # @ > +   + { { ' ' { , ' { { { + , + . 1 1 - - 1 2 @ # 2 2 $ # 2 2 @ . + @ 2 @ < @ . 2 9 2 $ $ ; % a F T b : [ @ 3 @ 2 1 } k l F 0 @ 2 @ [ + + + 3 + + , + > {   + @ @ @ h 1 0 5 0 0 0 $ $ @ @ @ 2 < < @ @ 3     + v + , + v + , { , , { 6 : $ $ $ 1 0 4 4 - r # @ > +   + { { ' ' { , ' { { { + , + . 1 1 - - 1 2 @ # 2 2 $ # 2 2 @ . + @ 2 @ < @ . 2 9 2 $ $ ; % a F T b : [ @ 3 @ 2 1 } k l F 0 @ 2 @ [ + + + 3 + + , + > {   + @ @ @ h 1 0 5 0 0 0 $ $ @ @ @ 2 < < @ @ 3     + v + , + v + , { , , { 6 : $ $ $ 1 0 4 4 - r # @ > +   + { { ' ' { , ' { { { + , + . 1 1 - - 1 2 @ # 2 2 $ # 2 2 @ . + @ 2 @ < @ . 2 9 2 $ $ ; % a F T b : [ @ 3 @ 2 1 } k l F 0 @ 2 @ [ + + + 3 + + , + > {   + @ @ @ h 1 0 5 0 0 0 $ $ @ @ @ 2 < < @ @ 3     + v + , + v + , { , , { 6 : $ $ $ 1 0 4 4 - r # @ > +   + { ",
"# $ $ $ - l = - } 2 @ + + + , { ' { o ' ' { 6 ' + ,   [ 3 @ | f - k $ 2 2 # @ # 2 # $ # @ @ # $ $ # @ @ @ 2 9 # $ $ 0 = z u & : 2 $ 1 0 4 = e e _ ( 0 @ < 2 <   +       + {   { + { + . @ < $ 0 - a - 0 h . 9 @ @ < @ @ [ @ # 2 > v [     + +   { { , { A , , : # $ $ $ - l = - } 2 @ + + + , { ' { o ' ' { 6 ' + ,   [ 3 @ | f - k $ 2 2 # @ # 2 # $ # @ @ # $ $ # @ @ @ 2 9 # $ $ 0 = z u & : 2 $ 1 0 4 = e e _ ( 0 @ < 2 <   +       + {   { + { + . @ < $ 0 - a - 0 h . 9 @ @ < @ @ [ @ # 2 > v [     + +   { { , { A , , : # $ $ $ - l = - } 2 @ + + + , { ' { o ' ' { 6 ' + ,   [ 3 @ | f - k $ 2 2 # @ # 2 # $ # @ @ # $ $ # @ @ @ 2 9 # $ $ 0 = z u & : 2 $ 1 0 4 = e e _ ( 0 @ < 2 <   +       + {   { + { + . @ < $ 0 - a - 0 h . 9 @ @ < @ @ [ @ # 2 > v [     + +   { { , { A , , : # $ $ $ - l = - } 2 @ + + + , { ",
"@ @ $ $ 0 - 4 = 0 $ . + + +   , , { 6 ' o { { ' , { ,   + @ 1 - 1 1 | m 2 @ $ $ 0 1 $ $ $ # $ # ; $ $ # # 9 m @ $ # ^ ^ a & & : * F z * l - 0 1 - 1 $ [ [ v + ,   { { { { { { , , +   + < m $ 4 y % 0 @ @ . + + [ + + @ 2 m % @ [ > , v v , , { , , { ' , , { : @ @ $ $ 0 - 4 = 0 $ . + + +   , , { 6 ' o { { ' , { ,   + @ 1 - 1 1 | m 2 @ $ $ 0 1 $ $ $ # $ # ; $ $ # # 9 m @ $ # ^ ^ a & & : * F z * l - 0 1 - 1 $ [ [ v + ,   { { { { { { , , +   + < m $ 4 y % 0 @ @ . + + [ + + @ 2 m % @ [ > , v v , , { , , { ' , , { : @ @ $ $ 0 - 4 = 0 $ . + + +   , , { 6 ' o { { ' , { ,   + @ 1 - 1 1 | m 2 @ $ $ 0 1 $ $ $ # $ # ; $ $ # # 9 m @ $ # ^ ^ a & & : * F z * l - 0 1 - 1 $ [ [ v + ,   { { { { { { , , +   + < m $ 4 y % 0 @ @ . + + [ + + @ 2 m % @ [ > , v v , , { , , { ' , , { : @ @ $ $ 0 - 4 = 0 $ . + + +   , ",
"$ 1 $ 0 0 - = - 1 2 9 @ [ [ { B + ' { ' { ' { 6 { , + + [ [ @ 2 m $ 2 3 2 2 @ 2 $ 0 0 # # } ; 0 1 0 1 9 2 9 @ # h $ ; 0 / * p : 4 = r ; $ $ 0 $ $ < @ < > +   v + {   v   { { { > { + + @ $ ; 5 = } # @ < + + . @ . 2 $ $ $ @ + +   A     , + , + { , , { { ' : $ 1 $ 0 0 - = - 1 2 9 @ [ [ { B + ' { ' { ' { 6 { , + + [ [ @ 2 m $ 2 3 2 2 @ 2 $ 0 0 # # } ; 0 1 0 1 9 2 9 @ # h $ ; 0 / * p : 4 = r ; $ $ 0 $ $ < @ < > +   v + {   v   { { { > { + + @ $ ; 5 = } # @ < + + . @ . 2 $ $ $ @ + +   A     , + , + { , , { { ' : $ 1 $ 0 0 - = - 1 2 9 @ [ [ { B + ' { ' { ' { 6 { , + + [ [ @ 2 m $ 2 3 2 2 @ 2 $ 0 0 # # } ; 0 1 0 1 9 2 9 @ # h $ ; 0 / * p : 4 = r ; $ $ 0 $ $ < @ < > +   v + {   v   { { { > { + + @ $ ; 5 = } # @ < + + . @ . 2 $ $ $ @ + +   A     , + , + { , , { { ' : $ 1 $ 0 0 - = - 1 2 9 @ [ [ { B ",
"0 $ 1 1 ; 5 - 5 ; m @ < + + , ] { , { { , , { , { + 6 , + + + @ [ @ + . @ @ @ + . @ 2 $ $ $ 1 l 0 0 $ 0 $ # 9 $ $ # ; 0 = a L : $ $ @ 3 @ @ 2 $ @ 2 > 3 v +   { + { { + + {   { + [ + @ 2 $ - c 0 $ 9 + @ + + + + } % $ @ @ @ + { v { { + v   { , + { { ' , { : 0 $ 1 1 ; 5 - 5 ; m @ < + + , ] { , { { , , { , { + 6 , + + + @ [ @ + . @ @ @ + . @ 2 $ $ $ 1 l 0 0 $ 0 $ # 9 $ $ # ; 0 = a L : $ $ @ 3 @ @ 2 $ @ 2 > 3 v +   { + { { + + {   { + [ + @ 2 $ - c 0 $ 9 + @ + + + + } % $ @ @ @ + { v { { + v   { , + { { ' , { : 0 $ 1 1 ; 5 - 5 ; m @ < + + , ] { , { { , , { , { + 6 , + + + @ [ @ + . @ @ @ + . @ 2 $ $ $ 1 l 0 0 $ 0 $ # 9 $ $ # ; 0 = a L : $ $ @ 3 @ @ 2 $ @ 2 > 3 v +   { + { { + + {   { + [ + @ 2 $ - c 0 $ 9 + @ + + + + } % $ @ @ @ + { v { { + v   { , + { { ' , { : 0 $ 1 1 ; 5 - 5 ; m @ < + + , ] ",
"; k ; } 0 = 0 } 1 $ $ @ @ @ [ { +   {   { { { ' , ' , + +   + . [ + + + + @ + . @ [ @ # $ 1 0 - = ; $ 1 ; $ @ # # $ $ a e * ` : +   + [ + [ @ @ - + @ + 2   + , ' + , , { + + { [ + [ 2 - k - 0 1 @ [ +   + > [ @ $ @ [ + [ + +   , { , , [ + , + , , , { { 6 : ; k ; } 0 = 0 } 1 $ $ @ @ @ [ { +   {   { { { ' , ' , + +   + . [ + + + + @ + . @ [ @ # $ 1 0 - = ; $ 1 ; $ @ # # $ $ a e * ` : +   + [ + [ @ @ - + @ + 2   + , ' + , , { + + { [ + [ 2 - k - 0 1 @ [ +   + > [ @ $ @ [ + [ + +   , { , , [ + , + , , , { { 6 : ; k ; } 0 = 0 } 1 $ $ @ @ @ [ { +   {   { { { ' , ' , + +   + . [ + + + + @ + . @ [ @ # $ 1 0 - = ; $ 1 ; $ @ # # $ $ a e * ` : +   + [ + [ @ @ - + @ + 2   + , ' + , , { + + { [ + [ 2 - k - 0 1 @ [ +   + > [ @ $ @ [ + [ + +   , { , , [ + , + , , , { { 6 : ; k ; } 0 = 0 } 1 $ $ @ @ @ [ { ",
"S c - 5 - 1 % 0 % 5 1 # @ @   C   v > { , , { { { , { , [ + , +   +   ,       [ + < + 2 $ $ $ - 0 $ $ # $ $ # $ $ $ ; % = a e : {     { { + [ +   + , [ 2 3   , v {   +   +   v +   @ - - 0 } 1 $ @ . + + { [ { { [ > , + ' ' , { { , { [ + [ { [ , { { , , , : S c - 5 - 1 % 0 % 5 1 # @ @   C   v > { , , { { { , { , [ + , +   +   ,       [ + < + 2 $ $ $ - 0 $ $ # $ $ # $ $ $ ; % = a e : {     { { + [ +   + , [ 2 3   , v {   +   +   v +   @ - - 0 } 1 $ @ . + + { [ { { [ > , + ' ' , { { , { [ + [ { [ , { { , , , : S c - 5 - 1 % 0 % 5 1 # @ @   C   v > { , , { { { , { , [ + , +   +   ,       [ + < + 2 $ $ $ - 0 $ $ # $ $ # $ $ $ ; % = a e : {     { { + [ +   + , [ 2 3   , v {   +   +   v +   @ - - 0 } 1 $ @ . + + { [ { { [ > , + ' ' , { { , { [ + [ { [ , { { , , , : S c - 5 - 1 % 0 % 5 1 # @ @   C ",
"c 4 - N 0 = - = = = % } 9 @ 2 + @   +   + > , ' , { , + v +   [   +   B v   + + [   + . + . 2 $ $ # @ $ @ 9 $ # $ $ h 0 ; = ( : { { , { { , { { +   + + < 2 + { { + + [ 2 2 @ @ @ 2 2 $ $ 1 $ 1 @ @ + >     { , + + { { ' v A , , {   + , + + + + + , { { ' ' : c 4 - N 0 = - = = = % } 9 @ 2 + @   +   + > , ' , { , + v +   [   +   B v   + + [   + . + . 2 $ $ # @ $ @ 9 $ # $ $ h 0 ; = ( : { { , { { , { { +   + + < 2 + { { + + [ 2 2 @ @ @ 2 2 $ $ 1 $ 1 @ @ + >     { , + + { { ' v A , , {   + , + + + + + , { { ' ' : c 4 - N 0 = - = = = % } 9 @ 2 + @   +   + > , ' , { , + v +   [   +   B v   + + [   + . + . 2 $ $ # @ $ @ 9 $ # $ $ h 0 ; = ( : { { , { { , { { +   + + < 2 + { { + + [ 2 2 @ @ @ 2 2 $ $ 1 $ 1 @ @ + >     { , + + { { ' v A , , {   + , + + + + + , { { ' ' : c 4 - N 0 = - = = = % } 9 @ 2 + ",
"2 | c c - - = c l 4 - 0 0 $ 9 @ . + + > , ' { { , { , , , , + + + C { , + { + [ > + B , < @ @ 2 9 2 @ . # @ 2 $ # 9 $ ; ; = a : ! { ' { ' { ' { { { ' [ 3 @ +   { { + @ 0 % $ 2 - # . @ @ $ 1 # . + + + + {   { ' ' { , , ,   { { + { [ + [ . [ + , {   { { ! : 2 | c c - - = c l 4 - 0 0 $ 9 @ . + + > , ' { { , { , , , , + + + C { , + { + [ > + B , < @ @ 2 9 2 @ . # @ 2 $ # 9 $ ; ; = a : ! { ' { ' { ' { { { ' [ 3 @ +   { { + @ 0 % $ 2 - # . @ @ $ 1 # . + + + + {   { ' ' { , , ,   { { + { [ + [ . [ + , {   { { ! : 2 | c c - - = c l 4 - 0 0 $ 9 @ . + + > , ' { { , { , , , , + + + C { , + { + [ > + B , < @ @ 2 9 2 @ . # @ 2 $ # 9 $ ; ; = a : ! { ' { ' { ' { { { ' [ 3 @ +   { { + @ 0 % $ 2 - # . @ @ $ 1 # . + + + + {   { ' ' { , , ,   { { + { [ + [ . [ + , {   { { ! : 2 | c c - - = c l 4 - 0 0 $ 9 @ ",
"@ m 1 J $ 1 0 4 % * l % 0 % $ @ @ @ @ + + + +   { > , , + + [ 2 @ , ' , { + , + + { , + + + + < @ @ @ . @ @ 2 9 $ h # $ 0 = ( : ! ' 6 { ! 6 A 6 ' { { { @   , + { + . @ } - } * 0 @ 3 . @ 1 } $ @ + + { ' + { , { ,   { + { , + [ [ + [ m 1 m @ [ +   { 6 , 6 : @ m 1 J $ 1 0 4 % * l % 0 % $ @ @ @ @ + + + +   { > , , + + [ 2 @ , ' , { + , + + { , + + + + < @ @ @ . @ @ 2 9 $ h # $ 0 = ( : ! ' 6 { ! 6 A 6 ' { { { @   , + { + . @ } - } * 0 @ 3 . @ 1 } $ @ + + { ' + { , { ,   { + { , + [ [ + [ m 1 m @ [ +   { 6 , 6 : @ m 1 J $ 1 0 4 % * l % 0 % $ @ @ @ @ + + + +   { > , , + + [ 2 @ , ' , { + , + + { , + + + + < @ @ @ . @ @ 2 9 $ h # $ 0 = ( : ! ' 6 { ! 6 A 6 ' { { { @   , + { + . @ } - } * 0 @ 3 . @ 1 } $ @ + + { ' + { , { ,   { + { , + [ [ + [ m 1 m @ [ +   { 6 , 6 : @ m 1 J $ 1 0 4 % * l % 0 % $ @ ",
"+ . [ @ 2 $ - 4 y * * l % $ } $ @ . . . + [   { + , , +   v + + ' + ' A { { +   , > ,     + < @ # @ @ 2 2 $ @ $ # # 9 $ ; 4 a : 6 6 ! , 6 ' ! ! 6 { , + , +   B     + . $ - l - $ @ + + 3 } g } 2 [ ,   , { , , 6 { { {   , + + [ U 1 - 2 @ 2 [   , o , + , , : + . [ @ 2 $ - 4 y * * l % $ } $ @ . . . + [   { + , , +   v + + ' + ' A { { +   , > ,     + < @ # @ @ 2 2 $ @ $ # # 9 $ ; 4 a : 6 6 ! , 6 ' ! ! 6 { , + , +   B     + . $ - l - $ @ + + 3 } g } 2 [ ,   , { , , 6 { { {   , + + [ U 1 - 2 @ 2 [   , o , + , , : + . [ @ 2 $ - 4 y * * l % $ } $ @ . . . + [   { + , , +   v + + ' + ' A { { +   , > ,     + < @ # @ @ 2 2 $ @ $ # # 9 $ ; 4 a : 6 6 ! , 6 ' ! ! 6 { , + , +   B     + . $ - l - $ @ + + 3 } g } 2 [ ,   , { , , 6 { { {   , + + [ U 1 - 2 @ 2 [   , o , + , , : + . [ @ 2 $ - 4 y * * l % $ } $ ",
"+ 3 + . @ $ } 1 4 * F e 0 0 $ $ @ < 2 2 @ . +   , +   , +   +   , , > , ,   + { { > { , + { + 3 . h . @ @ # 9 # m $ ; ; ; % a : ! ' ! ! { ! 6 ) { ' { > {   {   + { . 2 $ 4 - ; m .   @ . . 1 # < > + { { , {     { { [ , + M @ 1 $ @ . . + . + { {   { ' , 6 : + 3 + . @ $ } 1 4 * F e 0 0 $ $ @ < 2 2 @ . +   , +   , +   +   , , > , ,   + { { > { , + { + 3 . h . @ @ # 9 # m $ ; ; ; % a : ! ' ! ! { ! 6 ) { ' { > {   {   + { . 2 $ 4 - ; m .   @ . . 1 # < > + { { , {     { { [ , + M @ 1 $ @ . . + . + { {   { ' , 6 : + 3 + . @ $ } 1 4 * F e 0 0 $ $ @ < 2 2 @ . +   , +   , +   +   , , > , ,   + { { > { , + { + 3 . h . @ @ # 9 # m $ ; ; ; % a : ! ' ! ! { ! 6 ) { ' { > {   {   + { . 2 $ 4 - ; m .   @ . . 1 # < > + { { , {     { { [ , + M @ 1 $ @ . . + . + { {   { ' , 6 : + 3 + . @ $ } 1 4 * F e 0 0 $ $ ",
"+ + + + + @ # 1 5 * z q 4 0 $ @ # + + < @ 2 @ @ + + [ + v + [ +   + { { { , + , , , B , >   + . @ @ @ @ 2 2 # @ $ $ # $ 0 = ( : ! 6 { ' ! ' { ' ! 6 { { > , +   + 3 $ 2 0 0 0 @ 9 @ 3   + . @ @ [ + ,   ' { , { { v   [ @ 1 } . @ . [ + [ + +   + { , { ' { { : + + + + + @ # 1 5 * z q 4 0 $ @ # + + < @ 2 @ @ + + [ + v + [ +   + { { { , + , , , B , >   + . @ @ @ @ 2 2 # @ $ $ # $ 0 = ( : ! 6 { ' ! ' { ' ! 6 { { > , +   + 3 $ 2 0 0 0 @ 9 @ 3   + . @ @ [ + ,   ' { , { { v   [ @ 1 } . @ . [ + [ + +   + { , { ' { { : + + + + + @ # 1 5 * z q 4 0 $ @ # + + < @ 2 @ @ + + [ + v + [ +   + { { { , + , , , B , >   + . @ @ @ @ 2 2 # @ $ $ # $ 0 = ( : ! 6 { ' ! ' { ' ! 6 { { > , +   + 3 $ 2 0 0 0 @ 9 @ 3   + . @ @ [ + ,   ' { , { { v   [ @ 1 } . @ . [ + [ + +   + { , { ' { { : + + + + + @ # 1 5 * z q 4 0 $ @ ",
"+   +   . + @ m 0 l z t e = ^ $ $ @ @ @ + @ +     + + ,   +   , { + , +     + { , > + { [ > + + . @ @ . @ 2 $ ; $ 0 ; 0 % / V : ! ' ! o 6 { ! { ! { { { v + + + m # $ 1 $ $ @ 2 @ + + + 3 @ + . + + + { , , v   +   @ m 2 @ [ . [ + + + + + , , { ' 6 { 6 { 6 : +   +   . + @ m 0 l z t e = ^ $ $ @ @ @ + @ +     + + ,   +   , { + , +     + { , > + { [ > + + . @ @ . @ 2 $ ; $ 0 ; 0 % / V : ! ' ! o 6 { ! { ! { { { v + + + m # $ 1 $ $ @ 2 @ + + + 3 @ + . + + + { , , v   +   @ m 2 @ [ . [ + + + + + , , { ' 6 { 6 { 6 : +   +   . + @ m 0 l z t e = ^ $ $ @ @ @ + @ +     + + ,   +   , { + , +     + { , > + { [ > + + . @ @ . @ 2 $ ; $ 0 ; 0 % / V : ! ' ! o 6 { ! { ! { { { v + + + m # $ 1 $ $ @ 2 @ + + + 3 @ + . + + + { , , v   +   @ m 2 @ [ . [ + + + + + , , { ' 6 { 6 { 6 : +   +   . + @ m 0 l z t e = ^ $ ",
"+ + { + + + @ @ $ 4 * z a = 0 $ 2 @ <   + + [ + [ +   + + [ + + . + ' , { v {   + , { + + { + + . $ [ @ @ 9 } = 0 % % N = a z : R ! ' ! { ! ' ! { ' { , { + @ 2 $ @ m $ @ @ @ @ < . + . C . + 3 + ,   + v + [ [ 2 @ [ + < + + + { { {   v , { { { o { , { { ! : + + { + + + @ @ $ 4 * z a = 0 $ 2 @ <   + + [ + [ +   + + [ + + . + ' , { v {   + , { + + { + + . $ [ @ @ 9 } = 0 % % N = a z : R ! ' ! { ! ' ! { ' { , { + @ 2 $ @ m $ @ @ @ @ < . + . C . + 3 + ,   + v + [ [ 2 @ [ + < + + + { { {   v , { { { o { , { { ! : + + { + + + @ @ $ 4 * z a = 0 $ 2 @ <   + + [ + [ +   + + [ + + . + ' , { v {   + , { + + { + + . $ [ @ @ 9 } = 0 % % N = a z : R ! ' ! { ! ' ! { ' { , { + @ 2 $ @ m $ @ @ @ @ < . + . C . + 3 + ,   + v + [ [ 2 @ [ + < + + + { { {   v , { { { o { , { { ! : + + { + + + @ @ $ 4 * z a = 0 $ ",
"+ + + ' + + < . $ } = e a l ^ 0 $ @ @ + + + < + + [ +   [ @ [ . v   v + {   + , { > { , + + . @ . @ $ @ 2 # ; - = = l / 4 a j : { , { ' 6 ' ,   { >     2 $ m = k # m @ @ < . + < +   + @ 3 < + + + [   [ [ . 2 3 [ + + , + {   , { {   > + {   { ' { 6 ' , { : + + + ' + + < . $ } = e a l ^ 0 $ @ @ + + + < + + [ +   [ @ [ . v   v + {   + , { > { , + + . @ . @ $ @ 2 # ; - = = l / 4 a j : { , { ' 6 ' ,   { >     2 $ m = k # m @ @ < . + < +   + @ 3 < + + + [   [ [ . 2 3 [ + + , + {   , { {   > + {   { ' { 6 ' , { : + + + ' + + < . $ } = e a l ^ 0 $ @ @ + + + < + + [ +   [ @ [ . v   v + {   + , { > { , + + . @ . @ $ @ 2 # ; - = = l / 4 a j : { , { ' 6 ' ,   { >     2 $ m = k # m @ @ < . + < +   + @ 3 < + + + [   [ [ . 2 3 [ + + , + {   , { {   > + {   { ' { 6 ' , { : + + + ' + + < . $ } = e a l ^ 0 ",
"[ + , +   { + [ 9 $ 4 z e a - 0 $ $ < +     , +   + + , + + [ +   [ + , + , ,   , + ,     + + [ @ @ 2 ; $ 1 } 4 * * * l g a z : ' 6 { { + 6 { { , + . m 2 P - 4 0 1 $ # . [ + . + + @ . @ 2 . . 1 [ [ [ . 2 @ +   +   { ,   { , ' , ' { , + + ' ~.' , { , ' 6 : [ + , +   { + [ 9 $ 4 z e a - 0 $ $ < +     , +   + + , + + [ +   [ + , + , ,   , + ,     + + [ @ @ 2 ; $ 1 } 4 * * * l g a z : ' 6 { { + 6 { { , + . m 2 P - 4 0 1 $ # . [ + . + + @ . @ 2 . . 1 [ [ [ . 2 @ +   +   { ,   { , ' , ' { , + + ' ~.' , { , ' 6 : [ + , +   { + [ 9 $ 4 z e a - 0 $ $ < +     , +   + + , + + [ +   [ + , + , ,   , + ,     + + [ @ @ 2 ; $ 1 } 4 * * * l g a z : ' 6 { { + 6 { { , + . m 2 P - 4 0 1 $ # . [ + . + + @ . @ 2 . . 1 [ [ [ . 2 @ +   +   { ,   { , ' , ' { , + + ' ~.' , { , ' 6 : [ + , +   { + [ 9 $ 4 z e a - 0 ",
"[ + > + > + + < h 1 a q q e = = ; $ @   B + +   {   ,   o   [ + + { ,   v   , + { { {   + + < @ @ # 2 1 0 0 % 5 l a a / * a V : { , { , { + + [ < 2 m 2 $ } 0 0 0 $ $ + @ @ < + + # @ @ @ . @ 2 # @ 2 @ [ + +   +   {   { { { { > { { { + { , { { { , { 6 , + : [ + > + > + + < h 1 a q q e = = ; $ @   B + +   {   ,   o   [ + + { ,   v   , + { { {   + + < @ @ # 2 1 0 0 % 5 l a a / * a V : { , { , { + + [ < 2 m 2 $ } 0 0 0 $ $ + @ @ < + + # @ @ @ . @ 2 # @ 2 @ [ + +   +   {   { { { { > { { { + { , { { { , { 6 , + : [ + > + > + + < h 1 a q q e = = ; $ @   B + +   {   ,   o   [ + + { ,   v   , + { { {   + + < @ @ # 2 1 0 0 % 5 l a a / * a V : { , { , { + + [ < 2 m 2 $ } 0 0 0 $ $ + @ @ < + + # @ @ @ . @ 2 # @ 2 @ [ + +   +   {   { { { { > { { { + { , { { { , { 6 , + : [ + > + > + + < h 1 a q q e = = ",
". + + { { , . @ $ 1 % y & e = = 0 # @ < +   { + , { { , +   + ,   [ > + , + + { ,   v @ { < [ @ % @ @ $ a 4 % = - 4 4 a e e z : ' + + @ 2 + 2 2 @ 2 $ 2 # $ 1 $ $ $ 9 . + @ + + + @ @ 1 $ @ 2 $ @ 2 2 @ + [ , v , { { o , { { , { { { + + [ + , , { ,   + v [ : . + + { { , . @ $ 1 % y & e = = 0 # @ < +   { + , { { , +   + ,   [ > + , + + { ,   v @ { < [ @ % @ @ $ a 4 % = - 4 4 a e e z : ' + + @ 2 + 2 2 @ 2 $ 2 # $ 1 $ $ $ 9 . + @ + + + @ @ 1 $ @ 2 $ @ 2 2 @ + [ , v , { { o , { { , { { { + + [ + , , { ,   + v [ : . + + { { , . @ $ 1 % y & e = = 0 # @ < +   { + , { { , +   + ,   [ > + , + + { ,   v @ { < [ @ % @ @ $ a 4 % = - 4 4 a e e z : ' + + @ 2 + 2 2 @ 2 $ 2 # $ 1 $ $ $ 9 . + @ + + + @ @ 1 $ @ 2 $ @ 2 2 @ + [ , v , { { o , { { , { { { + + [ + , , { ,   + v [ : . + + { { , . @ $ 1 % y & e = = ",
"@ [   [ > + C [ 9 $ = 4 e e a = 0 $ 2 < + + + { ,   v > { + ,   + + , + , + , , { { { , @ + [ @ 2 # 2 $ # = a = = % = = 4 I ( : + [ m - $ ; - } $ 1 $ 2 $ @ 9 2 # @ @ + + + < . C @ 1 $ 1 $ $ # @ @ [   +   { + ' { ' { {   { ' + {   + [ + + { + { + [ [ + , : @ [   [ > + C [ 9 $ = 4 e e a = 0 $ 2 < + + + { ,   v > { + ,   + + , + , + , , { { { , @ + [ @ 2 # 2 $ # = a = = % = = 4 I ( : + [ m - $ ; - } $ 1 $ 2 $ @ 9 2 # @ @ + + + < . C @ 1 $ 1 $ $ # @ @ [   +   { + ' { ' { {   { ' + {   + [ + + { + { + [ [ + , : @ [   [ > + C [ 9 $ = 4 e e a = 0 $ 2 < + + + { ,   v > { + ,   + + , + , + , , { { { , @ + [ @ 2 # 2 $ # = a = = % = = 4 I ( : + [ m - $ ; - } $ 1 $ 2 $ @ 9 2 # @ @ + + + < . C @ 1 $ 1 $ $ # @ @ [   +   { + ' { ' { {   { ' + {   + [ + + { + { + [ [ + , : @ [   [ > + C [ 9 $ = 4 e e a = ",
"[ + + + + + . @ # 1 ; = F O z a = 1 C . + { { ' { 6 { { , { + , , + + { , { > { , {   {   + + @ @ @ @ @ $ $ ; l = 0 % = g a V : . 1 = - 0 5 5 - ; $ @ $ @ < @ @ < + + <   + + B . 2 0 * % $ # @ . > +   { , ! ' ! , ! ' { + { { {   + . 2 .     , , [ +   +   : [ + + + + + . @ # 1 ; = F O z a = 1 C . + { { ' { 6 { { , { + , , + + { , { > { , {   {   + + @ @ @ @ @ $ $ ; l = 0 % = g a V : . 1 = - 0 5 5 - ; $ @ $ @ < @ @ < + + <   + + B . 2 0 * % $ # @ . > +   { , ! ' ! , ! ' { + { { {   + . 2 .     , , [ +   +   : [ + + + + + . @ # 1 ; = F O z a = 1 C . + { { ' { 6 { { , { + , , + + { , { > { , {   {   + + @ @ @ @ @ $ $ ; l = 0 % = g a V : . 1 = - 0 5 5 - ; $ @ $ @ < @ @ < + + <   + + B . 2 0 * % $ # @ . > +   { , ! ' ! , ! ' { + { { {   + . 2 .     , , [ +   +   : [ + + + + + . @ # 1 ; = F O z a ",
": : : : : : : : : : : : : : : : : : : : : : : : : : : : : : : : : : : : : : : : : : : : : : : : : : : : : : : : : : : : : : : : : : : : : : : : : : : : : : : : : : : : : : : : : : : : : : : : : : : : : : : : : : : : : : : : : : : : : : : : : : : : : : : : : : : : : : : : : : : : : : : : : : : : : : : : : : : : : : : : : : : : : : : : : : : : : : : : : : : : : : : : : : : : : : : : : : : : : : : : : : : : : : : : : : : : : : : : : : : : : : : : : : : : : : : : : : : : : : : : : : : : : : : : : : : : : : : : : : : : : : : : : : : : : : : : : : : : : : : : : : : : : : : : : : : : : : : : : : : : : : : : : : : : : : : : : : : : : : : : : : : : : : : : : : : : : : : : : : : : : : : : : : : : : : : : : : : : : : : : : : : : : : : : : : : : : : : : : : : : : : : : : : : : : : : : : : : : : : : : ",
"  . + @ # $ % & * * = - ; @ . >   > , ' > ' ) ' ' ' ) ! ) ' ) ' ) ! ) ! ~ ' ' ' ) ! ) ' ' ' +     { ] ' ' { > >   @ # ^ / ( _ : < [ < @ [ } | } - 1 ; $ $ 1 # @ $ 1 - $ $ 2 . [ + + { ' ' ! { ! { { + [ [ . 1 + + + . + . $ 1 $ 2 2 @ @ [ + . [ . 3 . + + + . :   . + @ # $ % & * * = - ; @ . >   > , ' > ' ) ' ' ' ) ! ) ' ) ' ) ! ) ! ~ ' ' ' ) ! ) ' ' ' +     { ] ' ' { > >   @ # ^ / ( _ : < [ < @ [ } | } - 1 ; $ $ 1 # @ $ 1 - $ $ 2 . [ + + { ' ' ! { ! { { + [ [ . 1 + + + . + . $ 1 $ 2 2 @ @ [ + . [ . 3 . + + + . :   . + @ # $ % & * * = - ; @ . >   > , ' > ' ) ' ' ' ) ! ) ' ) ' ) ! ) ! ~ ' ' ' ) ! ) ' ' ' +     { ] ' ' { > >   @ # ^ / ( _ : < [ < @ [ } | } - 1 ; $ $ 1 # @ $ 1 - $ $ 2 . [ + + { ' ' ! { ! { { + [ [ . 1 + + + . + . $ 1 $ 2 2 @ @ [ + . [ . 3 . + + + . :   . + @ # $ % & * * = - ; @ . > ",
"< @ . @ . ; * 4 5 - ; 2 @ @ + +   + { > , ' ! 6 ' ' ! 6 6 ' 6 7 ! ! 8 { ' { ! 6 ' ' + ' { [ + 2 [ { { { ' , 6   > + 9 $ 0 a b : @ 2 . @ # @ - c - - 5 d 1 0 1 $ $ 0 @ 2 . @ 3 + [ + { { 6 { ' , + 2 @   + + [ @ [ @ @ @ @ $ 5 0 $ 0 2 2 @ $ $ @ @ . 2 [ + [ [ : < @ . @ . ; * 4 5 - ; 2 @ @ + +   + { > , ' ! 6 ' ' ! 6 6 ' 6 7 ! ! 8 { ' { ! 6 ' ' + ' { [ + 2 [ { { { ' , 6   > + 9 $ 0 a b : @ 2 . @ # @ - c - - 5 d 1 0 1 $ $ 0 @ 2 . @ 3 + [ + { { 6 { ' , + 2 @   + + [ @ [ @ @ @ @ $ 5 0 $ 0 2 2 @ $ $ @ @ . 2 [ + [ [ : < @ . @ . ; * 4 5 - ; 2 @ @ + +   + { > , ' ! 6 ' ' ! 6 6 ' 6 7 ! ! 8 { ' { ! 6 ' ' + ' { [ + 2 [ { { { ' , 6   > + 9 $ 0 a b : @ 2 . @ # @ - c - - 5 d 1 0 1 $ $ 0 @ 2 . @ 3 + [ + { { 6 { ' , + 2 @   + + [ @ [ @ @ @ @ $ 5 0 $ 0 2 2 @ $ $ @ @ . 2 [ + [ [ : < @ . @ . ; * 4 5 - ; 2 @ @ + + ",
"@ [ @ # $ $ ; 1 $ ; $ @ . @ <     > , { ' { 6 6 ! { 6 ! ! ! ! ' ' 6 { { ' + ' { 6 { { > , + [ 2 + ,   { { > { + + < $ $ ^ e b : $ # @ . @ 2 @ 1 f g - 5 = * 0 } # 1 2 h 3 . @ . + + + + { { { { , { + 3   + + . + + + . [ $ # 0 | $ $ $ @ @ @ @ @ 2 @ + [ < + : @ [ @ # $ $ ; 1 $ ; $ @ . @ <     > , { ' { 6 6 ! { 6 ! ! ! ! ' ' 6 { { ' + ' { 6 { { > , + [ 2 + ,   { { > { + + < $ $ ^ e b : $ # @ . @ 2 @ 1 f g - 5 = * 0 } # 1 2 h 3 . @ . + + + + { { { { , { + 3   + + . + + + . [ $ # 0 | $ $ $ @ @ @ @ @ 2 @ + [ < + : @ [ @ # $ $ ; 1 $ ; $ @ . @ <     > , { ' { 6 6 ! { 6 ! ! ! ! ' ' 6 { { ' + ' { 6 { { > , + [ 2 + ,   { { > { + + < $ $ ^ e b : $ # @ . @ 2 @ 1 f g - 5 = * 0 } # 1 2 h 3 . @ . + + + + { { { { , { + 3   + + . + + + . [ $ # 0 | $ $ $ @ @ @ @ @ 2 @ + [ < + : @ [ @ # $ $ ; 1 $ ; $ @ . @ <   ",
"9 h ; $ $ # 2 @ @ @ . . @ . @ [ >   {   { ' ' ' ' ' ! ' ' i ' 6 ' ' , 6 { ' ' ' '   ' '   [ . + , ' > , '   + + . @ ; ; a j b : @ $ # @ 2 $ $ 1 $ $ k 4 c l - 0 0 m 9 . [ . + 3 . @ [ {   { 6 ' { , { , + { [ @ < @ 9 + . $ 1 0 - n } 1 # # @ # 1 @ @ . @ 3 . : 9 h ; $ $ # 2 @ @ @ . . @ . @ [ >   {   { ' ' ' ' ' ! ' ' i ' 6 ' ' , 6 { ' ' ' '   ' '   [ . + , ' > , '   + + . @ ; ; a j b : @ $ # @ 2 $ $ 1 $ $ k 4 c l - 0 0 m 9 . [ . + 3 . @ [ {   { 6 ' { , { , + { [ @ < @ 9 + . $ 1 0 - n } 1 # # @ # 1 @ @ . @ 3 . : 9 h ; $ $ # 2 @ @ @ . . @ . @ [ >   {   { ' ' ' ' ' ! ' ' i ' 6 ' ' , 6 { ' ' ' '   ' '   [ . + , ' > , '   + + . @ ; ; a j b : @ $ # @ 2 $ $ 1 $ $ k 4 c l - 0 0 m 9 . [ . + 3 . @ [ {   { 6 ' { , { , + { [ @ < @ 9 + . $ 1 0 - n } 1 # # @ # 1 @ @ . @ 3 . : 9 h ; $ $ # 2 @ @ @ . . @ . @ [ ",
"$ 1 - = 1 2 @ . [ 2 . $ . 9 2 $   +   6 ' ' 6 ' ' 6 , 8 6 ' o ' 6 {   ' , { , { , ' , ' ,   @     , , '   {   [ @ ; 5 / j & a : @ 2 @ 2 @ # m 1 1 $ 0 n g = - 0 ; $ @ @ < + + . 2 @ [ + > { { { { ' { { { + [ @ 2 # @ $ $ $ 5 ; } 5 $ 1 0 3 @ m $ # $ @ $ # @ : $ 1 - = 1 2 @ . [ 2 . $ . 9 2 $   +   6 ' ' 6 ' ' 6 , 8 6 ' o ' 6 {   ' , { , { , ' , ' ,   @     , , '   {   [ @ ; 5 / j & a : @ 2 @ 2 @ # m 1 1 $ 0 n g = - 0 ; $ @ @ < + + . 2 @ [ + > { { { { ' { { { + [ @ 2 # @ $ $ $ 5 ; } 5 $ 1 0 3 @ m $ # $ @ $ # @ : $ 1 - = 1 2 @ . [ 2 . $ . 9 2 $   +   6 ' ' 6 ' ' 6 , 8 6 ' o ' 6 {   ' , { , { , ' , ' ,   @     , , '   {   [ @ ; 5 / j & a : @ 2 @ 2 @ # m 1 1 $ 0 n g = - 0 ; $ @ @ < + + . 2 @ [ + > { { { { ' { { { + [ @ 2 # @ $ $ $ 5 ; } 5 $ 1 0 3 @ m $ # $ @ $ # @ : $ 1 - = 1 2 @ . [ 2 . $ . 9 2 $ ",
"# 0 * a # @ + + + < < @ @ ; = @ [ +   { {   { o 6 , { 6 ! { , ' { { ' { ' , , ' o {   { + , [ + , { '   , + + @ # ^ ( p e / a : 2 2 # 2 $ 2 @ $ 1 - $ 1 - c 4 0 1 $ @ + . + + + # 1 [ + , [ { ' , { { ' ,   2 $ 0 } 0 / = ^ 5 0 ; 1 1 $ 1 # 2 # } 1 $ - * 0 @ : # 0 * a # @ + + + < < @ @ ; = @ [ +   { {   { o 6 , { 6 ! { , ' { { ' { ' , , ' o {   { + , [ + , { '   , + + @ # ^ ( p e / a : 2 2 # 2 $ 2 @ $ 1 - $ 1 - c 4 0 1 $ @ + . + + + # 1 [ + , [ { ' , { { ' ,   2 $ 0 } 0 / = ^ 5 0 ; 1 1 $ 1 # 2 # } 1 $ - * 0 @ : # 0 * a # @ + + + < < @ @ ; = @ [ +   { {   { o 6 , { 6 ! { , ' { { ' { ' , , ' o {   { + , [ + , { '   , + + @ # ^ ( p e / a : 2 2 # 2 $ 2 @ $ 1 - $ 1 - c 4 0 1 $ @ + . + + + # 1 [ + , [ { ' , { { ' ,   2 $ 0 } 0 / = ^ 5 0 ; 1 1 $ 1 # 2 # } 1 $ - * 0 @ : # 0 * a # @ + + + < < @ @ ; = @ ",
"; 0 4 1 @ [     >     < # ; a # . {   ! ' 6 ' ' ' ' ' ' , ' ' 6 ' 6 , '   ' , ,   ' ,   {       ' { > {   . @ # 0 ( q / = ^ % : 1 $ 1 1 # $ $ 1 $ - 0 ; 0 4 c - $ 1 @ @ @ @ [ . m $ @ + > {   , ! { 6 { + [ } * / * e q q e a 0 r $ $ $ 2 $ 2 $ 0 % - 0 q ; @ : ; 0 4 1 @ [     >     < # ; a # . {   ! ' 6 ' ' ' ' ' ' , ' ' 6 ' 6 , '   ' , ,   ' ,   {       ' { > {   . @ # 0 ( q / = ^ % : 1 $ 1 1 # $ $ 1 $ - 0 ; 0 4 c - $ 1 @ @ @ @ [ . m $ @ + > {   , ! { 6 { + [ } * / * e q q e a 0 r $ $ $ 2 $ 2 $ 0 % - 0 q ; @ : ; 0 4 1 @ [     >     < # ; a # . {   ! ' 6 ' ' ' ' ' ' , ' ' 6 ' 6 , '   ' , ,   ' ,   {       ' { > {   . @ # 0 ( q / = ^ % : 1 $ 1 1 # $ $ 1 $ - 0 ; 0 4 c - $ 1 @ @ @ @ [ . m $ @ + > {   , ! { 6 { + [ } * / * e q q e a 0 r $ $ $ 2 $ 2 $ 0 % - 0 q ; @ : ; 0 4 1 @ [     >     < # ; a # ",
"0 d 0 # @ < +   + . [ 9 $ 4 * $ 9 [   + ,   { ' 6 ' { , ' , '   , '   { , ' ,   > , >   .     +       [ @ @ # 0 a s / 5 ^ - / : 1 1 $ $ } 1 $ 2 2 $ $ - 0 0 4 - 1 $ # 9 @ @ + . @ 1 [ + + + { { ' { , ' + @ - j t _ _ b u t / - 0 1 $ $ 1 1 1 1 0 s 0 = - $ @ : 0 d 0 # @ < +   + . [ 9 $ 4 * $ 9 [   + ,   { ' 6 ' { , ' , '   , '   { , ' ,   > , >   .     +       [ @ @ # 0 a s / 5 ^ - / : 1 1 $ $ } 1 $ 2 2 $ $ - 0 0 4 - 1 $ # 9 @ @ + . @ 1 [ + + + { { ' { , ' + @ - j t _ _ b u t / - 0 1 $ $ 1 1 1 1 0 s 0 = - $ @ : 0 d 0 # @ < +   + . [ 9 $ 4 * $ 9 [   + ,   { ' 6 ' { , ' , '   , '   { , ' ,   > , >   .     +       [ @ @ # 0 a s / 5 ^ - / : 1 1 $ $ } 1 $ 2 2 $ $ - 0 0 4 - 1 $ # 9 @ @ + . @ 1 [ + + + { { ' { , ' + @ - j t _ _ b u t / - 0 1 $ $ 1 1 1 1 0 s 0 = - $ @ : 0 d 0 # @ < +   + . [ 9 $ 4 * $ ",
"= / 0 # . +   > +   + # $ a % $ . + >   ' { ' , ' ) , { {   { ,   { , 8 ' { ' '   { { +   > + .   +   . # $ = / * / 0 ; 0 - g : 9 2 1 2 k # m # @ # $ 1 4 4 4 = 0 # m $ @ @ . @ [ 2 @ [ + , , { + 6 + { v 2 5 j p w b x b y = 0 ; 5 # 2 2 @ 2 $ 1 4 - 0 $ ; @ : = / 0 # . +   > +   + # $ a % $ . + >   ' { ' , ' ) , { {   { ,   { , 8 ' { ' '   { { +   > + .   +   . # $ = / * / 0 ; 0 - g : 9 2 1 2 k # m # @ # $ 1 4 4 4 = 0 # m $ @ @ . @ [ 2 @ [ + , , { + 6 + { v 2 5 j p w b x b y = 0 ; 5 # 2 2 @ 2 $ 1 4 - 0 $ ; @ : = / 0 # . +   > +   + # $ a % $ . + >   ' { ' , ' ) , { {   { ,   { , 8 ' { ' '   { { +   > + .   +   . # $ = / * / 0 ; 0 - g : 9 2 1 2 k # m # @ # $ 1 4 4 4 = 0 # m $ @ @ . @ [ 2 @ [ + , , { + 6 + { v 2 5 j p w b x b y = 0 ; 5 # 2 2 @ 2 $ 1 4 - 0 $ ; @ : = / 0 # . +   > +   + # $ a % $ ",
"= z 0 @   < , + > + . @ ; l q ; @ + + { , ' > ' 6 { '   , { , > , 6 A ! + ' { B > { + { C [ < + [ @ + . 1 / e * e ^ 1 $ $ ; = : 2 1 1 2 $ 1 @ $ @ $ - k 5 * f g - $ # $ $ # @ @ + 2 $ [ + + @ + , { , +   + - j j p D E _ a ^ $ $ 0 @ $ < @ @ @ @ 2 0 1 4 0 @ : = z 0 @   < , + > + . @ ; l q ; @ + + { , ' > ' 6 { '   , { , > , 6 A ! + ' { B > { + { C [ < + [ @ + . 1 / e * e ^ 1 $ $ ; = : 2 1 1 2 $ 1 @ $ @ $ - k 5 * f g - $ # $ $ # @ @ + 2 $ [ + + @ + , { , +   + - j j p D E _ a ^ $ $ 0 @ $ < @ @ @ @ 2 0 1 4 0 @ : = z 0 @   < , + > + . @ ; l q ; @ + + { , ' > ' 6 { '   , { , > , 6 A ! + ' { B > { + { C [ < + [ @ + . 1 / e * e ^ 1 $ $ ; = : 2 1 1 2 $ 1 @ $ @ $ - k 5 * f g - $ # $ $ # @ @ + 2 $ [ + + @ + , { , +   + - j j p D E _ a ^ $ $ 0 @ $ < @ @ @ @ 2 0 1 4 0 @ : = z 0 @   < , + > + . @ ; l q ; ",
"= e 0 9 + <     + + < @ ; / * 0 @ +   { > { ' { { ' { { ' +   v   > ' ' {   ' + {     [ + @ 2 2 # @ @ 9 } 4 4 4 4 {.].].].].].].].].].].].].].].].].].].].].].].].].].].].].].^.+ @ . C [ , , { { , +   [ < m 0 l j G u & = 0 $ $ @ 9 + @ + . @ + @ $ 1 = 1 1 : = e /.].].].].].].].].].].].].].].].].].].].].].].].].].].].].].].r ' ' {   ' + {     [ + @ 2 2 # @ @ 9 } 4 4 4 4 0 ; # ; $ 4 : # @ $ @ @ 1 m # @ 2 @ y ].].].].].].].].].].].].].].].].].].].].].].].].].].].].].].(.u & = 0 $ $ @ 9 + @ + . @ + @ $ 1 = 1 1 _.].].].].].].].].].].].].].].].].].].].].].].].].].].].].].].].].].].].].].].].].].].].].].].].].].].].].].].].].].].].].].].].].].].].].].].].].].].].].].].].].].].].].].:.@ . + @ . C [ , , { { , +   [ < m 0 l j G u & = 0 $ $ @ 9 + @ + . @ + @ $ 1 = 1 1 : = e 0 9 + <     + + < @ ; / * 0 ",
"/ * 4 $ . + +   + + < @ 0 y 0 ; @ < <   , { + { >   ,   +     + , ' , { { ! { +   +   + . 2 0 = $ 2 2 @ 2 @ 1 ; #  .].].].].].].].].].].].].].].].].].].].].].].].].].].].].].<.m < 2 m . 3   {   { { { + + @ @ ; q H t e = 0 $ < @ < + . + @ + + . @ 1 2 $ $ : / ( [.].].].].].].].].].].].].].].].].].].].].].].].].].].].].].].e , { { ! { +   +   + . 2 0 = $ 2 2 @ 2 @ 1 ; # $ 2 2 @ $ 0 : 2 . 2 @ # 2 1 $ m # $ p ].].].].].].].].].].].].].].].].].].].].].].].].].].].].].}.H t e = 0 $ < @ < + . + @ + + . @ 1 2 $ $ _.].].].].].].].].].].].].].].].].].].].].].].].].].].].].].].].].].].].].].].].].].].].].].].].].].].].].].].].].].].].].].].].].].].].].].].].].].].].].].].].].].].].].].{.$ # @ < 2 m . 3   {   { { { + + @ @ ; q H t e = 0 $ < @ < + . + @ + + . @ 1 2 $ $ : / * 4 $ . + +   + + < @ 0 y 0 ; ",
"l = 1 @ @ < + + +   + @ / 0 $ @ 2 < + + +   +   { , + { + , +   > { { { > + + > + . + + # @ 2 # 2 [   + . . 2 @ $ S ].].].].].].].].].].].].].].].].].].].].].].].].].].].].].].I @ . @ . + + + , { , [   + + . 1 = l I a = ; @ @ . 3 @ @ [ . @ [ @ @ 2 [ # 1 : l q ].].].].].].].].].].].].].].].].].].].].].].].].].].].].].].].x { { > + + > + . + + # @ 2 # 2 [   + . . 2 @ $ . @ 9 $ 9 ; : . [ + @ [ 2 1 $ 2 @ $ |.].].].].].].].].].].].].].].].].].].].].].].].].].].].].].$.l I a = ; @ @ . 3 @ @ [ . @ [ @ @ 2 [ # 1 _.].].].].].].].].].].].].].].].].].].].].].].].].].].].].].].].].].].].].].].].].].].].].].].].].].].].].].].].].].].].].].].].].].].].].].].].].].].].].].].].].].].].].].:.# 2 h @ . @ . + + + , { , [   + + . 1 = l I a = ; @ @ . 3 @ @ [ . @ [ @ @ 2 [ # 1 : l = 1 @ @ < + + +   + @ / 0 $ @ ",
"0 0 9 @ . + < + > C + . $ # # @ . + . + + + , { { { ,   { {   { , {   { {   { +   $ . @ [ @ @ [ + . { [ + + @ < @ r ].].].].].].].].].].].].].].].].].].].].].].].].].].].].].].L @ @ + 3 + +   + { + [ + + + [ @ $ 0 0 4 5 2 $ > + @ @ @ @ @ < . + [ [ @ 2 m : 0 '.].].].].].].].].].].].].].].].].].].].].].].].].].].].].].].].1.v { {   { +   $ . @ [ @ @ [ + . { [ + + @ < @ m @ 0 $ @ @ : + [ @ . @ 2 k 1 2 $ J 2.].].].].].].].].].].].].].].].].].].].].].].].].].].].].].s 0 0 4 5 2 $ > + @ @ @ @ @ < . + [ [ @ 2 m _.].].].].].].].].].].].].].].].].].].].].].].].].].].].].].].].].].].].].].].].].].].].].].].].].].].].].].].].].].].].].].].].].].].].].].].].].].].].].].].].].].].].].].3.r ; @ @ @ + 3 + +   + { + [ + + + [ @ $ 0 0 4 5 2 $ > + @ @ @ @ @ < . + [ [ @ 2 m : 0 0 9 @ . + < + > C + . $ # # @ ",
"$ @ # + < @ + < @ # 9 @ @ < @ # 2 @ + [ +   3 , ,   { + + + . + + + +   > + @ C [ [ @ . @ . +   + . +   @ # @ # $ # 4.].].].].].].].].].].].].].].].].].].].].].].].].].].].].].5.# [ 2 . . [ [ + [ + +   + . . $ 2 # 0 $ ; $ $ + + + < 2 1 @ [ @ [ C [ [ . 2 : $ 6.].].].].].].].].].].].].].].].].].].].].].].].].].].].].].].].].k   > + @ C [ [ @ . @ . +   + . +   @ # @ # $ # $ ; # + + : . . @ + [ @ 9 $ 1 # S ].].].].].].].].].].].].].].].].].].].].].].].].].].].].].].r # 0 $ ; $ $ + + + < 2 1 @ [ @ [ C [ [ . 2 _.].].].].].].].].].].].].].].].].].].].].].].].].].].].].].].].].].].].].].].].].].].].].].].].].].].].].].].].].].].].].].].].].].].].].].].].].].].].].].].].].].].].].].:.1 0 1 # [ 2 . . [ [ + [ + +   + . . $ 2 # 0 $ ; $ $ + + + < 2 1 @ [ @ [ C [ [ . 2 : $ @ # + < @ + < @ # 9 @ @ < @ # ",
"@ ; @ 9 @ > . @ @ @ @ @ . # @ $ @ + + .   + +     3   +   + . @ . + . + + $ < 2 # < @   > + + @ < +   + + @ @ 0 0 0 E ].].].].].].].].].].].].].].].].].].].].].].].].].].].].].7.| m @ . @ . + + . + @ [ @ [ @ 2 @ m $ $ $ } ; @ # < [ $ 0 1 @ @ . @ . @ + . : @ 8.].].].].].].].].].].].].].].].].].].].].].].].].].].].].].].].].q + + $ < 2 # < @   > + + @ < +   + + @ @ 0 0 0 $ 0 $ @   : @ + @ . @ . @ # J 1 H ].].].].].].].].].].].].].].].].].].].].].].].].].].].].].9.@ m $ $ $ } ; @ # < [ $ 0 1 @ @ . @ . @ + . _.].].].].].].].].].].].].].].].].].].].].].].].].].].].].].].].].].].].].].].].].].].].].].].].].].].].].].].].].].].].].].].].].].].].].].].].].].].].].].].].].].].].].].:.0 - ; $ m @ . @ . + + . + @ [ @ [ @ 2 @ m $ $ $ } ; @ # < [ $ 0 1 @ @ . @ . @ + . : @ ; @ 9 @ > . @ @ @ @ @ . # @ $ ",
"< # $ @ . $ 9 $ $ # @ 2 @ @ $ $ @ @ . @ @ [ + > v < [ + @ 9 @ # @ . < @ # 1 # @ < [ . [ [   + + + . + < + . - $ 1 0 j ].].].].].].].].].].].].].].].].].].].].].].].].].].].].].].a 2 9 @ m @ [ [ + . [ + + [ . [ @ @ 1 ; $ $ @ @ @ @ @ @ 2 $ @ @ @ @ @ [ . 2 : d ].].].].].].].].].].].].].].].].].].].].].].].].].].].].].].].].].D @ # 1 # @ < [ . [ [   + + + . + < + . - $ 1 0 1 @ @   > : + @ . [ @ 2 2 @ 2 2 0.].].].].].].].].].].].].].].].].].].].].].].].].].].].].].G @ @ 1 ; $ $ @ @ @ @ @ @ 2 $ @ @ @ @ @ [ . 2 _.].].].].].].].].].].].].].].].].].].].].].].].].].].].].].].].].].].].].].].].].].].].].].].].].].].].].].].].].].].].].].].].].].].].].].].].].].].].].].].].].].].].].].a.$ } r ; 2 9 @ m @ [ [ + . [ + + [ . [ @ @ 1 ; $ $ @ @ @ @ @ @ 2 $ @ @ @ @ @ [ . 2 : < # $ @ . $ 9 $ $ # @ 2 @ @ $ $ ",
". $ ; ; $ 0 - 0 4 = @ 2 . @ 2 2 . + + [ + @ + , { + < @ # 1 0 $ $ $ $ $ # 2 @ 2 $ @ @ @ < +   < [ . + [ @ . $ 2 0 1 r ].].].].].].].].].].].].].].].].].].].].].].].].].].].].].].L 9 m @ 2 @ . C [ C . @ . + [ < . 2 $ 1 $ $ # $ @ @ @ # $ 2 # 2 2 $ @ @ 2 @ : e ].].].].].].].].].].].].].].].].].].].].].].].].].].].].].].].].].b.$ # 2 @ 2 $ @ @ @ < +   < [ . + [ @ . $ 2 0 1 @ @   { { :   3 @ @ @ @ 2 @ 2 9 c.].].].].].].].].].].].].].].].].].].].].].].].].].].].].].W . 2 $ 1 $ $ # $ @ @ @ # $ 2 # 2 2 $ @ @ 2 @ _.].].].].].].].].].].].].].].].].].].].].].].].].].].].].].].].].].].].].].].].].].].].].].].].].].].].].].].].].].].].].].].].].].].].].].].].].].].].].].].].].].].].].].d.; 1 0 $ 9 m @ 2 @ . C [ C . @ . + [ < . 2 $ 1 $ $ # $ @ @ @ # $ 2 # 2 2 $ @ @ 2 @ : . $ ; ; $ 0 - 0 4 = @ 2 . @ 2 2 ",
"@ $ $ - = y = - 2 @ . [ + + + +   + +   + + + +   { . @ 1 a p & 0 1 0 0 } ; $ $ @ ; 9 @ @ @ @ . + + @ . [ @ # $ ; @ < e.].].].].].].].].].].].].].].].].].].].].].].].].].].].].].f.2 @ # @ @ 2 @ . @ [ 3 [ [ + [ @ 2 - 5 m 2 @ @ 2 @ $ $ ; $ $ $ - 4 $ 2 2 9 : G ].].].].].].].].].].].].].].].].].].].].].].].].].].].].].].].].].].l } ; $ $ @ ; 9 @ @ @ @ . + + @ . [ @ # $ ; @ < + + { { : < [ . [ @ . 3 . . % ].].].].].].].].].].].].].].].].].].].].].].].].].].].].].].k @ 2 - 5 m 2 @ @ 2 @ $ $ ; $ $ $ - 4 $ 2 2 9 _.].].].].].].].].].].].].].].].].].].].].].].].].].].].].].].].].].].].].].].].].].].].].].].].].].].].].].].].].].].].].].].].].].].].].].].].].].].].].].].].].].].].].].d.0 ; $ m 2 @ # @ @ 2 @ . @ [ 3 [ [ + [ @ 2 - 5 m 2 @ @ 2 @ $ $ ; $ $ $ - 4 $ 2 2 9 : @ $ $ - = y = - 2 @ . [ + + + + ",
"$ a l 0 # # @ @ @ @ [ +   , + , { +   , + . 2 [   + @ # = 4 a 4 0 0 / a = 0 0 $ ^ 0 0 ; # . @ @ . $ + . @ < [ $ @ [ . g.].].].].].].].].].].].].].].].].].].].].].].].].].].].].].h.2 @ @ @ @ . @ @ [   @ + @ . 3 . @ $ $ # 9 $ @ 9 2 2 $ * 0 $ 4 $ 1 M 3 2 @ : i.].].].].].].].].].].].].].].].].].].].].].].].].].].].].].].].].].].j.= 0 0 $ ^ 0 0 ; # . @ @ . $ + . @ < [ $ @ [ . + <   ' : + @ [ @ 2 [ + @ [ ` ].].].].].].].].].].].].].].].].].].].].].].].].].].].].].c.U . @ $ $ # 9 $ @ 9 2 2 $ * 0 $ 4 $ 1 M 3 2 @ _.].].].].].].].].].].].].].].].].].].].].].].].].].].].].].].].].].].].].].].].].].].].].].].].].].].].].].].].].].].].].].].].].].].].].].].].].].].].].].].].].].].].].].k.5 0 $ . @ @ @ @ @ . @ @ [   @ + @ . 3 . @ $ $ # 9 $ @ 9 2 2 $ * 0 $ 4 $ 1 M 3 2 @ : $ a l 0 # # @ @ @ @ [ +   , + , ",
"+ $ $ # @ @ + + + +   + { { { {   { + + 3 $ @ + + + @ = 5 0 $ 0 0 = = - - N = a l / a = } $ h 2 @ @ + + @ @ @ + + + + W ].].].].].].].].].].].].].].].].].].].].].].].].].].].].].].n @ @ @ @ @ @ [ @ + +   + [ + + . @ 1 m $ 2 $ $ 0 0 1 1 0 0 - # m @ . [ . G ].].].].].].].].].].].].].].].].].].].].].].].].].].].].].].].].].].].x - N = a l / a = } $ h 2 @ @ + + @ @ @ + + + + [ + , v : + [ < + 2 2 . [ + x ].].].].].].].].].].].].].].].].].].].].].].].].].].].].].6.+ + . @ 1 m $ 2 $ $ 0 0 1 1 0 0 - # m @ . [ . _.].].].].].].].].].].].].].].].].].].].].].].].].].].].].].].].].].].].].].].].].].].].].].].].].].].].].].].].].].].].].].].].].].].].].].].].].].].].].].].].].].].].].].i.} 0 $ 9 @ @ @ @ @ @ @ [ @ + +   + [ + + . @ 1 m $ 2 $ $ 0 0 1 1 0 0 - # m @ . [ . : + $ $ # @ @ + + + +   + { { { { ",
"@ # 9 $ 9 m + < { + { { { { { '   { + . . $ - # @ [ @ @ @ @ ; ; N a l ^ r $ ; ^ * _ q * = 1 ; $ 9 @ @ 9 $ @ + . @ . . ^ ].].].].].].].].].].].].].].].].].].].].].].].].].].].].].].q $ $ $ # 1 $ @ @ [ + +   +   3 . @ [ @ # $ 1 0 0 0 $ $ $ 2 $ @ @ @ [ < @ l.].].].].].].].].].].].].].].].].].].].].].].].].].].].].].].].].].].].i.r $ ; ^ * _ q * = 1 ; $ 9 @ @ 9 $ @ + . @ . . C @ + < : + + , @ 2 2 @ @ @ m.].].].].].].].].].].].].].].].].].].].].].].].].].].].].].j   3 . @ [ @ # $ 1 0 0 0 $ $ $ 2 $ @ @ @ [ < @ _.].].].].].].].].].].].].].].].].].].].].].].].].].].].].].].].].].].].].].].].].].].].].].].].].].].].].].].].].].].].].].].].].].].].].].].].].].].].].].].].].].].].].].n.N ; $ $ @ $ $ $ # 1 $ @ @ [ + +   +   3 . @ [ @ # $ 1 0 0 0 $ $ $ 2 $ @ @ @ [ < @ : @ # 9 $ 9 m + < { + { { { { { ' ",
"@ # $ 0 $ @ [ , { { { ' ' 8 { { , + + 2 2 = 5 3 . ,   [ + . $ $ - * - $ # ; $ 0 0 = a ( a = = 0 $ ; h 2 @ @ # . @ 2 m P 1.].].].].].].].].].].].].].].].].].].].].].].].].].].].].].o.; - 0 = - $ @ @ . + 3 { ,   + + < @ m 0 - = * = ; 0 $ $ @ $ $ # + @ [ @ p.].].].].].].].].].].].].].].].].].].].].].].].].].].].].].].].].].].].].} ; $ 0 0 = a ( a = = 0 $ ; h 2 @ @ # . @ 2 m # @ . . :   . [ [ [ [ 2 2 r ].].].].].].].].].].].].].].].].].].].].].].].].].].].].].].d   + + < @ m 0 - = * = ; 0 $ $ @ $ $ # + @ [ @ _.].].].].].].].].].].].].].].].].].].].].].].].].].].].].].].].].].].].].].].].].].].].].].].].].].].].].].].].].].].].].].].].].].].].].].].].].].].].].].].].].].].].].].9.4 0 $ $ 1 ; - 0 = - $ @ @ . + 3 { ,   + + < @ m 0 - = * = ; 0 $ $ @ $ $ # + @ [ @ : @ # $ 0 $ @ [ , { { { ' ' 8 { { ",
"$ # - * 1 # [ 9   +   { , { {   + + [ 2 @ @ . [ , { > > < @ < $ 0 e 0 0 $ $ $ ; = 4 e L z e * e = = 0 ; # ; 0 @ 1 0 % 0 _.].].].].].].].].].].].].].].].].].].].].].].].].].].].].].q.0 0 * t = - $ # + [ < [ + + + +   @ $ * e q z e 1 $ 0 ; $ 1 1 0 2 @ . [ r.].].].].].].].].].].].].].].].].].].].].].].].].].].].].].].].].].].].].z $ $ ; = 4 e L z e * e = = 0 ; # ; 0 @ 1 0 % 0 1 $ $ : + 3   + + [ 2 2 z ].].].].].].].].].].].].].].].].].].].].].].].].].].].].].s.M + + +   @ $ * e q z e 1 $ 0 ; $ 1 1 0 2 @ . [ _.].].].].].].].].].].].].].].].].].].].].].].].].].].].].].].].].].].].].].].].].].].].].].].].].].].].].].].].].].].].].].].].].].].].].].].].].].].].].].].].].].].].].].m.* % 0 - = 0 0 * t = - $ # + [ < [ + + + +   @ $ * e q z e 1 $ 0 ; $ 1 1 0 2 @ . [ : $ # - * 1 # [ 9   +   { , { {   ",
"[ $ 4 a $ @ [ { { { ' ,   , , , , , ,   , , > , { + { [   . @ $ / y ; r $ # ; 0 0 a a b & O b : * = l - 0 0 1 4 = F y z w ].].].].].].].].].].].].].].].].].].].].].].].].].].].].].].,.a l s = F a @ < + + + [ [ [   @ . m 0 * = 4 0 } $ $ 0 - 0 $ 4 $ 2 @ J t.].].].].].].].].].].].].].].].].].].].].].].].].].].].].].].].].].].].].%.# ; 0 0 a a b & O b : * = l - 0 0 1 4 = F y z 5 # 1 : + [ + . + + [ @ w ].].].].].].].].].].].].].].].].].].].].].].].].].].].].].u.[ [ [   @ . m 0 * = 4 0 } $ $ 0 - 0 $ 4 $ 2 @ @ _.].].].].].].].].].].].].].].].].].].].].].].].].].].].].].].].].].].].].].].].].].].].].].].].].].].].].].].].].].].].].].].].].].].].].].].].].].].].].].].].].].].].].].n.F 4 - = - - a l s = F a @ < + + + [ [ [   @ . m 0 * = 4 0 } $ $ 0 - 0 $ 4 $ 2 @ @ : [ $ 4 a $ @ [ { { { ' ,   , , , ",
". $ * $ 2 + + { {   , + + [ +   +   {   { { , { ' { , > + + $ ; - 0 0 ; 0 % 5 % a 0 = * * ( j b z * a 4 4 4 - c - 1 # m % ].].].].].].].].].].].].].].].].].].].].].].].].].].].].].].K 0 4 / - 0 $ $ [ [ + + + [ + + @ 2 # $ 1 r $ 0 # 1 $ } 4 0 0 - 5 # @ g ].].].].].].].].].].].].].].].].].].].].].].].].].].].].].].].].].].].].].v.% 5 % a 0 = * * ( j b z * a 4 4 4 - c - 1 # m [ @ . : . 3 @ { , + + [ ..].].].].].].].].].].].].].].].].].].].].].].].].].].].].]._ + [ + + @ 2 # $ 1 r $ 0 # 1 $ } 4 0 0 - 5 # @ . _.].].].].].].].].].].].].].].].].].].].].].].].].].].].].].].].].].].].].].].].].].].].].].].].].].].].].].].].].].].].].].].].].].].].].].].].].].].].].].].].].].].].].].w.4 F F 4 = 5 0 4 / - 0 $ $ [ [ + + + [ + + @ 2 # $ 1 r $ 0 # 1 $ } 4 0 0 - 5 # @ . : . $ * $ 2 + + { {   , + + [ +   ",
"[ 2 2 @ + . {   { , + [ . m [ v [ v , 6 ' 6 ' { A   ' { < . # $ = 5 ; 0 e y = 0 % $ % $ 0 0 = % 1 ; $ 2 $ @ @ . @ + . [ . s.].].].].].].].].].].].].].].].].].].].].].].].].].].].].].(.- 0 5 0 $ @ 2 @ . @ @ [ < [ @ . @ @ @ $ @ # } $ $ @ 0 $ $ 0 $ 0 $ [ t ].].].].].].].].].].].].].].].].].].].].].].].].].].].].].].].].].].].].].x.z = 0 % $ % $ 0 0 = % 1 ; $ 2 $ @ @ . @ + . [ + [ , : [ [ [ . + [ . 2 ].].].].].].].].].].].].].].].].].].].].].].].].].].].].].].a [ < [ @ . @ @ @ $ @ # } $ $ @ 0 $ $ 0 $ 0 $ [ + _.].].].].].].].].].].].].].].].].].].].].].].].].].].].].].].].].].].].].].].].].].].].].].].].].].].].].].].].].].].].].].].].].].].].].].].].].].].].].].].].].].].].].].y.f 4 f g l 0 - 0 5 0 $ @ 2 @ . @ @ [ < [ @ . @ @ @ $ @ # } $ $ @ 0 $ $ 0 $ 0 $ [ + : [ 2 2 @ + . {   { , + [ . m [ v ",
"    + [ +   +   { { { , [ [ ,   ,   ' { ' ' ' ! 6 ' 6 { , @ 0 = a 0 a % $ $ ; 1 $ $ 2 # $ # 2 $ @ $ [ [     + , , , , ' , l.].].].].].].].].].].].].].].].].].].].].].].].].].].].].].d.0 $ $ ; $ # $ @ [ @ [ . . 2 2 2 m 1 # @ 9 @ 2 $ $ $ $ $ @ - $ 2 @ 9 z.].].].].].].].].].].].].].].].].].].].].].].].].].].].].].].].].].].].].].].( ; 1 $ $ 2 # $ # 2 $ @ $ [ [     + , , , , ' , , ' : [ @ . 3 [ + @ S ].].].].].].].].].].].].].].].].].].].].].].].].].].].].].].2 . . 2 2 2 m 1 # @ 9 @ 2 $ $ $ $ $ @ - $ 2 @ 9 + _.].].].].].].].].].].].].].].].].].].].].].].].].].].].].].].].].].].].].].].].].].].].].].].].].].].].].].].].].].].].].].].].].].].].].].].].].].].].].].].].].].].].].].:.- - 4 g 4 0 0 $ $ ; $ # $ @ [ @ [ . . 2 2 2 m 1 # @ 9 @ 2 $ $ $ $ $ @ - $ 2 @ 9 + :     + [ +   +   { { { , [ [ ,   ",
"{ { @ { + , + [ , { 6 { { , + , , 6 ] { 6 6 6 6 { , { > + @ 0 y y - $ $ # @ @ 2 @ @ + + + + @ [   3 + + , { , { + ' 6 { , A.].].].].].].].].].].].].].].].].].].].].].].].].].].].].].].0 0 0 0 - 1 $ 9 . @ @ 2 $ m 0 0 2 $ $ $ $ $ $ 1 $ # 1 # $ $ 1 # $ ; B.].].].].].].].].].].].].].].].].].].].].].].].].].].].].].].].].].].].].].].L @ 2 @ @ + + + + @ [   3 + + , { , { + ' 6 { , ! o : + [ @ . 2 3 @ '.].].].].].].].].].].].].].].].].].].].].].].].].].].].].].v.@ 2 $ m 0 0 2 $ $ $ $ $ $ 1 $ # 1 # $ $ 1 # $ $ [ _.].].].].].].].].].].].].].].].].].].].].].].].].].].].].].].].].].].].].].].].].].].].].].].].].].].].].].].].].].].].].].].].].].].].].].].].].].].].].].].].].].].].].].{.1 1 1 - 5 - $ 0 0 0 - 1 $ 9 . @ @ 2 $ m 0 0 2 $ $ $ $ $ $ 1 $ # 1 # $ $ 1 # $ $ [ : { { @ { + , + [ , { 6 { { , + , ",
"+ +     , { o { , { { , , v , , { , { 6 { ' { + { { + + + # 0 * $ # # @ @ [ $ @ . [ + @   +   + ,   + , { , ! { 6 6 { ) { ; ].].].].].].].].].].].].].].].].].].].].].].].].].].].].].].W 1 $ 0 } 0 # # @ @ @ $ . 1 - 5 - 0 1 1 $ 2 $ $ $ # $ @ $ 9 $ @ P S ].].].].].].].].].].].].].].].].].].].].].].].].].].].].].].].].].].].].].].].Y $ @ . [ + @   +   + ,   + , { , ! { 6 6 { ) { 6 ~ :   3 [ [ 2 # 2 C.].].].].].].].].].].].].].].].].].].].].].].].].].].].].].%.@ $ . 1 - 5 - 0 1 1 $ 2 $ $ $ # $ @ $ 9 $ @ P $ @ _.].].].].].].].].].].].].].].].].].].].].].].].].].].].].].].].].].].].].].].].].].].].].].].].].].].].].].].].].].].].].].].].].].].].].].].].].].].].].].].].].].].].].]...$ m $ $ c 4 ; 1 $ 0 } 0 # # @ @ @ $ . 1 - 5 - 0 1 1 $ 2 $ $ $ # $ @ $ 9 $ @ P $ @ : + +     , { o { , { { , , v , , ",
"{ { { { { { ' ' ' 6 { { + + { , 6 , ' , ' , { ' {   {   @ @ 9 $ @ @ @ . . . @ . + +   , +   [   + , , { ' { ' 6 ' ' 6 ' 6 { D.].].].].].].].].].].].].].].].].].].].].].].].].].].].].].E - 5 - 4 0 0 $ 1 @ $ 1 0 1 5 - 4 5 = 0 ; $ $ $ $ $ $ $ $ @ @ 2 @ Z ].].].].].].].].].].].].].].].].].].].].].].].].].].].].].].].].].].].].].].].E.9 . + +   , +   [   + , , { ' { ' 6 ' ' 6 ' 6 6 6 :   + + + @ @ J F.].].].].].].].].].].].].].].].].].].].].].].].].].].].].].=.$ 1 0 1 5 - 4 5 = 0 ; $ $ $ $ $ $ $ $ @ @ 2 @ $ 1 _.].].].].].].].].].].].].].].].].].].].].].].].].].].].].].].].].].].].].].].].].].].].].].].].].].].].].].].].].].].].].].].].].].].].].].].].].].].].].].].].].].].].].].G.@ . $ 2 - f c - 5 - 4 0 0 $ 1 @ $ 1 0 1 5 - 4 5 = 0 ; $ $ $ $ $ $ $ $ @ @ 2 @ $ 1 : { { { { { { ' ' ' 6 { { + + { , ",
"{ + , { ' { { 6 { ' { + +   v , { v , o , { { A { , + C + @ 2 @ < @ [ @ + [ + + + + {   { { v , + { { { { ! o ! ) o ! o 6 ! H.].].].].].].].].].].].].].].].].].].].].].].].].].].].].].p.= c = % l - 0 $ $ $ $ } $ } 0 F 4 4 = 0 ; $ $ 1 m # $ @ @ @ # m f.].].].].].].].].].].].].].].].].].].].].].].].].].].].].].].].].].].].].].].].].r + + + {   { { v , + { { { { ! o ! ) o ! o 6 ! ! : , [ . + @ 2 l ].].].].].].].].].].].].].].].].].].].].].].].].].].].].].].I.$ $ } $ } 0 F 4 4 = 0 ; $ $ 1 m # $ @ @ @ # m # 1 _.].].].].].].].].].].].].].].].].].].].].].].].].].].].].].].].].].].].].].].].].].].].].].].].].].].].].].].].].].].].].].].].].].].].].].].].].].].].].].].].].].].].].]...[ 2 @ # - 4 - = c = % l - 0 $ $ $ $ } $ } 0 F 4 4 = 0 ; $ $ 1 m # $ @ @ @ # m # 1 : { + , { ' { { 6 { ' { + +   v , ",
"! + { { { ,   ' 6 { ' ' [ @ [ ' , '     , , 6 6 ' + + @ 9 @ 2 @ @ + . + < +   +   ' + ' v 8 , < , ' , ' { { ' 6 6 ' ) 6 ) 6 t ].].].].].].].].].].].].].].].].].].].].].].].].].].].].].F.l 4 4 5 * = 0 0 0 ; 1 ; $ $ 4 - c * l - 0 0 ; $ $ $ $ # 3 < @ 1 J.].].].].].].].].].].].].].].].].].].].].].].].].].].].].].].].].].].].].].].].].e +   ' + ' v 8 , < , ' , ' { { ' 6 6 ' ) 6 ) 6 ' : B [ . @ @ 1 '.].].].].].].].].].].].].].].].].].].].].].].].].].].].].].K.0 ; 1 ; $ $ 4 - c * l - 0 0 ; $ $ $ $ # 3 < @ $ $ $ _.].].].].].].].].].].].].].].].].].].].].].].].].].].].].].].].].].].].].].].].].].].].].].].].].].].].].].].].].].].].].].].].].].].].].].].].].].].].].].].].].].].].].].G.@ @ @ 2 4 - f 4 4 4 5 * = 0 0 0 ; 1 ; $ $ 4 - c * l - 0 0 ; $ $ $ $ # 3 < @ $ $ $ : ! + { { { ,   ' 6 { ' ' [ @ [ ' ",
"  { { , ' ! o ' ! ' o   , [ + + , , v , { { , + >   B # $ $ h . + < + . + +     { , { { , { + [ y o { , 6 ' 6 Q o 6 R ) ! 6 - ].].].].].].].].].].].].].].].].].].].].].].].].].].].].].].L.g l = 4 - 4 = 4 y 0 ; $ ; $ c l f 4 = $ } 1 0 % 0 $ # @ @ 2 ^ ].].].].].].].].].].].].].].].].].].].].].].].].].].].].].].].].].].].].].].].].].g.  { , { { , { + [ y o { , 6 ' 6 Q o 6 R ) ! 6 6 :   + @ @ 2 $ H.].].].].].].].].].].].].].].].].].].].].].].].].].].].].].0.4 y 0 ; $ ; $ c l f 4 = $ } 1 0 % 0 $ # @ @ 2 2 1 4 _.].].].].].].].].].].].].].].].].].].].].].].].].].].].].].].].].].].].].].].].].].].].].].].].].].].].].].].].].].].].].].].].].].].].].].].].].].].].].].].].].].].].].].G.. @ @ 2 } c 4 F g l = 4 - 4 = 4 y 0 ; $ ; $ c l f 4 = $ } 1 0 % 0 $ # @ @ 2 2 1 4 :   { { , ' ! o ' ! ' o   , [ + + ",
"' { + + v ' 6 { 6 ! , , v   [ [ v , + , o ' { { + + @ @ 0 ; = @ . 3 { . + [ v { , , + , ! 6 , 6 { ' 6 6 { , 6 6 6 ! 6 ! ! 6 { ].].].].].].].].].].].].].].].].].].].].].].].].].].].].].].E f 4 n = l * 4 0 4 4 - 0 $ 0 1 - - * - - 0 - y 0 = = $ $ @ # q ].].].].].].].].].].].].].].].].].].].].].].].].].].].].].].].].].].].].].].].].].M.{ , , + , ! 6 , 6 { ' 6 6 { , 6 6 6 ! 6 ! ! 6 ) : v +   2 [ ; 2.].].].].].].].].].].].].].].].].].].].].].].].].].].].].].b 0 4 4 - 0 $ 0 1 - - * - - 0 - y 0 = = $ $ @ # 2 $ # _.].].].].].].].].].].].].].].].].].].].].].].].].].].].].].].].u . 3 { . + [ v { , , + , ! 6 , 6 { ' 6 6 { , 6 6 6 ! 6 ! ! 6 ) : v +   2 [ 1 1 0 2 @ @ 2 @ @ 2 [ 2 2 $ 2 @ @ + M @ 2 # 1 - S f 4 n = l * 4 0 4 4 - 0 $ 0 1 - - * - - 0 - y 0 = = $ $ @ # 2 $ # : ' { + + v ' 6 { 6 ! , , v   [ [ ",
"{ , , ,   + { ' { ' { , + [   , . [ { , { , ,     < @ $ ; 0 0 $ @ + . @ + +     { { , ' ! ! ! ' { { 6 ! ! 6 { ! ! ) ! 6 ) 6 { 1.].].].].].].].].].].].].].].].].].].].].].].].].].].].].].^.1 - - } 4 a 4 0 0 c = 0 1 1 } - g 5 - 0 1 0 4 e 4 4 0 $ 9 $ E ].].].].].].].].].].].].].].].].].].].].].].].].].].].].].].].].].].].].].].].].].].m { { , ' ! ! ! ' { { 6 ! ! 6 { ! ! ) ! 6 ) 6 { : ,   3 [ @ N ].].].].].].].].].].].].].].].].].].].].].].].].].].].].].].W 0 0 c = 0 1 1 } - g 5 - 0 1 0 4 e 4 4 0 $ 9 $ 2 9 m _.].].].].].].].].].].].].].].].].].].].].].].].].].].].].].].].w @ + . @ + +     { { , ' ! ! ! ' { { 6 ! ! 6 { ! ! ) ! 6 ) 6 { : ,   3 [ @ @ 0 1 $ 1 $ # 9 2 3 2 @ 2 2 2 @ 2 @ 3 @ . @ @ 1 - 1 - - } 4 a 4 0 0 c = 0 1 1 } - g 5 - 0 1 0 4 e 4 4 0 $ 9 $ 2 9 m : { , , ,   + { ' { ' { , + [   , ",
"' { { , + , + , ' ! { B , > v v   , + +   + + + @ + 9 $ ; m 1 $ @ @ @ < + +   { {   > { { ' { { ' o ' ! ! { ! 7 ) ! ! ! ! 6 ! N.].].].].].].].].].].].].].].].].].].].].].].].].].].].].].O.| 1 $ } - - = = 0 % 4 = = ; - - k 1 1 $ } 0 - = * * = 0 $ $ m.].].].].].].].].].].].].].].].].].].].].].].].].].].].].].].].].].].].].].].].].].].l {   > { { ' { { ' o ' ! ! { ! 7 ) ! ! ! ! 6 ! :   3 + . + P.].].].].].].].].].].].].].].].].].].].].].].].].].].].].].Q.4 = 0 % 4 = = ; - - k 1 1 $ } 0 - = * * = 0 $ $ 1 @ 9 _.].].].].].].].].].].].].].].].].].].].].].].].].].].].].].].].w @ @ @ < + +   { {   > { { ' { { ' o ' ! ! { ! 7 ) ! ! ! ! 6 ! :   3 + . + 2 1 0 - 2 # 2 @ 1 2 @ 2 @ 2 # @ 2 2 2 . [ @ 2 2 m $ 1 $ } - - = = 0 % 4 = = ; - - k 1 1 $ } 0 - = * * = 0 $ $ 1 @ 9 : ' { { , + , + , ' ! { B , > v v ",
"{ { { { '   @ { { , ' , . { ' , { ' , + + +   + 9 @ # 0 4 = ; 2 9 9 @ $ < < { > > { { ' { { ' !   ! ! ' ! ' ) ) { ) { ) ) ' ) R.].].].].].].].].].].].].].].].].].].].].].].].].].].].].].].c @ 2 | 1 0 1 0 0 0 l / - 0 k n k 1 $ 1 $ m ; 5 l a 4 0 $ c ].].].].].].].].].].].].].].].].].].].].].].].].].].].].].].].].].].].].].].].].].].].j.> { { ' { { ' !   ! ! ' ! ' ) ) { ) { ) ) ' ) :   [ + [ [ $.].].].].].].].].].].].].].].].].].].].].].].].].].].].].].S.1 0 0 0 l / - 0 k n k 1 $ 1 $ m ; 5 l a 4 0 $ ; $ ; $ _.].].].].].].].].].].].].].].].].].].].].].].].].].].].].].].].b 9 9 @ $ < < { > > { { ' { { ' !   ! ! ' ! ' ) ) { ) { ) ) ' ) :   [ + [ [ @ @ c $ } 0 1 # 2 $ # 2 2 @ $ . @ 2 @ @ . + @ @ . 2 @ 2 | 1 0 1 0 0 0 l / - 0 k n k 1 $ 1 $ m ; 5 l a 4 0 $ ; $ ; $ : { { { { '   @ { { , ' , . { ' , ",
"] ' , + + v , v @ { { o { { { {   v + [ . [ + + < $ 0 * _ t ; h @ @ # @ . , > , + { >     + { 6 { > 6 ! ' 6 ! 6 ! ! 6 6 6 { { E ].].].].].].].].].].].].].].].].].].].].].].].].].].].].].].q [ @ 2 1 1 1 1 1 = * y = 0 0 $ $ 2 2 @ @ 1 - - 0 4 = = = t ].].].].].].].].].].].].].].].].].].].].].].].].].].].].].].].].].].].].].].].].].].].N.+ { >     + { 6 { > 6 ! ' 6 ! 6 ! ! 6 6 6 { { : , , + + M T.].].].].].].].].].].].].].].].].].].].].].].].].].].].].].H 1 1 1 = * y = 0 0 $ $ 2 2 @ @ 1 - - 0 4 = = = % 0 0 1 _.].].].].].].].].].].].].].].].].].].].].].].].].].].].].].].].: @ @ # @ . , > , + { >     + { 6 { > 6 ! ' 6 ! 6 ! ! 6 6 6 { { : , , + + . [ 2 1 0 0 - 1 } 1 2 2 2 $ $ 2 @ @ @ M @ [ @ [ . [ [ [ @ 2 1 1 1 1 1 = * y = 0 0 $ $ 2 2 @ @ 1 - - 0 4 = = = % 0 0 1 : ] ' , + + v , v @ { { o { { { { ",
", , ! 6   ' {   [ { { ' 6 { ' 6 v , , +   +   . [ 0 g q j & - $ . @ . +     { + + >   + + {   ' ' { ' ! ' ! ) ! 6 ) 6 { ' 6 ' : K.].].].].].].].].].].].].].].].].].].].].].].].].].].].].].(.[ + + @ 1 } $ 0 4 y F a % $ $ # @ 2 9 2 $ 1 $ - 0 4 4 a l.].].].].].].].].].].].].].].].].].].].].].U.].].].].].].].].].].].].].].].].].].].].].].# >   + + {   ' ' { ' ! ' ! ) ! 6 ) 6 { ' 6 ' : + [ [ . ; ].].].].].].].].].].].].].].].].].].].].].].].].].].].].].].* } $ 0 4 y F a % $ $ # @ 2 9 2 $ 1 $ - 0 4 4 a y a = % _.].].].].].].].].].].].].].].].].].].].].].].].].].].].].].].].w . @ . +     { + + >   + + {   ' ' { ' ! ' ! ) ! 6 ) 6 { ' 6 ' : + [ [ . + [ @ $ 4 1 $ } ; - k $ 1 2 1 # 2 2 @ [ @ [ [ . + @ [ [ + + @ 1 } $ 0 4 y F a % $ $ # @ 2 9 2 $ 1 $ - 0 4 4 a y a = % : , , ! 6   ' {   [ { { ' 6 { ' 6 ",
"{ {   + , + , + , { ' 6 ' ' 6 ! ' { ,   , , { + . 0 * & z q 5 $ @ @ . < 2 h . .   + @   , + +   + {   { ' 6 { ' 6 ' ' 6 ' { { : V.].].].].].].].].].].].].].].].].].].].].].].].].].].].].].b.+   [ . @ 1 1 0 n e T a 5 ; h @ @ 2 @ @ @ @ $ $ % 5 & p q.].].].].].].].].].].].].].].].].].].].].].u ].].].].].].].].].].].].].].].].].].].].].].4 + @   , + +   + {   { ' 6 { ' 6 ' ' 6 ' { { : , + [ [ q ].].].].].].].].].].].].].].].].].].].].].].].].].].].].].s.# 1 1 0 n e T a 5 ; h @ @ 2 @ @ @ @ $ $ % 5 & p L _ z a _.].].].].].].].].].].].].].].].].].].].].].].].].].].].].].].].w @ @ . < 2 h . .   + @   , + +   + {   { ' 6 { ' 6 ' ' 6 ' { { : , + [ [ @ [ @ 2 - - m # 1 1 - 1 - 1 - } 1 $ @ @ . [ [ [ 3 3 [ +   [ . @ 1 1 0 n e T a 5 ; h @ @ 2 @ @ @ @ $ $ % 5 & p L _ z a : { {   + , + , + , { ' 6 ' ' 6 ! ",
"' ' v + +   + + + , { { 6 ! ' { { ' { , > { + + < $ e * ( a 0 $ 9 9 . + < + + . 2 @ # @ @ . < < + [ + { > ' > ! ' 6 ! A {   > : y ].].].].].].].].].].].].].].].].].].].].].].].].].].].].].].2 + [ , @ [ 1 } = I & * l ; $ # 2 @ @ 9 @ # # 0 $ - a O W.].].].].].].].].].].].].].].].].].].].].].# M.].].].].].].].].].].].].].].].].].].].].].X.@ # @ @ . < < + [ + { > ' > ! ' 6 ! A {   > : , + . + V.].].].].].].].].].].].].].].].].].].].].].].].].].].].].].l.@ [ 1 } = I & * l ; $ # 2 @ @ 9 @ # # 0 $ - a j _ b t j _.].].].].].].].].].].].].].].].].].].].].].].].].].].].].].].].w 9 9 . + < + + . 2 @ # @ @ . < < + [ + { > ' > ! ' 6 ! A {   > : , + . + [ 2 3 @ $ 2 @ 2 9 $ 1 1 - n 5 1 0 2 U . @   + + [ . + { + [ , @ [ 1 } = I & * l ; $ # 2 @ @ 9 @ # # 0 $ - a j _ b t j : ' ' v + +   + + + , { { 6 ! ' { ",
", 3 . # m $ [ {     6 { ' { ' o ' { , { , { , > [ 2 ; } - 0 - 0 2 m @ . + . $ $ 1 $ $ $ 0 $ 0 @ $ . @ . . + ,   { > > , , { + : | ].].].].].].].].].].].].].].].].].].].].].].].].].].].].].].y { , B   [ @ 1 - l F a 4 0 $ $ 9 $ 2 @ $ @ @ @ $ 0 0 _ ].].].].].].].].].].].].].].].].].].].].].Y.*.G ].].].].].].].].].].].].].].].].].].].].].p.$ $ $ 0 $ 0 @ $ . @ . . + ,   { > > , , { + :   + [ + Z.].].].].].].].].].].].].].].].].].].].].].].].].].].].].].O   [ @ 1 - l F a 4 0 $ $ 9 $ 2 @ $ @ @ @ $ 0 0 l q j L p _.].].].].].].].].].].].].].].].].].].].].].].].].].].].].].].].&.2 m @ . + . $ $ 1 $ $ $ 0 $ 0 @ $ . @ . . + ,   { > > , , { + :   + [ + [ [ . @ [ # @ @ 2 $ m - - l | } 1 1 @ 2 + + + , + [   + { , B   [ @ 1 - l F a 4 0 $ $ 9 $ 2 @ $ @ @ @ $ 0 0 l q j L p : , 3 . # m $ [ {     6 { ' { ' o ",
"{ @ 2 $ 1 . +   @ , { ' 6 ! ! ) { 6 { , ' { { ,   @ @ # $ 0 0 0 @ @ . @ @ @ 1 $ ; 0 - 4 % 0 - ; $ # @ 9 @ 3 . > , {   { {   + : v `.].].].].].].].].].].].].].].].].].].].].].].].].].].].].]. +[ +   + [ . @ 1 - l z a 0 0 $ 2 $ # # m # $ $ # $ 0  .].].].].].].].].].].].].].].].].].].].].].6.6 y ].].].].].].].].].].].].].].].].].].].].]..+5 - 4 % 0 - ; $ # @ 9 @ 3 . > , {   { {   + :   , @ h ].].].].].].].].].].].].].].].].].].].].].].].].].].].].].].I.+ [ . @ 1 - l z a 0 0 $ 2 $ # # m # $ $ # $ 0 0 - 4 z j _.].].].].].].].].].].].].].].].].].].].].].].].].].].].].].].].&.@ @ . @ @ @ 1 $ ; 0 - 4 % 0 - ; $ # @ 9 @ 3 . > , {   { {   + :   , @ [ 3 . . [ [ @ 3 . @ 2 m ; 5 - } ; | - m 2 . + , +   , , + [ +   + [ . @ 1 - l z a 0 0 $ 2 $ # # m # $ $ # $ 0 0 - 4 z j : { @ 2 $ 1 . +   @ , { ' 6 ! ! ) ",
"2 2 } 2 [ @ 2 [ + + ' { { 6 ' ! { { , { v   { + + + . @ $ - $ 2 $ # @ 2 # 2 # 0 - 4 a = = = 0 0 $ 0 = 0 0 0 $ @ + , + + + @ @ : + f.].].].].].].].].].].].].].].].].].].].].].].].].].].].].].w.  , + + + 2 @ . - 4 F y = 0 $ $ 1 $ $ $ $ $ 2 $ $ $ /.].].].].].].].].].].].].].].].].].].].].].q { $ ].].].].].].].].].].].].].].].].].].].].].].#.a = = = 0 0 $ 0 = 0 0 0 $ @ + , + + + @ @ : + [ [ l ].].].].].].].].].].].].].].].].].].].].].].].].].].].].].x.@ + + 2 @ . - 4 F y = 0 $ $ 1 $ $ $ $ $ 2 $ $ $ ; $ r 5 % _.].].].].].].].].].].].].].].].].].].].].].].].].].].].].].].].b $ # @ 2 # 2 # 0 - 4 a = = = 0 0 $ 0 = 0 0 0 $ @ + , + + + @ @ : + [ [   [ [ + 3 + . @ $ @ 2 # 5 ; 1 1 $ 2 $ 1 2 @ . , > [ v + [   , + + + 2 @ . - 4 F y = 0 $ $ 1 $ $ $ $ $ 2 $ $ $ ; $ r 5 % : 2 2 } 2 [ @ 2 [ + + ' { { 6 ' ! ",
"[ 2 [ + [ + @ [ v { { 6 ! ! 6 { ' , , , + , { , { + @ + 2 $ @ $ 2 } 1 1 $ m c c g * * * * y 4 = - - 4 * 4 4 - @ @ +   [ @ 2 # : , K ].].].].].].].].].].].].].].].].].].].].].].].].].].].].].].m , + , [ < @ @ $ 5 * z a % 0 0 0 - 0 0 0 $ # $ # ; [.].].].].].].].].].].].].].].].].].].].].].1 , > Q.].].].].].].].].].].].].].].].].].].].].].++* * * y 4 = - - 4 * 4 4 - @ @ +   [ @ 2 # : , @ . j.].].].].].].].].].].].].].].].].].].].].].].].].].].].].].@++ , [ < @ @ $ 5 * z a % 0 0 0 - 0 0 0 $ # $ # $ 2 # @ 2 $ _.].].].].].].].].].].].].].].].].].].].].].].].].].].].].].].].w 2 } 1 1 $ m c c g * * * * y 4 = - - 4 * 4 4 - @ @ +   [ @ 2 # : , @ . + [ 3 . @ + . [ 2 @ 2 $ # 1 m $ @ 1 2 k @ 2 2 [ + + + { { + , + , [ < @ @ $ 5 * z a % 0 0 0 - 0 0 0 $ # $ # $ 2 # @ 2 $ : [ 2 [ + [ + @ [ v { { 6 ! ! 6 { ",
"+ + , + + v   , { { 6 { ' ! A 6 { { { { , v { + + + + < @ @ m 1 1 - 4 k - 1 - g c s e z e e e - = = = q = - 0 $ @ @ @ 2 ; } $ : < I.].].].].].].].].].].].].].].].].].].].].].].].].].].].].].].N +   .   [ [ @ 2 ; - * s y 4 = l % = = - } ; m $ / ].].].].].].].].].].].].].].].].].].].].].#+v { { @.].].].].].].].].].].].].].].].].].].].].].3.e z e e e - = = = q = - 0 $ @ @ @ 2 ; } $ : < [ @ v.].].].].].].].].].].].].].].].].].].].].].].].].].].].].].b   .   [ [ @ 2 ; - * s y 4 = l % = = - } ; m $ # @ @ @ [ @ _.].].].].].].].].].].].].].].].].].].].].].].].].].].].].].].].w 1 - 4 k - 1 - g c s e z e e e - = = = q = - 0 $ @ @ @ 2 ; } $ : < [ @ . . @ [ + [ + + . + @ [ 2 @ @ 2 $ @ 0 2 1 # @ 3 @   + {   { +   .   [ [ @ 2 ; - * s y 4 = l % = = - } ; m $ # @ @ @ [ @ : + + , + + v   , { { 6 { ' ! A 6 ",
"+ ' + { , , + +   , { { 6 ! { 6 ' { ,   +     +   @ + [ . @ . 0 k n N N - 2 $ } % * F * e s z l e e F a c 0 1 ; 1 1 0 1 - 4 4 : @ P $+].].].].].].].].].].].].].].].].].].].].].].].].].].].].].u   . + 3 + . @ @ 1 $ 4 s z e * j e F 4 0 ; $ $ $ t ].].].].].].].].].].].].].].].].].].].].]._.' { , X ].].].].].].].].].].].].].].].].].].].].].U.e * e s z l e e F a c 0 1 ; 1 1 0 1 - 4 4 : @ @ 1 ].].].].].].].].].].].].].].].].].].].].].].].].].].].].].]./ . + 3 + . @ @ 1 $ 4 s z e * j e F 4 0 ; $ $ $ 2 @ @ . @ + _.].].].].].].].].].].].].].].].].].].].].].].].].].].].].].].].&.k n N N - 2 $ } % * F * e s z l e e F a c 0 1 ; 1 1 0 1 - 4 4 : @ @ 2 @ @ [ @ [   [ + [ . . 3 < . . @ $ 1 1 1 0 1 k | 2 [ v + , +   . + 3 + . @ @ 1 $ 4 s z e * j e F 4 0 ; $ $ $ 2 @ @ . @ + : + ' + { , , + +   , { { 6 ! { 6 ",
"{ { , ' , > , , , ' 6 ! ' ! ' ! { '   v +   , + [ . [ < . 2 . 2 - 1 1 1 ; 1 2 # 1 0 / y e z / a * / * * f % - - - S c 4 - } - : 2 # %+].].].].].].].].].].].].].].].].].].].].].].].].].].].].].+.+ + [ [ . 3 [ . m $ = * t z q q * y ^ } $ $ # 2 &+].].].].].].].].].].].].].].].].].].].].].j { '   n ].].].].].].].].].].].].].].].].].].].].].].& y e z / a * / * * f % - - - S c 4 - } - : 2 # *+].].].].].].].].].].].].].].].].].].].].].].].].].].].].].].m + [ [ . 3 [ . m $ = * t z q q * y ^ } $ $ # 2 @ @ [ + . + _.].].].].].].].].].].].].].].].].].].].].].].].].].].].].].].].b - 1 1 1 ; 1 2 # 1 0 / y e z / a * / * * f % - - - S c 4 - } - : 2 # # $ [ @ . @ 3 < @ . + @ @ [ @ @ @ @ ; - 5 - - - - $ @ < { + + + + [ [ . 3 [ . m $ = * t z q q * y ^ } $ $ # 2 @ @ [ + . + : { { , ' , > , , , ' 6 ! ' ! ' ! ",
"{ , { { ' , + @ + , { ' ! { ' ' { { , +   v + [ + . . 2 @ 2 1 2 J 2 2 $ 2 1 # 2 0 = * z s y a - = = - 4 4 - g 5 0 - % 5 = - - : ; $ X.].].].].].].].].].].].].].].].].].].].].].].].].].].].].].].+ @ 2 2 +   < [ @ # 0 f T V j a = % 0 $ 2 @ . 2 =+].].].].].].].].].].].].].].].].].].].].].0 { { , 3 -+].].].].].].].].].].].].].].].].].].].].].V.z s y a - = = - 4 4 - g 5 0 - % 5 = - - : ; $ w ].].].].].].].].].].].].].].].].].].].].].].].].].].].].].4., @ 2 2 +   < [ @ # 0 f T V j a = % 0 $ 2 @ . @ + + + + + , _.].].].].].].].].].].].].].].].].].].].].].].].].].].].].].].].b J 2 2 $ 2 1 # 2 0 = * z s y a - = = - 4 4 - g 5 0 - % 5 = - - : ; $ $ # $ @ @ . @ . @ @ [ @ [ . [ $ . $ } * 4 - = 5 1 $ J 2   [ { , @ 2 2 +   < [ @ # 0 f T V j a = % 0 $ 2 @ . @ + + + + + , : { , { { ' , + @ + , { ' ! { ' ' ",
"v ' { , ' { ' { + { + {   { { {   +   + + + . @ . 3 [ @ 2 [ 1 2 # @ @ 2 @ @ @ @ $ W F * e ( 4 = 0 - 0 $ 0 1 $ $ 0 % - 5 4 0 $ : 0 0 =.].].].].].].].].].].].].].].].].].].].].].].].].].].].].].].4 + @ 2 . @ + . @ $ 1 = T s z a = 5 $ # @ @ @ ^ ].].].].].].].].].].].].].].].].].].].].].].[   +   + 5.].].].].].].].].].].].].].].].].].].].].].C.* e ( 4 = 0 - 0 $ 0 1 $ $ 0 % - 5 4 0 $ : 0 0 ;+].].].].].].].].].].].].].].].].].].].].].].].].].].].].].V.+ + @ 2 . @ + . @ $ 1 = T s z a = 5 $ # @ @ @ @ + + , [ { , _.].].].].].].].].].].].].].].].].].].].].].].].].].].].].].].].b # @ @ 2 @ @ @ @ $ W F * e ( 4 = 0 - 0 $ 0 1 $ $ 0 % - 5 4 0 $ : 0 0 1 $ $ # m $ @ 9 @ 1 @ @ @ @ # @ m # ; = y * a 4 0 $ # 2 @ . . + + @ 2 . @ + . @ $ 1 = T s z a = 5 $ # @ @ @ @ + + , [ { , : v ' { , ' { ' { + { + {   { { { ",
"' , 6 + { , { v , @ + , + { , v + + + . @ @ @ # 3 . 2 2 [ @ 3 [ @ [ . @ . @ @ @ 2 - 5 X s t q l 0 ; $ $ $ @ $ 1 - - = - 0 2 2 : a 4 S >+].].].].].].].].].].].].].].].].].].].].].].].].].].].].]._ [ [ [ 3 @ . [ @ # $ - l z s * % 0 ; $ @ @ [ e ].].].].].].].].].].].].].].].].].].].].].,+v + + + . '.].].].].].].].].].].].].].].].].].].].].].c.X s t q l 0 ; $ $ $ @ $ 1 - - = - 0 2 2 : a l '+].].].].].].].].].].].].].].].].].].].].].].].].].].].].].e + [ [ [ 3 @ . [ @ # $ - l z s * % 0 ; $ @ @ [ + ,   + +   ' _.].].].].].].].].].].].].].].].].].].].].].].].].].].].].].].].H @ [ . @ . @ @ @ 2 - 5 X s t q l 0 ; $ $ $ @ $ 1 - - = - 0 2 2 : a 4 = ^ ; } ; $ $ $ ; # $ $ 2 @ 2 @ 9 $ r - F z q 4 - 0 $ m 2 2 [ + [ [ [ 3 @ . [ @ # $ - l z s * % 0 ; $ @ @ [ + ,   + +   ' : ' , 6 + { , { v , @ + , + { , v ",
"o { {   { > + , + + + < + + < . @ @ $ 0 1 2 2 @ 2 2 m 2 [ . + + { + + @ 2 $ 2 # $ 0 0 - a E G z 0 1 1 $ $ $ $ $ = * } $ $ @ # : z F a 4.].].].].].].].].].].].].].].].].].].].].].].].].].].].].].)+C @ @ @ 2 @ @ # @ 1 0 0 f W l 4 5 0 2 @ . + V.].].].].].].].].].].].].].].].].].].].].].w . @ @ $ 0 e ].].].].].].].].].].].].].].].].].].].].].].a a E G z 0 1 1 $ $ $ $ $ = * } $ $ @ # : z p ].].].].].].].].].].].].].].].].].].].].].].].].].].].].].].I.[ C @ @ @ 2 @ @ # @ 1 0 0 f W l 4 5 0 2 @ . + + [ + , ' o ' _.].].].].].].].].].].].].].].].].].].].].].].].].].].].].].].].Z { + + @ 2 $ 2 # $ 0 0 - a E G z 0 1 1 $ $ $ $ $ = * } $ $ @ # : z F a 4 4 = = - N % 0 - 0 ; 0 $ 1 9 1 $ 0 - a j * a = - ; $ @ 2 # [ C @ @ @ 2 @ @ # @ 1 0 0 f W l 4 5 0 2 @ . + + [ + , ' o ' : o { {   { > + , + + + < + + < . ",
"{ { { { , { + + . @ @ 2 @ @ 1 m $ ; 0 * 5 1 @ 2 1 3 2 , +   + +   , +   [ @ @ # $ $ 1 = * T p l - 0 0 1 m 2 $ 0 c } - 2 2 $ [ : z F & R.].].].].].].].].].].].].].].].].].].].].].].].].].].].].].$+m # @ $ . 2 $ 2 $ $ # 0 5 = - = = - $ 2 @ < Z.].].].].].].].].].].].].].].].].].].].].].& m $ ; 0 * ,.].].].].].].].].].].].].].].].].].].].].].].'.* T p l - 0 0 1 m 2 $ 0 c } - 2 2 $ [ : z o.].].].].].].].].].].].].].].].].].].].].].].].].].].].].].!+1 2 2 # @ $ . 2 $ 2 $ $ # 0 5 = - = = - $ 2 @ < +   , { , , 6 _.].].].].].].].].].].].].].].].].].].].].].].].].].].].].].].].Z   , +   [ @ @ # $ $ 1 = * T p l - 0 0 1 m 2 $ 0 c } - 2 2 $ [ : z F & z & j & e e e ( a a - 0 ^ 0 $ 0 $ ; 0 4 * & * l l % 0 0 # $ 2 2 # @ $ . 2 $ 2 $ $ # 0 5 = - = = - $ 2 @ < +   , { , , 6 : { { { { , { + + . @ @ 2 @ @ 1 m ",
"    v > [ + + . @ $ ; l 0 0 0 4 4 e l 4 $ $ # 2 2 [ . + + ,     v   , + . . @ 2 0 # 1 0 * s F 4 0 - 0 1 # @ 1 1 $ 1 $ 2 m @ . : * * z  .].].].].].].].].].].].].].].].].].].].].].].].].].].].].].].*+0 $ # $ 2 # 0 $ $ $ $ $ $ 0 n y 4 1 $ % J ].].].].].].].].].].].].].].].].].].].].].].l 4 4 e l 4 $ {.].].].].].].].].].].].].].].].].].].].].].6.* s F 4 0 - 0 1 # @ 1 1 $ 1 $ 2 m @ . : * ~+].].].].].].].].].].].].].].].].].].].].].].].].].].].].].S.0 ; ; 0 $ # $ 2 # 0 $ $ $ $ $ $ 0 n y 4 1 $ % +   + { + , { { _.].].].].].].].].].].].].].].].].].].].].].].].].].].].].].].].K v   , + . . @ 2 0 # 1 0 * s F 4 0 - 0 1 # @ 1 1 $ 1 $ 2 m @ . : * * z z q T Y b b L t s e * y 4 = 4 N - 0 = = a & z j e a = ^ 0 0 ; ; 0 $ # $ 2 # 0 $ $ $ $ $ $ 0 n y 4 1 $ % +   + { + , { { :     v > [ + + . @ $ ; l 0 0 0 4 ",
"+ v   + + $ 0 $ 0 0 4 e q j q z z * - } 1 2 2 J 2 @ + [ { , { , , { { + [ + @ 2 $ $ ; c g - % 5 0 m 1 $ 2 2 @ 2 1 1 2 @ @ . + : 0 4 l W ].].].].].].].].].].].].].].].].].].].].].].].].].].].].].].{+- 0 0 $ 0 - 1 - 0 - $ $ $ ; = W l ; $ @ * ].].].].].].].].].].].].].].].].].].].].].`.q z z * - } 1 w ].].].].].].].].].].].].].].].].].].].].].e.g - % 5 0 m 1 $ 2 2 @ 2 1 1 2 @ @ . + : n ]+].].].].].].].].].].].].].].].].].].].].].].].].].].].].].G = a 4 - 0 0 $ 0 - 1 - 0 - $ $ $ ; = W l ; $ @ [ + { + , , { ! _.].].].].].].].].].].].].].].].].].].].].].].].].].].].].].].].t , { { + [ + @ 2 $ $ ; c g - % 5 0 m 1 $ 2 2 @ 2 1 1 2 @ @ . + : 0 4 l a y j E L : : p L b : L & z * * l g - a * & O b u & a 4 a = a 4 - 0 0 $ 0 - 1 - 0 - $ $ $ ; = W l ; $ @ [ + { + , , { ! : + v   + + $ 0 $ 0 0 4 e q j q z ",
"+ C @ @ $ @ ; a l e e q f s 4 - = - $ $ @ # 1 1 @     + ,   , + > > +   B + . @ $ # 1 1 $ 0 - ; $ # $ 9 9 @ @ < 2 $ 1 2 { + + : $ 0 ^ = ^+].].].].].].].].].].].].].].].].].].].].].].].].].].].].].y.e 4 - 0 0 0 } - l - } 1 ; $ - 4 4 - 1 2 j.].].].].].].].].].].].].].].].].].].].].].;+4 - = - $ $ @ e ].].].].].].].].].].].].].].].].].].].].].].^ 0 - ; $ # $ 9 9 @ @ < 2 $ 1 2 { + + : l ].].].].].].].].].].].].].].].].].].].].].].].].].].].].].].{+L p _ e 4 - 0 0 0 } - l - } 1 ; $ - 4 4 - 1 2 < +   , { , ' 6 _.].].].].].].].].].].].].].].].].].].].].].].].].].].].].].].].Z > > +   B + . @ $ # 1 1 $ 0 - ; $ # $ 9 9 @ @ < 2 $ 1 2 { + + : $ 0 ^ = a t : p & L t L p Z q z z t z s e l e z & t u T ` & & _ L p _ e 4 - 0 0 0 } - l - } 1 ; $ - 4 4 - 1 2 < +   , { , ' 6 : + C @ @ $ @ ; a l e e q f s 4 - ",
"[ [ + . @ @ 1 * 0 - - 0 % 1 0 0 k 1 1 1 1 $ 0 1 @ +   { { { A , v   { + , + + + [ 1 $ # $ $ 1 $ # @ 2 @ @ @ . @ @ @ . + +   , : @ 0 1 0 Y ].].].].].].].].].].].].].].].].].].].].].].].].].].].].]./+L.e = - 0 ; 0 $ 0 - 0 ; 0 0 } 4 5 0 $ m ,+].].].].].].].].].].].].].].].].].].].].].O 0 0 k 1 1 1 1 ^ ].].].].].].].].].].].].].].].].].].].].].].V $ 1 $ # @ 2 @ @ @ . @ @ @ . + +   , : #.].].].].].].].].].].].].].].].].].].].].].].].].].].].].].(+g.u u t H e = - 0 ; 0 $ 0 - 0 ; 0 0 } 4 5 0 $ m . 3 + { , { , ! _.].].].].].].].].].].].].].].].].].].].].].].].].].].].].].].].].].].].].].].].].].].].].].].].].].].].].].].].].].].].].].].].].].].].].].].].].].].].].].].].].].].$.= = 4 * z L t L u  .L  .G u u t H e = - 0 ; 0 $ 0 - 0 ; 0 0 } 4 5 0 $ m . 3 + { , { , ! : [ [ + . @ @ 1 * 0 - - 0 % 1 0 0 ",
"< @ @ @ $ @ $ $ $ ; @ 0 - $ 1 0 1 1 - 1 - - 2 . [ + { [ + { { { > v   + > . + . 9 9 $ $ $ $ 1 m $ @ m # $ @ @ [   + @ , , { > : 9 1 ; - '.].].].].].].].].].].].].].].].].].].].].].].].].].].].].].]. +z e 4 % 0 0 0 0 - } 0 0 0 0 = - } # 1 ].].].].].].].].].].].].].].].].].].].].].]./ 1 0 1 1 - 1 - - k.].].].].].].].].].].].].].].].].].].].].].{+$ 1 m $ @ m # $ @ @ [   + @ , , { > : $.].].].].].].].].].].].].].].].].].].].].].].].].].].].].].O.+.D : b L z e 4 % 0 0 0 0 - } 0 0 0 0 = - } # 2 @ . [ + , { ' 6 _.].].].].].].].].].].].].].].].].].].].].].].].].].].].].].].].].].].].].].].].].].].].].].].].].].].].].].].].].].].].].].].].].].].].].].].].].].].].].].].].].].].&+0 - 0 0 4 4 e q p G E ..+.D : b L z e 4 % 0 0 0 0 - } 0 0 0 0 = - } # 2 @ . [ + , { ' 6 : < @ @ @ $ @ $ $ $ ; @ 0 - $ 1 0 ",
"[ 2 . 2 2 @ $ # @ 2 1 1 5 - - ; k - N 1 k 1 2 @ @ [ + +   +   {   [ { [ + [ + @ @ 1 $ 0 0 n } # 1 - - 0 4 1 [ + , v , , { { 6 : $ # $ r S ].].].].].].].].].].].].].].].].].].].].].].].].].].].].].].@.t j q l = = 4 - 0 = * 4 4 4 0 % - 0 =.].].].].].].].].].].].].].].].].].].].].].O.n - ; k - N 1 k 1 -.].].].].].].].].].].].].].].].].].].].].].N.n } # 1 - - 0 4 1 [ + , v , , { { 6 : =+].].].].].].].].].].].].].].].].].].].].].].].].].].].].]._+ .p : b j t j q l = = 4 - 0 = * 4 4 4 0 % - 0 $ $ @ + + + , { ' _.].].].].].].].].].].].].].].].].].].].].].].].].].].].].].].].].].].].].].].].].].].].].].].].].].].].].].].].].].].].].].].].].].].].].].].].].].].].].].].].].].].G $ 9 $ 0 1 ^ = I q u @.Y  .p : b j t j q l = = 4 - 0 = * 4 4 4 0 % - 0 $ $ @ + + + , { ' : [ 2 . 2 2 @ $ # @ 2 1 1 5 - - ; ",
". @ 2 $ 0 @ 2 . @ . @ ; 4 1 l k 1 1 1 1 $ 2 @ @ + + +   + { , + + , . . @ + @ 2 $ ; - = * = ; } 0 5 # J @ [ + , { ' ' { { ' ' : h @ ; $ ^ :+].].].].].].].].].].].].].].].].].].].].].].].].].].].].].|.y q I I z F * a l / a z * = 4 = 5 0 {+].].].].].].].].].].].].].].].].].].].].].@+1 l k 1 1 1 1 $ 2 V ].].].].].].].].].].].].].].].].].].].].].<+f ; } 0 5 # J @ [ + , { ' ' { { ' ' D ].].].].].].].].].].].].].].].].].].].].].].].].].].].].].].@.t e e a a y q I I z F * a l / a z * = 4 = 5 0 - $ # . [ + { , { _.].].].].].].].].].].].].].].].].].].].].].].].].].].].].].].].].].].].].].].].].].].].].].].].].].].].].].].].].].].].].].].].].].].].].].].].].].].].].].].].].].].G # @ $ $ ; 5 = a e & p b t e e a a y q I I z F * a l / a z * = 4 = 5 0 - $ # . [ + { , { : . @ 2 $ 0 @ 2 . @ . @ ; 4 1 l k ",
"3 2 1 $ $ 2 . @ 2 3 $ m $ 2 2 $ 2 # m # m $ $ # @ [ +   [ + +   [ < 3 2 + . @ 9 $ = 4 * * l 1 1 2 @ # . v { { ' { , o ' o { ! : # $ $ 1 = %+].].].].].].].].].].].].].].].].].].].].].].].].].].].].].!+= 4 l = 4 a 4 = W q s j T j y a - 4 v.].].].].].].].].].].].].].].].].].].].].].p 2 2 $ 2 # m # m $ N ].].].].].].].].].].].].].].].].].].].].].].K 1 1 2 @ # . v { { ' { , o ' o { ! S.].].].].].].].].].].].].].].].].].].].].].].].].].].].].].W.p z a = ^ = = 4 l = 4 a 4 = W q s j T j y a - 4 4 % $ @ @ + +   { _.].].].].].].].].].].].].].].].].].].].].].].].].].].].].].].].].].].].].].].].].].].].].].].].].].].].].].].].].].].].].].].].].].].].].].].].].].].].].].].].].].].g.@ 9 < @ $ 0 4 * q ` t _ z a = ^ = = 4 l = 4 a 4 = W q s j T j y a - 4 4 % $ @ @ + +   { : 3 2 1 $ $ 2 . @ 2 3 $ m $ 2 2 $ ",
"[ @ $ 2 @ $ + + @ . 2 2 2 @ @ 2 @ 1 1 @ . @ 1 l ; [ + B , + + + 3 [ 9 $ @ @ 2 $ - * t & * - 1 @ . [ + + 6 { { 6 o ' ! ' 6 { ! : $ 0 0 = a 6.].].].].].].].].].].].].].].].].].].].].].].].].].].].].].].f 5 4 4 4 4 4 5 = 4 * q T L & F e / [+].].].].].].].].].].].].].].].].].].].].]./ @ @ 2 @ 1 1 @ . @ 1 :+].].].].].].].].].].].].].].].].].].].].]. .1 @ . [ + + 6 { { 6 o ' ! ' 6 { ! :.].].].].].].].].].].].].].].].].].].].].].].].].].].].].].9.q e = = 0 1 0 5 4 4 4 4 4 5 = 4 * q T L & F e = * a 0 $ m < [ { 6 _.].].].].].].].].].].].].].].].].].].].].].].].].].].].].].].].].].].].].].].].].].].].].].].].].].].].].].].].].].].].].].].].].].].].].].].].].].].].].].].].].].].E $ . C . @ $ 0 - y _ & q e = = 0 1 0 5 4 4 4 4 4 5 = 4 * q T L & F e = * a 0 $ m < [ { 6 : [ @ $ 2 @ $ + + @ . 2 2 2 @ @ 2 ",
": : : : : : : : : : : : : : : : : : : : : : : : : : : : : : : : : : : : : : : : : : : : : : : : : : : : : : : : : : : : : : : : : : : : : >.].].].].].].].].].].].].].].].].].].].].].].].].].].].].].].R.: : : : : : : : : : : : : : : : @.].].].].].].].].].].].].].].].].].].].].].}+ .: : : : : : : : : : _+].].].].].].].].].].].].].].].].].].].].].|+: : : : : : : : : : : : : : : : : Q.].].].].].].].].].].].].].].].].].].].].].].].].].].].].].p.: : : : : : : : : : : : : : : : : : : : : : : : : : : : : : : : : _.].].].].].].].].].].].].].].].].].].].].].].].].].].].].].].].].].].].].].].].].].].].].].].].].].].].].].].].].].].].].].].].].].].].].].].].].].].].].].].].].].].v.: : : : : : : : : : : : : : : : : : : : : : : : : : : : : : : : : : : : : : : : : : : : : : : : : : : : : : : : : : : : : ",
",   { ' ! ! { { , ' v . C { { { {   + . m $ 1 = = e q & * a N 0 0 $ $ $ 0 = 4 & p ` & j _ t j X a y ^ 0 0 $ = 4 0 $ $ @ @ 9 < : g e #.L #.T <.].].].].].].].].].].].].].].].].].].].].].].].].].].].].].@.r ; r ^ N $ ^ N 0 ; $ ; $ C < < j ].].].].].].].].].].].].].].].].].].].].].H.C { { { {   + . m $ 1 X.].].].].].].].].].].].].].].].].].].].].].1+#.X a y ^ 0 0 $ = 4 0 $ $ @ @ 9 h ].].].].].].].].].].].].].].].].].].].].].].].].].].].].].].f < @ 9 $ ; r 0 r ; r ^ N $ ^ N 0 ; $ ; $ C < < + > B > > [ < 9 < 2 _.].].].].].].].].].].].].].].].].].].].].].].].].].].].].].].].].].].].].].].].].].].].].].].].].].].].].].].].].].].].].].].].].].].].].].].].].].].].].].].].].].].$.$ ; @ @ C [ > B   + B < @ 9 $ ; r 0 r ; r ^ N $ ^ N 0 ; $ ; $ C < < + > B > > [ < 9 < 2 : ,   { ' ! ! { { , ' v . C { { { ",
"+ v { ,   { { { { { [ [ [ ' { { [ + + @ # $ 0 - 0 = a l q q * ^ $ $ $ # $ - 5 = y e p L w D D u ` a 5 ^ 0 ^ 0 a = 0 ; # @ @ @ : = = / a a I w.].].].].].].].].].].].].].].].].].].].].].].].].].].].].].i.h ; $ ; 0 ^ ; 0 % = $ 9 9 < + < o.].].].].].].].].].].].].].].].].].].].].].Z [ ' { { [ + + @ # $ 0 *+].].].].].].].].].].].].].].].].].].].].].].z.u ` a 5 ^ 0 ^ 0 a = 0 ; # @ @ F ].].].].].].].].].].].].].].].].].].].].].].].].].].].].].].d @ } 0 ; $ ; ; h ; $ ; 0 ^ ; 0 % = $ 9 9 < + < > > > + ] > < < C < _.].].].].].].].].].].].].].].].].].].].].].].].].].].].].].].].].].].].].].].].].].].].].].].].].].].].].].].].].].].].].].].].].].].].].].].].].].].].].].].].].].].(.$ ; 2 @ < C . + < < @ @ } 0 ; $ ; ; h ; $ ; 0 ^ ; 0 % = $ 9 9 < + < > > > + ] > < < C < : + v { ,   { { { { { [ [ [ ' { { ",
"+   { v ,   { { ,   + +   v + ' { { [ [ 2 @ 0 0 = - 0 = 4 e j a = ; ; $ m 1 0 - a e O : b @.G : & a g - ^ 5 = 4 a 0 ; $ # @ < : 0 ^ 0 0 ; = (.].].].].].].].].].].].].].].].].].].].].].].].].].].].].].].5 9 $ N ; $ ; $ ; ; 9 C . < <   J.].].].].].].].].].].].].].].].].].].].].].g   v + ' { { [ [ 2 @ 0 - B.].].].].].].].].].].].].].].].].].].].].].2+: & a g - ^ 5 = 4 a 0 ; $ # @ j.].].].].].].].].].].].].].].].].].].].].].].].].].].].].].w.9 = ; 0 0 ; N a ; 9 $ N ; $ ; $ ; ; 9 C . < < > *.> A > { > < *.> > _.].].].].].].].].].].].].].].].].].].].].].].].].].].].].].].].].].].].].].].].].].].].].].].].].].].].].].].].].].].].].].].].].].].].].].].].].].].].].].].].].].].g.; 9 9 < @ @ < @ + < 9 = ; 0 0 ; N a ; 9 $ N ; $ ; $ ; ; 9 C . < < > *.> A > { > < *.> > : +   { v ,   { { ,   + +   v + ' ",
"@ [   + , { { , , v + [ { , { + , , + 2 2 $ 1 0 - = N 0 1 = y & a & 4 } ; 1 0 0 4 e j b u p _ L p V g N = % = a a = 0 $ # @ @ : r ; ; ; ; N #.].].].].].].].].].].].].].].].].].].].].].].].].].].].].].].=.h ; ; $ ; 9 9 9 C @ < < B > $ ].].].].].].].].].].].].].].].].].].].].].].9 { , { + , , + 2 2 $ 1 0 |.].].].].].].].].].].].].].].].].].].].].].:.L p V g N = % = a a = 0 $ # @ v.].].].].].].].].].].].].].].].].].].].].].].].].].].].].].g.@ ; h ; ; $ 0 ^ # h ; ; $ ; 9 9 9 C @ < < B > > ' { ' > ' ' *.' > ' _.].].].].].].].].].].].].].].].].].].].].].].].].].].].].].].].].].].].].].].].].].].].].].].].].].].].].].].].].].].].].].].].].].].].].].].].].].].].].].].].].].].g.$ h $ 9 9 9 C 9 . @ @ ; h ; ; $ 0 ^ # h ; ; $ ; 9 9 9 C @ < < B > > ' { ' > ' ' *.' > ' : @ [   + , { { , , v + [ { , { + ",
"[ $ 3   { ' v   + { [ > + ' , { v   [ @ $ # $ 0 0 0 0 1 $ } = a z e & a 0 ; $ 0 a * t & _ e e q #.& q a = 0 = * j * = ; @ 9 @ : # $ ; N N a f F.].].].].].].].].].].].].].].].].].].].].].].].].].].].].].&.0 9 ; 9 ; C C < < < < > B > I ].].].].].].].].].].].].].].].].].].].].].,+> + ' , { v   [ @ $ # $ 0 j.].].].].].].].].].].].].].].].].].].].].].3+s #.& q a = 0 = * j * = ; @ | ].].].].].].].].].].].].].].].].].].].].].].].].].].].].].].A.< 9 @ 9 9 9 = ; | 0 9 ; 9 ; C C < < < < > B > { ' > > { > A ' { *.A _.].].].].].].].].].].].].].].].].].].].].].].].].].].].].].].].].].].].].].].].].].].].].].].].].].].].].].].].].].].].].].].].].].].].].].].].].].].].].].].].].].].G ; # ; $ r ; $ 9 @ @ < 9 @ 9 9 9 = ; | 0 9 ; 9 ; C C < < < < > B > { ' > > { > A ' { *.A : [ $ 3   { ' v   + { [ > + ' , { ",
"+ 2 @ + + { + v     [ , , { { , {   [ 2 2 2 1 0 0 0 1 - 0 1 1 = = = a e = 5 ; 0 0 a & j & I a a a a & V a = / F z j 4 0 $ @ . : ; r 0 g ( V a :.].].].].].].].].].].].].].].].].].].].].].].].].].].].].]...9 } r $ C 9 [ @ < + + > < {  +].].].].].].].].].].].].].].].].].].].].].j., , { { , {   [ 2 2 2 1 0 e ].].].].].].].].].].].].].].].].].].].].].].& a a & V a = / F z j 4 0 $ a ].].].].].].].].].].].].].].].].].].].].].].].].].].].].].].- @ C @ C @ C $ 0 $ 9 } r $ C 9 [ @ < + + > < { *.{ B + > > > > > A > _.].].].].].].].].].].].].].].].].].].].].].].].].].].].].].].].].].].].].].].].].].].].].].].].].].].].].].].].].].].].].].].].].].].].].].].].].].].].].].].].].].].G 0 5 1 5 0 0 $ h $ C @ C @ C @ C $ 0 $ 9 } r $ C 9 [ @ < + + > < { *.{ B + > > > > > A > : + 2 @ + + { + v     [ , , { { , ",
"+ @ . 1 [ , { v + + + + > , , { , [ $ 2 | $ $ 0 ; 0 0 - = 0 0 } $ 0 ^ 0 ( a = - } = e _ t e a l N ^ a & e g 4 * s & l % 9 @ < : 0 = / y e =.g V.].].].].].].].].].].].].].].].].].].].].].].].].].].].].].4+1 0 = ; 9 < < < B < + B > + n.].].].].].].].].].].].].].].].].].].].].].* + > , , { , [ $ 2 | $ $ 0 r 5+].].].].].].].].].].].].].].].].].].].].].X.N ^ a & e g 4 * s & l % 9 '.].].].].].].].].].].].].].].].].].].].].].].].].].].].].].T.# < @ < @ @ 9 9 h 9 9 0 = ; 9 < < < B < + B > +   {   < B + C > < B { _.].].].].].].].].].].].].].].].].].].].].].].].].].].].].].].].].].].].].].].].].].].].].].].].].].].].].].].].].].].].].].].].].].].].].].].].].].].].].].].].].].]. +1 0 N ^ 0 ; 0 $ < 9 < @ < @ @ 9 9 h 9 9 0 = ; 9 < < < B < + B > +   {   < B + C > < B { : + @ . 1 [ , { v + + + + > , , { ",
"[ . [ [ + +   + 2 [ [ + , { , ' + + 3 2 | 2 $ $ ; 5 = = c 4 0 ; $ $ $ 0 5 = l ^ 0 0 a s L z a = $ r - a a / = l e z = $ 9 2 < : I a a a I I ^ W ].].].].].].].].].].].].].].].].].].].].].].].].].].].].].].e y g 0 $ + + + < + < + + 2 ].].].].].].].].].].].].].].].].].].].].].].h + , { , ' + + 3 2 | 2 $ $ ; ~+].].].].].].].].].].].].].].].].].].].].].l.$ r - a a / = l e z = $ 9 %+].].].].].].].].].].].].].].].].].].].].].].].].].].].].].l.@ @ + 9 @ < 2 @ h $ ; y g 0 $ + + + < + < + + > B < + + [ < + @ @ @ < _.].].].].].].].].].].].].].].].].].].].].].].].].].].].].].].].].].].].].].].].].].].].].].].].].].].].].].].].].].].].].].].].].].].].].].].].].].].].].].].].].].].D - a - } = 0 0 0 ; @ @ + 9 @ < 2 @ h $ ; y g 0 $ + + + < + < + + > B < + + [ < + @ @ @ < : [ . [ [ + +   + 2 [ [ + , { , ' ",
"@ @ [ > @ , { + [ $ $ @ [ > v + , , 2 9 - 2 $ 1 0 ^ = 4 a l y = $ $ # $ $ 0 a = - ^ l e q & a = ; $ ; - e g = 4 e = - ; @ @   : g = g I ^ ^ r ^ ].].].].].].].].].].].].].].].].].].].].].].].].].].].].].].j.0 0 ; @ C B   > < + + < e ].].].].].].].].].].].].].].].].].].].].].}.$ @ [ > v + , , 2 9 - 2 $ 1 0 &.].].].].].].].].].].].].].].].].].].].].].q.; $ ; - e g = 4 e = - ; P $+].].].].].].].].].].].].].].].].].].].].].].].].].].].].].u h 9 < @ 9 < @ @ 9 9 $ 0 0 ; @ C B   > < + + < @ + 2 @ < < @ @ # $ $ # _.].].].].].].].].].].].].].].].].].].].].].].].].].].].].].].].].].].].].].].].].].].].].].].].].].].].].].].].].].].].].].].].].].].].].].].].].].].].].].].].].].].G a 4 ^ 0 ; = z * - h 9 < @ 9 < @ @ 9 9 $ 0 0 ; @ C B   > < + + < @ + 2 @ < < @ @ # $ $ # : @ @ [ > @ , { + [ $ $ @ [ > v + ",
"$ 2 + [ + , { v + 1 a % $ +   { { + 2 9 2 m # 0 5 = = a * y z 4 = 0 $ $ # $ 0 5 0 0 % 4 e q * = 0 ; } ^ l a a = a = ; $ @ . < : = n ^ ^ ; # 9 9 3.].].].].].].].].].].].].].].].].].].].].].].].].].].].].].;+; | 9 9 < < < @ < 1 9 > : ].].].].].].].].].].].].].].].].].].].].].@.a % $ +   { { + 2 9 2 m # 0 5 ` ].].].].].].].].].].].].].].].].].].].].].]./ ; } ^ l a a = a = ; $ / ].].].].].].].].].].].].].].].].].].].].].].].].].].].].].].& $ @ . @ @ < < @ ; r 0 ; | 9 9 < < < @ < 1 9 > . @ 9 9   + v 9 # = 4 9 _.].].].].].].].].].].].].].].].].].].].].].].].].].].].].].].].].].].].].].].].].].].].].].].].].].].].].].].].].].].].].].].].].].].].].].].].].].].].].].].].].].].G 0 ; ; ; r 0 & t / $ @ . @ @ < < @ ; r 0 ; | 9 9 < < < @ < 1 9 > . @ 9 9   + v 9 # = 4 9 : $ 2 + [ + , { v + 1 a % $ +   { ",
"@ @ [ {   + {   + 2 - a = 0 @ + [ { [ 9 @ 2 $ ; = = 4 * e z s y 4 = 0 $ $ @ 9 $ ; N 0 = a j & e 0 0 ; 0 4 e g 4 l 0 0 # 9 @ < : g ; h ; ; 2 9 9  +].].].].].].].].].].].].].].].].].].].].].].].].].].].].].U.d ; # < < <   B . ; @ < p.].].].].].].].].].].].].].].].].].].].].].X - a = 0 @ + [ { [ 9 @ 2 $ ; = f <+].].].].].].].].].].].].].].].].].].].].].#.0 ; 0 4 e g 4 l 0 0 # L ].].].].].].].].].].].].].].].].].].].].].].].].].].].].].-+k m C . 9 9 @ . 9 ; ; 9 $ ; # < < <   B . ; @ <   < + + < + . . 0 e / ; _.].].].].].].].].].].].].].].].].].].].].].].].].].].].].].].].].].].].].].].].].].].].].].].].].].].].].].].].].].].].].].].].].].].].].].].].].].].].].].].].].].]. +. $ @ U 9 ; 0 = ; m C . 9 9 @ . 9 ; ; 9 $ ; # < < <   B . ; @ <   < + + < + . . 0 e / ; : @ @ [ {   + {   + 2 - a = 0 @ + ",
"$ . + + , [ { , + [ 0 = 4 a - # . . 2 # 1 $ 0 - = = a z q ( a * y * 4 0 ; $ @ $ $ - = 0 = z O j a 4 0 ; = e a a / = $ ; # 9 < : ^ | J h 9 9 9 ; A.].].].].].].].].].].].].].].].].].].].].].].].].].].].].].].A.I $ 9 @ . B < @ @ . # ].].].].].].].].].].].].].].].].].].].].].].} 0 = 4 a - # . . 2 # 1 $ 0 - = = k.].].].].].].].].].].].].].].].].].].].].].&+4 0 ; = e a a / = $ ; z.].].].].].].].].].].].].].].].].].].].].].].].].].].].].].)+9 @ @ 9 @ @ 9 9 $ ; $ ; 5 I $ 9 @ . B < @ @ . < + < . . + > < @ ; 0 5 ; _.].].].].].].].].].].].].].].].].].].].].].].].].].].].].].].].].].].].].].].].].].].].].].].].].].].].].].].].].].].].].].].].].].].].].].].].].].].].].].].].].].]. +@ 2 < @ C 9 9 9 9 @ @ 9 @ @ 9 9 $ ; $ ; 5 I $ 9 @ . B < @ @ . < + < . . + > < @ ; 0 5 ; : $ . + + , [ { , + [ 0 = 4 a - # ",
"@ + @   , { { , {   @ - = a 4 N $ 1 ; 0 5 = = a e a e j y * l = = y a a 0 } @ @ ; 0 } 0 = y w & ( 5 l % = ( & q & g ; h 9 @ . : 9 h 9 9 9 9 h @ r ].].].].].].].].].].].].].].].].].].].].].].].].].].].].].].X.a 0 $ . < <   < > < 5 ].].].].].].].].].].].].].].].].].].].].].=+6+@ - = a 4 N $ 1 ; 0 5 = = a e a 0.].].].].].].].].].].].].].].].].].].].].].i.5 l % = ( & q & g ; 1 7+].].].].].].].].].].].].].].].].].].].].].].].].].].].].].p @ 9 h # 9 @ . @ $ @ 9 $ ^ a 0 $ . < <   < > < > +   [ + +   < @ $ 0 % 0 _.].].].].].].].].].].].].].].].].].].].].].].].].].].].].].].].].].].].].].].].].].].].].].].].].].].].].].].].].].].].].].].].].].].].].].].].].].].].].].].].].].].8+> < + < < < @ 9 @ 9 h # 9 @ . @ $ @ 9 $ ^ a 0 $ . < <   < > < > +   [ + +   < @ $ 0 % 0 : @ + @   , { { , {   @ - = a 4 N ",
". m @ + { { , { { { [ m = = = = = 0 = = a / a e a V e e e I 4 % 4 * * F = 0 $ @ 1 * # 1 0 W j _ y g 0 0 0 a z * 4 = 0 ; ; @ @ : h 9 9 C 9 B 9 $ 0 |+].].].].].].].].].].].].].].].].].].].].].].].].].].].].]._.0 0 2 @ B B + { > + ` ].].].].].].].].].].].].].].].].].].].].].(.{ [ m = = = = = 0 = = a / a e a V w ].].].].].].].].].].].].].].].].].].].].].9+a 0 0 0 a z * 4 = 0 S ].].].].].].].].].].].].].].].].].].].].].].].].].].].].].].f C ; $ $ < C @ < @ < # @ $ 0 0 2 @ B B + { > + { > C + < < 3 @ @ # 0 N 0 _.].].].].].].].].].].].].].].].].].].].].].].].].].].].].].].].].].].].].].].].].].].].].].].].].].].].].].].].].].].].].].].].].].].].].].].].].].].].].].].].].].].T + [ + [ + < @ @ C ; $ $ < C @ < @ < # @ $ 0 0 2 @ B B + { > + { > C + < < 3 @ @ # 0 N 0 : . m @ + { { , { { { [ m = = = = ",
"3 # [ + [ { { { { ,   @ 1 = * = % = = a = = 4 l ( q ` t z y a 5 4 4 l * * - $ . @ @ m @ 0 e p b L ( 5 ; 0 5 a l g = 4 $ ; h 9 : 2 9 < 9 h # $ $ $ o.].].].].].].].].].].].].].].].].].].].].].].].].].].].].].Y.2 9 @ < + > A > { { u.].].].].].].].].].].].].].].].].].].].].].z ,   @ 1 = * = % = = a = = 4 l ( q H ].].].].].].].].].].].].].].].].].].].].].].p 5 ; 0 5 a l g = 4 K ].].].].].].].].].].].].].].].].].].].].].].].].].].].].].4+J ; } $ 9 @ + + C . C @ B @ @ 9 @ < + > A > { { > { > + v + + 9 $ 0 ; r ; _.].].].].].].].].].].].].].].].].].].].].].].].].].].].].].].].].].].].].].].].].].].].].].].].].].].].].].].].].].].].].].].].].].].].].].].].].].].].].].].].].].].b + > < @ + < $ @ ; } $ 9 @ + + C . C @ B @ @ 9 @ < + > A > { { > { > + v + + 9 $ 0 ; r ; : 3 # [ + [ { { { { ,   @ 1 = * = ",
"@ 1 @ + +   { , { { ] + @ - 5 S 5 - = = 0 ; 0 = a e & K z e ( a = l 4 4 = 0 # @ @ @ @ @ ; * p -.b t % r $ $ % 4 a a / % 0 $ ; : 9 @ 9 9 1 h - $ 9 q ].].].].].].].].].].].].].].].].].].].].].].].].].].].].].].r @ + <   A { > ;.A /+].].].].].].].].].].].].].].].].].].].].].| { ] + @ - 5 S 5 - = = 0 ; 0 = a e & =+].].].].].].].].].].].].].].].].].].].].].u.% r $ $ % 4 a a / R.].].].].].].].].].].].].].].].].].].].].].].].].].].].].].v.; 0 1 9 # + + + + + + < @ . < @ + <   A { > ;.' ' { {   { > < @ $ ; $ ; $ _.].].].].].].].].].].].].].].].].].].].].].].].].].].].].].].].].].].].].].].].].].].].].].].].].].].].].].].].].].].].].].].].].].].].].].].].].].].].].].].].].].].%.  + . @ @ $ $ ; 0 1 9 # + + + + + + < @ . < @ + <   A { > ;.' ' { {   { > < @ $ ; $ ; $ : @ 1 @ + +   { , { { ] + @ - 5 S ",
"2 0 @ [ { [ { + { 6   , 2 2 - = / = 0 - $ $ $ ; = e j t & a a a a 4 * = - } $ $ @ v m . $ N j >.u s =.0 ; $ 0 4 * z y a = 1 ; : 9 $ ; } ; J h < < } ].].].].].].].].].].].].].].].].].].].].].].].].].].].].].].A.B   > { > > ' ' d ].].].].].].].].].].].].].].].].].].].].].s.  6   , 2 2 - = / = 0 - $ $ $ ; = e j 2+].].].].].].].].].].].].].].].].].].].].].y.=.0 ; $ 0 4 * z y c.].].].].].].].].].].].].].].].].].].].].].].].].].].].].].w $ } # . +   >   > { > . + < < B   > { > > ' ' { { ' { ' >   + . 9 ; ; ; $ _.].].].].].].].].].].].].].].].].].].].].].].].].].].].].].].].].].].].].].].].].].].].].].].].].].].].].].].].].].].].].].].].].].].].].].].].].].].].].].].].].].].j.@   < + 9 ; # $ } # . +   >   > { > . + < < B   > { > > ' ' { { ' { ' >   + . 9 ; ; ; $ : 2 0 @ [ { [ { + { 6   , 2 2 - = ",
"@ 2 < < + . @ { , { { + { [ $ - = 4 = 1 $ 2 $ $ - l & L L * / a a * z * = 5 $ $ . @ @ . @ - * Y b L * N $ $ $ = y * ,.* a = 0 : $ % 1 0 $ @ @ . + [ h.].].].].].].].].].].].].].].].].].].].].].].].].].].].].].D + + + > > , A , s ].].].].].].].].].].].].].].].].].].].].].l., { { + { [ $ - = 4 = 1 $ 2 $ $ - l & $.].].].].].].].].].].].].].].].].].].].].].(+*+N $ $ $ = y * V ].].].].].].].].].].].].].].].].].].].].].].].].].].].].].].*+. 9 @ + + > + > +   > [ @ + . + + + > > , A , > { { { + > + + @ 2 $ } ; 0 _.].].].].].].].].].].].].].].].].].].].].].].].].].].].].].].].@.a * z * = 5 $ $ . @ @ . @ - * Y b L * N $ $ $ = y * ,.* a = 0 : $ % 1 0 $ @ @ . + + > + + + < +   < + @ @ . @ 9 $ @ . 9 @ + + > + > +   > [ @ + . + + + > > , A , > { { { + > + + @ 2 $ } ; 0 : @ 2 < < + . @ { , { { + { [ $ - ",
"m @ . [ [ [ @ @ , { , ' + [ 1 - 4 4 l 4 m $ 2 $ $ % 4 e z z 5 0 - a * F * * = - 0 $ @ 2 @ $ = W T j a = ; ; $ ; = = a * = ; 0 : # l % $ $ $ @ < + > >.].].].].].].].].].].].].].].].].].].].].].].].].].].].].].e.C   > + { > { { o.].].].].].].].].].].].].].].].].].].].].].p , { , ' + [ 1 - 4 4 l 4 m $ 2 $ $ % 4 P.].].].].].].].].].].].].].].].].].].].].].].t = ; ; $ ; = = : ].].].].].].].].].].].].].].].].].].].].].].].].].].].].].].P + + +   + { + , { { v @ @ @ < C   > + { > { { { { { ' v   + < # m 0 1 $ 0 _.].].].].].].].].].].].].].].].].].].].].].].].].].].].].].].].&.- a * F * * = - 0 $ @ 2 @ $ = W T j a = ; ; $ ; = = a * = ; 0 : # l % $ $ $ @ < + > +   +     + 3 9 $ 1 $ @ $ @ + + + + +   + { + , { { v @ @ @ < C   > + { > { { { { { ' v   + < # m 0 1 $ 0 : m @ . [ [ [ @ @ , { , ' + [ 1 - ",
"9 @ @ @ # $ 0 1 @ , { , + , 2 k - 0 a 4 ; $ 2 $ $ $ - = = = $ 1 r % l a F y e e 4 0 $ # @ @ $ 0 = a * l ^ $ $ 1 } 0 4 = ^ 0 0 : m $ $ } 9 % @ +   > q ].].].].].].].].].].].].].].].].].].].].].].].].].].].].].].0 + + { + v > v 0+].].].].].].].].].].].].].].].].].].].].].=.@ , { , + , 2 k - 0 a 4 ; $ 2 $ $ $ - = 8.].].].].].].].].].].].].].].].].].].].].].g.l ^ $ $ 1 } 0 Y ].].].].].].].].].].].].].].].].].].].].].].].].].].].].].k.. + +   + + + +   + > + > 2 . @ 2 + + { + v >   , > { > + . + @ m $ 1 } 0 1 _.].].].].].].].].].].].].].].].].].].].].].].].].].].].].].].].w r % l a F y e e 4 0 $ # @ @ $ 0 = a * l ^ $ $ 1 } 0 4 = ^ 0 0 : m $ $ } 9 % @ +   > + + + { @ . @ $ 0 t l # @ [ @ . + +   + + + +   + > + > 2 . @ 2 + + { + v >   , > { > + . + @ m $ 1 } 0 1 : 9 @ @ @ # $ 0 1 @ , { , + , 2 k ",
"m # @ @ $ = * = $ + {   { + 2 1 1 } 4 l - - 2 @ 2 $ 1 0 - 0 1 $ @ $ $ 4 a z j L q / r $ # 9 2 0 0 4 4 a / = ; $ ; $ ; 0 0 ^ 0 : . . . @ # % .   + { P ].].].].].].].].].].].].].].].].].].].].].].].].].].].].].].( @ <   +   > J ].].].].].].].].].].].].].].].].].].].].].<+S $ + {   { + 2 1 1 } 4 l - - 2 @ 2 $ 1 0 l.].].].].].].].].].].].].].].].].].].].].].a+a / = ; $ ; $ m.].].].].].].].].].].].].].].].].].].].].].].].].].].].].]. .  >     { [ > [ > + [   + . < . + @ <   +   > {   { [   [ . @ # 1 1 ; ; ; $ _.].].].].].].].].].].].].].].].].].].].].].].].].].].].].].].].w @ $ $ 4 a z j L q / r $ # 9 2 0 0 4 4 a / = ; $ ; $ ; 0 0 ^ 0 : . . . @ # % .   + { '   > +   @ 9 1 % a - ; @ . +   >     { [ > [ > + [   + . < . + @ <   +   > {   { [   [ . @ # 1 1 ; ; ; $ : m # @ @ $ = * = $ + {   { + 2 1 ",
"@ $ # . $ e e l 0 [ { { , [ [ J 2 # 5 4 0 4 0 m @ 2 $ $ 1 0 # 2 @ @ $ r 0 a z & O & - $ $ 2 $ $ 1 % z s y ( 5 0 ; $ ; r = / / : @ @ < [ < + @   { >   7+].].].].].].].].].].].].].].].].].].].].].].].].].].].].]. .< [ < + +   W ].].].].].].].].].].].].].].].].].].].].].m.l 0 [ { { , [ [ J 2 # 5 4 0 4 0 m @ 2 $ $ O ].].].].].].].].].].].].].].].].].].].].].b+X y ( 5 0 ; ^ ].].].].].].].].].].].].].].].].].].].].].].].].].].].].].].a [ + { { > + , 2 < + > [ + @ [ @ . < [ < + +   + + [ + @ @ @ 1 $ ; = $ $ ; $ _.].].].].].].].].].].].].].].].].].].].].].].].].].].].].].].].b @ @ $ r 0 a z & O & - $ $ 2 $ $ 1 % z s y ( 5 0 ; $ ; r = / / : @ @ < [ < + @   { > , ' {   + + 2 9 1 - * 1 @ + > [ + { { > + , 2 < + > [ + @ [ @ . < [ < + +   + + [ + @ @ @ 1 $ ; = $ $ ; $ : @ $ # . $ e e l 0 [ { { , [ [ J ",
"1 2 2 @ $ = a = 4 # + v , + [ 2 2 m ; 4 0 - = 1 $ @ $ @ $ - } $ @ # $ 0 ; = f s W e l 1 $ $ 1 - 0 - F b z e a = 0 0 0 ; = z V : + < + B   { > , ' ' A o.].].].].].].].].].].].].].].].].].].].].].].].].].].].].].a.< < + +   + >.].].].].].].].].].].].].].].].].].].].].].&+= 4 # + v , + [ 2 2 m ; 4 0 - = 1 $ @ $ @ / ].].].].].].].].].].].].].].].].].].].].].].g.z e a = 0 #.].].].].].].].].].].].].].].].].].].].].].].].].].].].].].].#   { {   { . 9 1 { +   { +   + @ + < < + +   + @ < . . . 2 $ $ 1 $ 1 ; 1 $ # _.].].].].].].].].].].].].].].].].].].].].].].].].].].].].].].].w @ # $ 0 ; = f s W e l 1 $ $ 1 - 0 - F b z e a = 0 0 0 ; = z V : + < + B   { > , ' ' A ! ' { ' + < @ @ $ $ @ . [ ,   { {   { . 9 1 { +   { +   + @ + < < + +   + @ < . . . 2 $ $ 1 $ 1 ; 1 $ # : 1 2 2 @ $ = a = 4 # + v , + [ 2 ",
"$ $ m . # $ / a = m . {   , [ J 2 m 1 - 0 0 = - 1 @ 2 $ $ 5 a 4 0 $ $ ; $ } % 4 y z * 0 $ $ 1 5 0 0 I '.O V z = % 0 $ 0 = I z : { { ,   { > { { ' ! 6 W ].].].].].].].].].].].].].].].].].].].].].].].].].].].].].].; 2 + . + < K.].].].].].].].].].].].].].].].].].].].].].L.a = m . {   , [ J 2 m 1 - 0 0 = - 1 @ 2 $ 1 c+].].].].].].].].].].].].].].].].].].].].].z.O V z = % E ].].].].].].].].].].].].].].].].].].].].].].].].].].].].].b.> { ' { v + m 2 < + ' { > @ 2 < + @ @ 2 + . + < @ + @ 2 $ $ $ 1 0 $ $ $ $ $ $ _.].].].].].].].].].].].].].].].].].].].].].].].].].].].].].].].(.0 $ $ ; $ } % 4 y z * 0 $ $ 1 5 0 0 I '.O V z = % 0 $ 0 = I z : { { ,   { > { { ' ! 6 ' ! ' >   + + . + @ [ @ + > { ' { v + m 2 < + ' { > @ 2 < + @ @ 2 + . + < @ + @ 2 $ $ $ 1 0 $ $ $ $ $ $ : $ $ m . # $ / a = m . {   , [ J ",
"$ 1 9 $ $ 0 a & 4 @ +   , v [ 2 2 2 ; - 1 0 1 4 - # m @ 0 / O q - 0 0 } 0 $ 0 4 y * a 5 ; 1 $ k d 1 4 _ T & y / l 0 ; ; 0 = a : >   + { { { ' { o ' ! k ].].].].].].].].].].].].].].].].].].].].].].].].].].].].].].q 0 # @ @ 0 ].].].].].].].].].].].].].].].].].].].].].].V & 4 @ +   , v [ 2 2 2 ; - 1 0 1 4 - # m @ 0 /.].].].].].].].].].].].].].].].].].].].].].p.T & y / l a.].].].].].].].].].].].].].].].].].].].].].].].].].].].].].(.{ + { >   { < + , > , + { + [ [ < @ ; 0 # @ @ 2 2 $ $ 1 - 0 1 0 1 $ # - 0 ; $ _.].].].].].].].].].].].].].].].].].].].].].].].].].].].].].].].0.- 0 0 } 0 $ 0 4 y * a 5 ; 1 $ k d 1 4 _ T & y / l 0 ; ; 0 = a : >   + { { { ' { o ' ! { 6 { { { , + + + M + [ B { + { >   { < + , > , + { + [ [ < @ ; 0 # @ @ 2 2 $ $ 1 - 0 1 0 1 $ # - 0 ; $ : $ 1 9 $ $ 0 a & 4 @ +   , v [ 2 ",
"0 - 1 $ 0 a & t = # + , {   [ 3 [ 2 1 0 = 0 - - 5 ; $ 1 0 a j j l % r ; $ # $ 0 4 a a % 0 $ 1 } } 0 - F %.j z * a = 0 ; ; 0 - : > , > {     ' { { ' ! 6 d+].].].].].].].].].].].].].].].].].].].].].].].].].].].].]. .$ $ 0 $ & ].].].].].].].].].].].].].].].].].].].].].b.& t = # + , {   [ 3 [ 2 1 0 = 0 - - 5 ; $ 1 0 -.].].].].].].].].].].].].].].].].].].].].].8.%.j z * F <+].].].].].].].].].].].].].].].].].].].].].].].].].].].].].z { , { , > v + > v { B , > { + @ [ @ $ $ $ 0 $ $ $ $ 0 4 l ; } 0 $ 1 $ $ $ $ 0 _.].].].].].].].].].].].].].].].].].].].].].].].].].].].].].].].R.l % r ; $ # $ 0 4 a a % 0 $ 1 } } 0 - F %.j z * a = 0 ; ; 0 - : > , > {     ' { { ' ! ) ! { > { + {   + +   + > { , { , > v + > v { B , > { + @ [ @ $ $ $ 0 $ $ $ $ 0 4 l ; } 0 $ 1 $ $ $ $ 0 : 0 - 1 $ 0 a & t = # + , {   [ 3 ",
"k 0 0 - a j _ t e $ [ { { { ,   [ @ # 1 5 4 5 0 - - 5 1 = e s j a - 0 0 h h 2 $ 0 - l 4 = % 0 $ # 1 0 * K p t e a a 0 } ; 0 ; : { [   +   { ! ' ! ) ' ! S.].].].].].].].].].].].].].].].].].].].].].].].].].].].].].+.@ 2 # $ D ].].].].].].].].].].].].].].].].].].].].].C._ t e $ [ { { { ,   [ @ # 1 5 4 5 0 - - 5 1 = L.].].].].].].].].].].].].].].].].].].].].].].b p t e Z ].].].].].].].].].].].].].].].].].].].].].].].].].].].].].].1 { { { { ,   +   {   {   { + [ < + . @ @ 2 # $ ; $ ; 5 = ; 0 # 1 $ # $ $ $ 1 0 _.].].].].].].].].].].].].].].].].].].].].].].].].].].].].].].].R.a - 0 0 h h 2 $ 0 - l 4 = % 0 $ # 1 0 * K p t e a a 0 } ; 0 ; : { [   +   { ! ' ! ) ' ! ' ! 6   { { + [ . +   , { { { { ,   +   {   {   { + [ < + . @ @ 2 # $ ; $ ; 5 = ; 0 # 1 $ # $ $ $ 1 0 : k 0 0 - a j _ t e $ [ { { { ,   ",
"1 | 5 * & t L t & $ @       + [ + [ @ 9 0 = f = = l * y * z & j q 4 1 $ $ @ 9 @ 1 0 - * a l 4 = - } 4 * j b L z a a - ; $ 9 0 : ' { v   3   { { 6 ' ! ! j ].].].].].].].].].].].].].].].].].].].].].].].].].].].].].4+$ $ $ ; Z.].].].].].].].].].].].].].].].].].].].].].@.L t & $ @       + [ + [ @ 9 0 = f = = l * y * A.e+].].].].].].].].].].].].].].].].].].].].].g.b L z o.].].].].].].].].].].].].].].].].].].].].].].].].].].].].].E.] { { ' { { { + { + {   + {   + < @ @ @ 9 $ $ ; 0 $ $ - 0 1 $ $ 9 # $ 9 $ ; 0 h _.].].].].].].].].].].].].].].].].].].].].].].].].].].].].].].].R.q 4 1 $ $ @ 9 @ 1 0 - * a l 4 = - } 4 * j b L z a a - ; $ 9 0 : ' { v   3   { { 6 ' ! ! ! A ' ;.+ > + B + > { ' { { ' { { { + { + {   + {   + < @ @ @ 9 $ $ ; 0 $ $ - 0 1 $ $ 9 # $ 9 $ ; 0 h : 1 | 5 * & t L t & $ @       + [ ",
"2 - 4 * j _ p u z = 2 + + v + , [ + + @ m ; - = = = 4 a * e e z q 4 0 } $ 9 @ 9 $ ; 5 4 q e * l % - = * j T %.L e = = 0 ; ; ; : { , > v   , { 6 ' o ' ! 0 ].].].].].].].].].].].].].].].].].].].].].].].].].].].].].].y 0 a f ].].].].].].].].].].].].].].].].].].].].].].w p u z = 2 + + v + , [ + + @ m ; - = = = 4 a * e :.].].].].].].].].].].].].].].].].].].].].].|.T %.L d.].].].].].].].].].].].].].].].].].].].].].].].].].].].].].f.{ { ' { ' ' , { {   + { + + + + [ @ @ # $ 0 a c 0 ; ; $ $ 1 h $ 2 @ h $ @ # @ < _.].].].].].].].].].].].].].].].].].].].].].].].].].].].].].].].Y q 4 0 } $ 9 @ 9 $ ; 5 4 q e * l % - = * j T %.L e = = 0 ; ; ; : { , > v   , { 6 ' o ' ! ' 6 ! ' ' { 2   { { { { { ' { ' ' , { {   + { + + + + [ @ @ # $ 0 a c 0 ; ; $ $ 1 h $ 2 @ h $ @ # @ < : 2 - 4 * j _ p u z = 2 + + v + , ",
"2 0 5 * q j _ : _ = . +     v     [ , + . $ 0 % 0 0 1 - = a F & z a = ; $ @ . @ $ $ 0 4 * z & ( = a l * e L -.T e / * g r ; 0 : 6 { ' ' { , ' { , 6 { ! > ].].].].].].].].].].].].].].].].].].].].].].].].].].].].].]. .5 q &.].].].].].].].].].].].].].].].].].].].].].O.f+_ : _ = . +     v     [ , + . $ 0 % 0 0 1 - = a 6.].].].].].].].].].].].].].].].].].].].].].9.L -.b d+].].].].].].].].].].].].].].].].].].].].].].].].].].].].].V { { { , v { { { {   v + [ > @ @ @ 2 0 0 - 5 q j l 5 $ 1 $ $ $ 1 } $ 2 $ @ C + + _.].].].].].].].].].].].].].].].].].].].].].].].].].].].].].].].R.z a = ; $ @ . @ $ $ 0 4 * z & ( = a l * e L -.T e / * g r ; 0 : 6 { ' ' { , ' { , 6 { ! 6 ' { ! { { + B + + ' { { { , v { { { {   v + [ > @ @ @ 2 0 0 - 5 q j l 5 $ 1 $ $ $ 1 } $ 2 $ @ C + + : 2 0 5 * q j _ : _ = . +     v   ",
"$ 1 % y V & L b z 0 # + + , + , + +     + . $ 0 1 $ $ $ 5 a & j * z 5 0 $ . @ @ # ; 0 = * a z p e 4 4 l z L w b & a 4 = % 0 ^ : ) ! 6 ! { 6 { ' { ' , ! 6 +.].].].].].].].].].].].].].].].].].].].].].].].].].].].].].d.z y ^.].].].].].].].].].].].].].].].].].].].].].~+& L b z 0 # + + , + , + +     + . $ 0 1 $ $ $ 5 a %.].].].].].].].].].].].].].].].].].].].].].].'.w >.].].].].].].].].].].].].].].].].].].].].].].].].].].].].].].r { ' + { ' {   { , { + < @ 3 . @ $ l F e q z y _ q % 0 0 $ $ $ 5 ; $ 9 + . + + + _.].].].].].].].].].].].].].].].].].].].].].].].].].].].].].].].R.* z 5 0 $ . @ @ # ; 0 = * a z p e 4 4 l z L w b & a 4 = % 0 ^ : ) ! 6 ! { 6 { ' { ' , ! 6 ' ! o ' { v 2 2 > { { ' + { ' {   { , { + < @ 3 . @ $ l F e q z y _ q % 0 0 $ $ $ 5 ; $ 9 + . + + + : $ 1 % y V & L b z 0 # + + , + , ",
"@ } 0 l e t G & a 1 @ 3 + v + + [ + + v + @ # $ $ # @ $ 0 4 W q y a l 0 0 # + @ $ ; $ 0 4 l ( s _ a / a j p b %.L y = = a g = : ! 6 ! { ! { { 6 { { ' { 6 p ].].].].].].].].].].].].].].].].].].].].].].].].].].].].].1+_ L i.].].].].].].].].].].].].].].].].].].].].].++t G & a 1 @ 3 + v + + [ + + v + @ # $ $ # @ $ 0 4 X 9+].].].].].].].].].].].].].].].].].].].].].o.b /.].].].].].].].].].].].].].].].].].].].].].].].].].].].].].'+U   { B , {   { +   > @ [ @ @ @ h $ a j z t t L j a l 1 $ ; $ 0 5 0 h [ @ + < + + _.].].].].].].].].].].].].].].].].].].].].].].].].].].].].].].].0.y a l 0 0 # + @ $ ; $ 0 4 l ( s _ a / a j p b %.L y = = a g = : ! 6 ! { ! { { 6 { { ' { 6 { ' ! { {   + . + +   { B , {   { +   > @ [ @ @ @ h $ a j z t t L j a l 1 $ ; $ 0 5 0 h [ @ + < + + : @ } 0 l e t G & a 1 @ 3 + v + + ",
". $ = * y j t z = $ + 3   , , + @   + { +   @ 2 1 $ $ 2 1 = = * * a * = 0 m @ @ 2 $ 0 1 % 4 F q L z a 4 a z _ L %.V a a e a a : ) ) ! ! 7 ' ! 6 6 6 { 6 ' I.].].].].].].].].].].].].].].].].].].].].].].].].].].].].].].&.L .+].].].].].].].].].].].].].].].].].].].].]._ j t z = $ + 3   , , + @   + { +   @ 2 1 $ $ 2 1 = = 4.].].].].].].].].].].].].].].].].].].].].].&+_ y.].].].].].].].].].].].].].].].].].].].].].].].].].].].].]./.{ {   , > + + + + + [ + @ C 9 9 # $ = & & & _ t & = 0 0 $ # $ 0 1 # @ @ > + + + + _.].].].].].].].].].].].].].].].].].].].].].].].].].].].].].].].6.* a * = 0 m @ @ 2 $ 0 1 % 4 F q L z a 4 a z _ L %.V a a e a a : ) ) ! ! 7 ' ! 6 6 6 { 6 ' ! 6 ' { ' { { + + { {   , > + + + + + [ + @ C 9 9 # $ = & & & _ t & = 0 0 $ # $ 0 1 # @ @ > + + + + : . $ = * y j t z = $ + 3   , , + ",
"$ 1 = e * q L a ; @ . + + +   [ + [   , > + @ @ $ @ @ @ 1 0 0 % l 4 a 4 0 9 @ @ $ $ $ $ $ 0 4 y V t e 4 = a z p T w z ( y z V : ).! 7 ) 6 ! 6 ! ' ! 6 ' 6 U ].].].].].].].].].].].].].].].].].].].].].].].].].].].].].].g+: ].].].].].].].].].].].].].].].].].].].].].#+*+q L a ; @ . + + +   [ + [   , > + @ @ $ @ @ @ 1 0 0 D ].].].].].].].].].].].].].].].].].].].].].N.W /+].].].].].].].].].].].].].].].].].].].].].].].].].].].].].p . + > + + + + . < . @ @ # 2 $ $ 0 - = a ( q j & a ^ # h # @ 1 # $ 9 @ . + + . + [ _.].].].].].].].].].].].].].].].].].].].].].].].].].].].].].].].-.l 4 a 4 0 9 @ @ $ $ $ $ $ 0 4 y V t e 4 = a z p T w z ( y z V : ).! 7 ) 6 ! 6 ! ' ! 6 ' 6 { ! ' ' { {     + . + > + + + + . < . @ @ # 2 $ $ 0 - = a ( q j & a ^ # h # @ 1 # $ 9 @ . + + . + [ : $ 1 = e * q L a ; @ . + + +   [ ",
"$ 0 l z e & & a $ @ + v { { v ' + , , + {   + @ m # [ @ @ @ @ - 0 % 4 y - $ @ + # 9 $ # $ $ - f F * y 4 = a * j _ Z j ( e & j : !.!.) ! ! ' ' ' ' ! A 6 ' ' Z.].].].].].].].].].].].].].].].].].].].].].].].].].].].].]...D ].].].].].].].].].].].].].].].].].].].].].:.e & & a $ @ + v { { v ' + , , + {   + @ m # [ @ @ @ @ f+].].].].].].].].].].].].].].].].].].].].].[+O ].].].].].].].].].].].].].].].].].].].].].].].].].].].].].].*+C @ 3 . C 2 $ m @ @ # h 0 r = N = / l a & t & a = r $ h 9 $ r $ @ @ @ @ > + [ + > _.].].].].].].].].].].].].].].].].].].].].].].].].].].].].].].].V.0 % 4 y - $ @ + # 9 $ # $ $ - f F * y 4 = a * j _ Z j ( e & j : !.!.) ! ! ' ' ' ' ! A 6 ' ' { { 6 { { B [ @ C @ 3 . C 2 $ m @ @ # h 0 r = N = / l a & t & a = r $ h 9 $ r $ @ @ @ @ > + [ + > : $ 0 l z e & & a $ @ + v { { v ' ",
"1 4 a e & t y a $ @ , { ' , { ,   + , { +   + [ @ @ < [ + [ @ 1 } - = z 4 $ # 9 @ @ # @ @ # $ 0 4 = 4 ( * 4 a q _ & s V & _ t : ! 6 ! 6 ! ) ! ! 6 { 6 ' o { X.].].].].].].].].].].].].].].].].].].].].].].].].].].].].].7++.].].].].].].].].].].].].].].].].].].].].].$.& t y a $ @ , { ' , { ,   + , { +   + [ @ @ < [ + [ @ ^ ].].].].].].].].].].].].].].].].].].].].].]./.].].].].].].].].].].].].].].].].].].].].].].].].].].].].].].; $ $ # $ 1 ; 0 4 z 0 0 0 4 l * a y z a * e I 4 = ^ 1 ; $ - 1 2 # 9 [ + < 2 @ . + , _.].].].].].].].].].].].].].].].].].].].].].].].].].].].].].].].w } - = z 4 $ # 9 @ @ # @ @ # $ 0 4 = 4 ( * 4 a q _ & s V & _ t : ! 6 ! 6 ! ) ! ! 6 { 6 ' o { ' ' { '   + @ @ $ $ # $ 1 ; 0 4 z 0 0 0 4 l * a y z a * e I 4 = ^ 1 ; $ - 1 2 # 9 [ + < 2 @ . + , : 1 4 a e & t y a $ @ , { ' , { , ",
"= * l * z & & = $ . C > v ' 6 { , , , v { , +   . @ [ { + @ . $ 1 } - a y % 0 @ # @ @ . . @ @ # ; ; 4 l a a ( V p e z ( e V & : ) , 7 ! , , 6 ' { ' ' { { , * ].].].].].].].].].].].].].].].].].].].].].].].].].].].].].].].].].].].].].].].].].].].].].].].].].].].].Z z & & = $ . C > v ' 6 { , , , v { , +   . @ [ { + @ . $ w.].].].].].].].].].].].].].].].].].].].].].].].].].].].].].].].].].].].].].].].].].].].].].].].].].].].d.1 - - 5 = a q q e = 5 = z q e e z L & y I y g N 0 0 r } 0 0 @ @ @ @ @ @ 1 . + + + { _.].].].].].].].].].].].].].].].].].].].].].].].].].].].].].].].w 1 } - a y % 0 @ # @ @ . . @ @ # ; ; 4 l a a ( V p e z ( e V & : ) , 7 ! , , 6 ' { ' ' { { , { v ' + { @ [ 1 - - 5 = a q q e = 5 = z q e e z L & y I y g N 0 0 r } 0 0 @ @ @ @ @ @ 1 . + + + { : = * l * z & & = $ . C > v ' 6 { ",
"5 4 l a y z V 5 0 @ + + { { , ' + + { , > { +   v 2 @ . [ # $ - $ 1 1 = * l 0 $ $ . + @ + . . @ # m - - = 4 * t a g e & z X ( : 7 ! ' ! 6 { { 6 o { , , { , P ].].].].].].].].].].].].].].].].].].].].].].].].].].].].].].].].].].].].].].].].].].].].].].].].].].].<+y y z V 5 0 @ + + { { , ' + + { , > { +   v 2 @ . [ # $ - E ].].].].].].].].].].].].].].].].].].].].].].].].].].].].].].].].].].].].].].].].].].].].].].].].].].].E - y z z f 4 * = - 0 ; = a e j t _ & j e a a % 0 0 ; 1 ; $ $ @ 2 < [ @ 2 . + [ , , , _.].].].].].].].].].].].].].].].].].].].].].].].].].].].].].].].V.$ 1 1 = * l 0 $ $ . + @ + . . @ # m - - = 4 * t a g e & z X ( : 7 ! ' ! 6 { { 6 o { , , { , { , + + [ . m - y z z f 4 * = - 0 ; = a e j t _ & j e a a % 0 0 ; 1 ; $ $ @ 2 < [ @ 2 . + [ , , , : 5 4 l a y z V 5 0 @ + + { { , ' ",
"0 0 0 5 #.q q = ; @ @ + { , {   , ,   { , ' , {   + + + h 1 1 k 1 $ $ 0 = 4 - $ @ . C   + + . @ @ # $ 1 ; 0 = V = = ( T _ & a : ! 6 6 6 ' { , ,   + + + @ + 2 8.].].].].].].].].].].].].].].].].].].].].].].].].].].].].].].].].].].].].].].].].].].].].].].].].].].N.5 #.q q = ; @ @ + { , {   , ,   { , ' , {   + + + h 1 1 k & ].].].].].].].].].].].].].].].].].].].].].].].].].].].].].].].].].].].].].].].].].].].].].].].].].].].'.; 0 = = 0 0 ; 0 r 0 0 0 - e O L L p p j z e = = = = 0 $ # @ . @ 2 @ [ + 3 [ @ [ [ { _.].].].].].].].].].].].].].].].].].].].].].].].].].].].].].].].{+1 $ $ 0 = 4 - $ @ . C   + + . @ @ # $ 1 ; 0 = V = = ( T _ & a : ! 6 6 6 ' { , ,   + + + @ + @ . 2 2 $ $ 4 ; 0 = = 0 0 ; 0 r 0 0 0 - e O L L p p j z e = = = = 0 $ # @ . @ 2 @ [ + 3 [ @ [ [ { : 0 0 0 5 #.q q = ; @ @ + { , {   ",
"; $ } % = e e l 0 # @ + + { { { { { , , { , { {   , [ + 2 - - 1 $ @ 1 - 5 = r 2 @ < +   + < + . @ @ 2 $ $ 1 ; N 0 = * T b T ( : ! , { ' , +   + [ 2 1 9 1 1 2 R.].].].].].].].].].].].].].].].].].].].].].].].].].].].].].].].].].].].].].].].].].].].].].].].].].].G % = e e l 0 # @ + + { { { { { , , { , { {   , [ + 2 - - 1 5 ].].].].].].].].].].].].].].].].].].].].].].].].].].].].].].].].].].].].].].].].].].].].].].].].].].].^ @ $ $ 2 # 9 2 $ 0 ^ 0 r 0 a & L p L V X e = = 0 ; $ $ @ @ 3 < [ . +   [   3   +   , _.].].].].].].].].].].].].].].].].].].].].].].].].].].].].].].].w $ @ 1 - 5 = r 2 @ < +   + < + . @ @ 2 $ $ 1 ; N 0 = * T b T ( : ! , { ' , +   + [ 2 1 9 1 1 2 k - = $ $ # @ $ $ 2 # 9 2 $ 0 ^ 0 r 0 a & L p L V X e = = 0 ; $ $ @ @ 3 < [ . +   [   3   +   , : ; $ } % = e e l 0 # @ + + { { { ",
"@ 0 ; 5 5 * z / 0 @ . < + ,   { , ' { ' { {   { { {   @ 3 0 c $ 2 2 m | 1 ; 1 # 2 @ @ . + @ + @ @ @ @ 9 2 # $ $ 0 ^ ( t L b & : 6 > { { + + [ @ $ = - 0 $ # 2 %.].].].].].].].].].].].].].].].].].].].].].].].].].].].].].].].].].].].].].].].].].].].].].].].].].].s 5 5 * z / 0 @ . < + ,   { , ' { ' { {   { { {   @ 3 0 c $ 2 e.].].].].].].].].].].].].].].].].].].].].].].].].].].].].].].].].].].].].].].].].].].].].].].].].].b.+ @ < . @ < + 9 @ 5 - 0 1 0 z q a a = S 5 ; 0 $ 9 $ @ @ @ + < > + @ + @ [ +   , { , { _.].].].].].].].].].].].].].].].].].].].].].].].].].].].].].].].w 2 2 m | 1 ; 1 # 2 @ @ . + @ + @ @ @ @ 9 2 # $ $ 0 ^ ( t L b & : 6 > { { + + [ @ $ = - 0 $ # 2 = 0 $ @ @ + @ < . @ < + 9 @ 5 - 0 1 0 z q a a = S 5 ; 0 $ 9 $ @ @ @ + < > + @ + @ [ +   , { , { : @ 0 ; 5 5 * z / 0 @ . < + ,   { ",
"@ $ $ 0 0 = l l - $ $ +   v , { ' o { , { , {   { , + [ @ $ 1 1 $ 2 @ $ m $ $ 2 @ @ @ @   C . + @ . @ @ # @ 9 $ ; 0 4 z T L b :   { , [ [ @ @ # - - 0 2 # @ @ = ].].].].].].].].].].].].].].].].].].].].].].].].].].].].].].].].].].].].].].].].].].].].].].].].].].^ 0 0 = l l - $ $ +   v , { ' o { , { , {   { , + [ @ $ 1 1 $ ++].].].].].].].].].].].].].].].].].].].].].].].].].].].].].].].].].].].].].].].].].].].].].].].].].>.+ + + + + + @ [ 9 $ ; $ ; = 4 = ^ 0 0 $ ; $ 9 2 @ @ + . + + + [   + , >   { + { , { { _.].].].].].].].].].].].].].].].].].].].].].].].].].].].].].].].w $ 2 @ $ m $ $ 2 @ @ @ @   C . + @ . @ @ # @ 9 $ ; 0 4 z T L b :   { , [ [ @ @ # - - 0 2 # @ @ @ . @ [ . + + + + + + @ [ 9 $ ; $ ; = 4 = ^ 0 0 $ ; $ 9 2 @ @ + . + + + [   + , >   { + { , { { : @ $ $ 0 0 = l l - $ $ +   v , { ",
"$ $ $ 1 0 4 4 - r # @ > +   + { { ' ' { , ' { { { + , + . 1 1 - - 1 2 @ # 2 2 $ # 2 2 @ . + @ 2 @ < @ . 2 9 2 $ $ ; % a F T b : [ @ 3 @ 2 1 } k l F 0 @ 2 @ [ . ]+].].].].].].].].].].].].].].].].].].].].].].].].].].].].].].].].].].].].].].].].].].].].].].].].h+$ 1 0 4 4 - r # @ > +   + { { ' ' { , ' { { { + , + . 1 1 - - t ].].].].].].].].].].].].].].].].].].].].].].].].].].].].].].].].].].].].].].].].].].].].].].].].].A.+ , + > {   + @ @ @ h 1 0 5 0 0 0 $ $ @ @ @ 2 < < @ @ 3     + v + , + v + , { , , { 6 _.].].].].].].].].].].].].].].].].].].].].].].].].].].].].].].].V.- 1 2 @ # 2 2 $ # 2 2 @ . + @ 2 @ < @ . 2 9 2 $ $ ; % a F T b : [ @ 3 @ 2 1 } k l F 0 @ 2 @ [ + + + 3 + + , + > {   + @ @ @ h 1 0 5 0 0 0 $ $ @ @ @ 2 < < @ @ 3     + v + , + v + , { , , { 6 : $ $ $ 1 0 4 4 - r # @ > +   + { ",
"# $ $ $ - l = - } 2 @ + + + , { ' { o ' ' { 6 ' + ,   [ 3 @ | f - k $ 2 2 # @ # 2 # $ # @ @ # $ $ # @ @ @ 2 9 # $ $ 0 = z u & : 2 $ 1 0 4 = e e _ ( 0 @ < 2 <   0.].].].].].].].].].].].].].].].].].].].].].].].].].].].].].].].].].].].].].].].].].].].].].].].].(.$ $ - l = - } 2 @ + + + , { ' { o ' ' { 6 ' + ,   [ 3 @ | f - S ].].].].].].].].].].].].].].].].].].].].].].].].].].].].].].].].].].].].].].].].].].].].].].].].].; + {   { + { + . @ < $ 0 - a - 0 h . 9 @ @ < @ @ [ @ # 2 > v [     + +   { { , { A , , _.].].].].].].].].].].].].].].].].].].].].].].].].].].].].].].].x - k $ 2 2 # @ # 2 # $ # @ @ # $ $ # @ @ @ 2 9 # $ $ 0 = z u & : 2 $ 1 0 4 = e e _ ( 0 @ < 2 <   +       + {   { + { + . @ < $ 0 - a - 0 h . 9 @ @ < @ @ [ @ # 2 > v [     + +   { { , { A , , : # $ $ $ - l = - } 2 @ + + + , { ",
"@ @ $ $ 0 - 4 = 0 $ . + + +   , , { 6 ' o { { ' , { ,   + @ 1 - 1 1 | m 2 @ $ $ 0 1 $ $ $ # $ # ; $ $ # # 9 m @ $ # ^ ^ a & & : * F z * l - 0 1 - 1 $ [ [ v + , f+].].].].].].].].].].].].].].].].].].].].].].].].].].].].].].].].].].].].].].].].].].].].].].].].V $ $ 0 - 4 = 0 $ . + + +   , , { 6 ' o { { ' , { ,   + @ 1 - 1 | `.].].].].].].].].].].].].].].].].].].].].].].].].].].].].].].].].].].].].].].].].].].].].].].].c+*.{ { { , , +   + < m $ 4 y % 0 @ @ . + + [ + + @ 2 m % @ [ > , v v , , { , , { ' , , { _.].].].].].].].].].].].].].].].].].].].].].].].].].].].].].].].V.1 1 | m 2 @ $ $ 0 1 $ $ $ # $ # ; $ $ # # 9 m @ $ # ^ ^ a & & : * F z * l - 0 1 - 1 $ [ [ v + ,   { { { { { { , , +   + < m $ 4 y % 0 @ @ . + + [ + + @ 2 m % @ [ > , v v , , { , , { ' , , { : @ @ $ $ 0 - 4 = 0 $ . + + +   , ",
"$ 1 $ 0 0 - = - 1 2 9 @ [ [ { B + ' { ' { ' { 6 { , + + [ [ @ 2 m $ 2 3 2 2 @ 2 $ 0 0 # # } ; 0 1 0 1 9 2 9 @ # h $ ; 0 / * p : 4 = r ; $ $ 0 $ $ < @ < > +   v c ].].].].].].].].].].].].].].].].].].].].].].].].].].].].].].].].].].].].].].].].].].].].].].].].= $ 0 0 - = - 1 2 9 @ [ [ { B + ' { ' { ' { 6 { , + + [ [ @ 2 m $ &+].].].].].].].].].].].].].].].].].].].].].].].].].].].].].].].].].].].].].].].].].].].].].].].f.v   { { { > { + + @ $ ; 5 = } # @ < + + . @ . 2 $ $ $ @ + +   A     , + , + { , , { { ' _.].].].].].].].].].].].].].].].].].].].].].].].].].].].].].].].b m $ 2 3 2 2 @ 2 $ 0 0 # # } ; 0 1 0 1 9 2 9 @ # h $ ; 0 / * p : 4 = r ; $ $ 0 $ $ < @ < > +   v + {   v   { { { > { + + @ $ ; 5 = } # @ < + + . @ . 2 $ $ $ @ + +   A     , + , + { , , { { ' : $ 1 $ 0 0 - = - 1 2 9 @ [ [ { B ",
"0 $ 1 1 ; 5 - 5 ; m @ < + + , ] { , { { , , { , { + 6 , + + + @ [ @ + . @ @ @ + . @ 2 $ $ $ 1 l 0 0 $ 0 $ # 9 $ $ # ; 0 = a L : $ $ @ 3 @ @ 2 $ @ 2 > 3 v +   { U (+].].].].].].].].].].].].].].].].].].].].].].].].].].].].].].].].].].].].].].].].].].].].].].!+$ 1 1 ; 5 - 5 ; m @ < + + , ] { , { { , , { , { + 6 , + + + @ [ @ X ].].].].].].].].].].].].].].].].].].].].].].].].].].].].].].].].].].].].].].].].].].].].].].].s + + {   { + [ + @ 2 $ - c 0 $ 9 + @ + + + + } % $ @ @ @ + { v { { + v   { , + { { ' , { _.].].].].].].].].].].].].].].].].].].].].].].].].].].].].].].].].].].].].].].].].].].].].].].].].].].].].].].].].].].].].].].].].].].].].].].].].].].].].].].].].].].].].].].].%.+ [ + @ 2 $ - c 0 $ 9 + @ + + + + } % $ @ @ @ + { v { { + v   { , + { { ' , { : 0 $ 1 1 ; 5 - 5 ; m @ < + + , ] ",
"; k ; } 0 = 0 } 1 $ $ @ @ @ [ { +   {   { { { ' , ' , + +   + . [ + + + + @ + . @ [ @ # $ 1 0 - = ; $ 1 ; $ @ # # $ $ a e * ` : +   + [ + [ @ @ - + @ + 2   + , ' /.].].].].].].].].].].].].].].].].].].].].].].].].].].].].].].].].].].].].].].].].].].].].].].Y k ; } 0 = 0 } 1 $ $ @ @ @ [ { +   {   { { { ' , ' , + +   + . [ + n ].].].].].].].].].].].].].].].].].].].].].].].].].].].].].].].].].].].].].].].].].].].].].].].0 , { + + { [ + [ 2 - k - 0 1 @ [ +   + > [ @ $ @ [ + [ + +   , { , , [ + , + , , , { { 6 _.].].].].].].].].].].].].].].].].].].].].].].].].].].].].].].].].].].].].].].].].].].].].].].].].].].].].].].].].].].].].].].].].].].].].].].].].].].].].].].].].].].].].].].].%.[ + [ 2 - k - 0 1 @ [ +   + > [ @ $ @ [ + [ + +   , { , , [ + , + , , , { { 6 : ; k ; } 0 = 0 } 1 $ $ @ @ @ [ { ",
"S c - 5 - 1 % 0 % 5 1 # @ @   C   v > { , , { { { , { , [ + , +   +   ,       [ + < + 2 $ $ $ - 0 $ $ # $ $ # $ $ $ ; % = a e : {     { { + [ +   + , [ 2 3   , v O ].].].].].].].].].].].].].].].].].].].].].].].].].].].].].].].].].].].].].].].].].].].].].].{+c - 5 - 1 % 0 % 5 1 # @ @   C   v > { , , { { { , { , [ + , +   + ~.E.].].].].].].].].].].].].].].].].].].].].].].].].].].].].].].].].].].].].].].].].].].].].].(+[ +   +   v +   @ - - 0 } 1 $ @ . + + { [ { { [ > , + ' ' , { { , { [ + [ { [ , { { , , , _.].].].].].].].].].].].].].].].].].].].].].].].].].].].].].].].].].].].].].].].].].].].].].].].].].].].].].].].].].].].].].].].].].].].].].].].].].].].].].].].].].].].].].].].&.+   @ - - 0 } 1 $ @ . + + { [ { { [ > , + ' ' , { { , { [ + [ { [ , { { , , , : S c - 5 - 1 % 0 % 5 1 # @ @   C ",
"c 4 - N 0 = - = = = % } 9 @ 2 + @   +   + > , ' , { , + v +   [   +   B v   + + [   + . + . 2 $ $ # @ $ @ 9 $ # $ $ h 0 ; = ( : { { , { { , { { +   + + < 2 + { { ,.].].].].].].].].].].].].].].].].].].].].].].].].].].].].].].].].].].].].].].].].].].].].].].V 4 - N 0 = - = = = % } 9 @ 2 + @   +   + > , ' , { , + v +   [   +   0.].].].].].].].].].].].].].].].].].].].].].].].].].].].].].].].].].].].].].].].].].].].].].%++ [ 2 2 @ @ @ 2 2 $ $ 1 $ 1 @ @ + >     { , + + { { ' v A , , {   + , + + + + + , { { ' ' _.].].].].].].].].].].].].].].].].].].].].].].].].].].].].].].].].].].].].].].].].].].].].].].].].].].].].].].].].].].].].].].].].].].].].].].].].].].].].].].].].].].].].].].].(.@ 2 2 $ $ 1 $ 1 @ @ + >     { , + + { { ' v A , , {   + , + + + + + , { { ' ' : c 4 - N 0 = - = = = % } 9 @ 2 + ",
"2 | c c - - = c l 4 - 0 0 $ 9 @ . + + > , ' { { , { , , , , + + + C { , + { + [ > + B , < @ @ 2 9 2 @ . # @ 2 $ # 9 $ ; ; = a : ! { ' { ' { ' { { { ' [ 3 @ +   { < ].].].].].].].].].].].].].].].].].].].].].].].].].].].].].].].].].].].].].].].].].].].].].1+# | c c - - = c l 4 - 0 0 $ 9 @ . + + > , ' { { , { , , , , + + + C { & ].].].].].].].].].].].].].].].].].].].].].].].].].].].].].].].].].].].].].].].].].].].].].O + @ 0 % $ 2 - # . @ @ $ 1 # . + + + + {   { ' ' { , , ,   { { + { [ + [ . [ + , {   { { ! _.].].].].].].].].].].].].].].].].].].].].].].].].].].].].].].].].].].].].].].].].].].].].].].].].].].].].].].].].].].].].].].].].].].].].].].].].].].].].].].].].].].].].].].].++- # . @ @ $ 1 # . + + + + {   { ' ' { , , ,   { { + { [ + [ . [ + , {   { { ! : 2 | c c - - = c l 4 - 0 0 $ 9 @ ",
"@ m 1 J $ 1 0 4 % * l % 0 % $ @ @ @ @ + + + +   { > , , + + [ 2 @ , ' , { + , + + { , + + + + < @ @ @ . @ @ 2 9 $ h # $ 0 = ( : ! ' 6 { ! 6 A 6 ' { { { @   , + { + a.].].].].].].].].].].].].].].].].].].].].].].].].].].].].].].].].].].].].].].].].].].].].i+@ m 1 J $ 1 0 4 % * l % 0 % $ @ @ @ @ + + + +   { > , , + + [ 2 @ , ' 0 ].].].].].].].].].].].].].].].].].].].].].].].].].].].].].].].].].].].].].].].].].].].].].,.. @ } - } * 0 @ 3 . @ 1 } $ @ + + { ' + { , { ,   { + { , + [ [ + [ m 1 m @ [ +   { 6 , 6 _.].].].].].].].].].].].].].].].].].].].].].].].].].].].].].].].].].].].].].].].].].].].].].].].].].].].].].].].].].].].].].].].].].].].].].].].].].].].].].].].].].].].].].].].5.0 @ 3 . @ 1 } $ @ + + { ' + { , { ,   { + { , + [ [ + [ m 1 m @ [ +   { 6 , 6 : @ m 1 J $ 1 0 4 % * l % 0 % $ @ ",
"+ . [ @ 2 $ - 4 y * * l % $ } $ @ . . . + [   { + , , +   v + + ' + ' A { { +   , > ,     + < @ # @ @ 2 2 $ @ $ # # 9 $ ; 4 a : 6 6 ! , 6 ' ! ! 6 { , + , +   B     : ].].].].].].].].].].].].].].].].].].].].].].].].].].].].].].].].].].].].].].].].].].].].@++ . [ @ 2 $ - 4 y * * l % $ } $ @ . . . + [   { + , , +   v + + ' + ' 6+(+].].].].].].].].].].].].].].].].].].].].].].].].].].].].].].].].].].].].].].].].].].].].U + . $ - l - $ @ + + 3 } g } 2 [ ,   , { , , 6 { { {   , + + [ U 1 - 2 @ 2 [   , o , + , , _.].].].].].].].].].].].].].].].].].].].].].].].].].].].].].].].].].].].].].].].].].].].].].].].].].].].].].].].].].].].].].].].].].].].].].].].].].].].].].].].].].].].].].].].j+$ @ + + 3 } g } 2 [ ,   , { , , 6 { { {   , + + [ U 1 - 2 @ 2 [   , o , + , , : + . [ @ 2 $ - 4 y * * l % $ } $ ",
"+ 3 + . @ $ } 1 4 * F e 0 0 $ $ @ < 2 2 @ . +   , +   , +   +   , , > , ,   + { { > { , + { + 3 . h . @ @ # 9 # m $ ; ; ; % a : ! ' ! ! { ! 6 ) { ' { > {   {   + { y ].].].].].].].].].].].].].].].].].].].].].].].].].].].].].].].].].].].].].].].].].].].].$.+ 3 + . @ $ } 1 4 * F e 0 0 $ $ @ < 2 2 @ . +   , +   , +   +   , , > , H.].].].].].].].].].].].].].].].].].].].].].].].].].].].].].].].].].].].].].].].].].].].a.{ . 2 $ 4 - ; m .   @ . . 1 # < > + { { , {     { { [ , + M @ 1 $ @ . . + . + { {   { ' , 6 _.].].].].].].].].].].].].].].].].].].].].].].].].].].].].].].].].].].].].].].].].].].].].].].].].].].].].].].].].].].].].].].].].].].].].].].].].].].].].].].].].].].].].].].].$.m .   @ . . 1 # < > + { { , {     { { [ , + M @ 1 $ @ . . + . + { {   { ' , 6 : + 3 + . @ $ } 1 4 * F e 0 0 $ $ ",
"+ + + + + @ # 1 5 * z q 4 0 $ @ # + + < @ 2 @ @ + + [ + v + [ +   + { { { , + , , , B , >   + . @ @ @ @ 2 2 # @ $ $ # $ 0 = ( : ! 6 { ' ! ' { ' ! 6 { { > , +   + 3 c ].].].].].].].].].].].].].].].].].].].].].].].].].].].].].].].].].].].].].].].].].].].(+ ++ + + + + @ # 1 5 * z q 4 0 $ @ # + + < @ 2 @ @ + + [ + v + [ +   + { { t ].].].].].].].].].].].].].].].].].].].].].].].].].].].].].].].].].].].].].].].].].].].w 3 $ 2 0 0 0 @ 9 @ 3   + . @ @ [ + ,   ' { , { { v   [ @ 1 } . @ . [ + [ + +   + { , { ' { { _.].].].].].].].].].].].].].].].].].].].].].].].].].].].].].].].].].].].].].].].].].].].].].].].].].].].].].].].].].].].].].].].].].].].].].].].].].].].].].].].].].].].].].].].(.9 @ 3   + . @ @ [ + ,   ' { , { { v   [ @ 1 } . @ . [ + [ + +   + { , { ' { { : + + + + + @ # 1 5 * z q 4 0 $ @ ",
"+   +   . + @ m 0 l z t e = ^ $ $ @ @ @ + @ +     + + ,   +   , { + , +     + { , > + { [ > + + . @ @ . @ 2 $ ; $ 0 ; 0 % / V : ! ' ! o 6 { ! { ! { { { v + + + m # $ M.].].].].].].].].].].].].].].].].].].].].].].].].].].].].].].].].].].].].].].].].].].R.: +   +   . + @ m 0 l z t e = ^ $ $ @ @ @ + @ +     + + ,   +   , { + , + N ].].].].].].].].].].].].].].].].].].].].].].].].].].].].].].].].].].].].].].].].].].].s # $ 1 $ $ @ 2 @ + + + 3 @ + . + + + { , , v   +   @ m 2 @ [ . [ + + + + + , , { ' 6 { 6 { 6 _.].].].].].].].].].].].].].].].].].].].].].].].].].].].].].].].].].].].].].].].].].].].].].].].].].].].].].].].].].].].].].].].].].].].].].].].].].].].].].].].].].].].].].].].++@ + + + 3 @ + . + + + { , , v   +   @ m 2 @ [ . [ + + + + + , , { ' 6 { 6 { 6 : +   +   . + @ m 0 l z t e = ^ $ ",
"+ + { + + + @ @ $ 4 * z a = 0 $ 2 @ <   + + [ + [ +   + + [ + + . + ' , { v {   + , { + + { + + . $ [ @ @ 9 } = 0 % % N = a z : R ! ' ! { ! ' ! { ' { , { + @ 2 $ @ m 6.].].].].].].].].].].].].].].].].].].].].].].].].].].].].].].].].].].].].].].].].].].j : + + { + + + @ @ $ 4 * z a = 0 $ 2 @ <   + + [ + [ +   + + [ + + . + ' , [ ].].].].].].].].].].].].].].].].].].].].].].].].].].].].].].].].].].].].].].].].].].].N @ m $ @ @ @ @ < . + . C . + 3 + ,   + v + [ [ 2 @ [ + < + + + { { {   v , { { { o { , { { ! _.].].].].].].].].].].].].].].].].].].].].].].].].].].].].].].].].].].].].].].].].].].].].].].].].].].].].].].].].].].].].].].].].].].].].].].].].].].].].].].].].].].].].].].].(.< . + . C . + 3 + ,   + v + [ [ 2 @ [ + < + + + { { {   v , { { { o { , { { ! : + + { + + + @ @ $ 4 * z a = 0 $ ",
"+ + + ' + + < . $ } = e a l ^ 0 $ @ @ + + + < + + [ +   [ @ [ . v   v + {   + , { > { , + + . @ . @ $ @ 2 # ; - = = l / 4 a j : { , { ' 6 ' ,   { >     2 $ m = k # m & ].].].].].].].].].].].].].].].].].].].].].].].].].].].].].].].].].].].].].].].].].].5 : + + + ' + + < . $ } = e a l ^ 0 $ @ @ + + + < + + [ +   [ @ [ . v   v + { ,+].].].].].].].].].].].].].].].].].].].].].].].].].].].].].].].].].].].].].].].].].!+k # m @ @ < . + < +   + @ 3 < + + + [   [ [ . 2 3 [ + + , + {   , { {   > + {   { ' { 6 ' , { _.].].].].].].].].].].].].].].].].].].].].].].].].].].].].].].].].].].].].].].].].].].].].].].].].].].].].].].].].].].].].].].].].].].].].].].].].].].].].].].].].].].].].].].].G < +   + @ 3 < + + + [   [ [ . 2 3 [ + + , + {   , { {   > + {   { ' { 6 ' , { : + + + ' + + < . $ } = e a l ^ 0 ",
"[ + , +   { + [ 9 $ 4 z e a - 0 $ $ < +     , +   + + , + + [ +   [ + , + , ,   , + ,     + + [ @ @ 2 ; $ 1 } 4 * * * l g a z : ' 6 { { + 6 { { , + . m 2 P - 4 0 1 $ c ].].].].].].].].].].].].].].].].].].].].].].].].].].].].].].].].].].].].].].].].].].  : [ + , +   { + [ 9 $ 4 z e a - 0 $ $ < +     , +   + + , + + [ +   [ + , + T ].].].].].].].].].].].].].].].].].].].].].].].].].].].].].].].].].].].].].].].].].)+0 1 $ # . [ + . + + @ . @ 2 . . 1 [ [ [ . 2 @ +   +   { ,   { , ' , ' { , + + ' ~.' , { , ' 6 _.].].].].].].].].].].].].].].].].].].].].].].].].].].].].].].].].].].].].].].].].].].].].].].].].].].].].].].].].].].].].].].].].].].].].].].].].].].].].].].].].].].].].].].].g.+ + @ . @ 2 . . 1 [ [ [ . 2 @ +   +   { ,   { , ' , ' { , + + ' ~.' , { , ' 6 : [ + , +   { + [ 9 $ 4 z e a - 0 ",
"[ + > + > + + < h 1 a q q e = = ; $ @   B + +   {   ,   o   [ + + { ,   v   , + { { {   + + < @ @ # 2 1 0 0 % 5 l a a / * a V : { , { , { + + [ < 2 m 2 $ } 0 0 0 $ $ [ 1.].].].].].].].].].].].].].].].].].].].].].].].].].].].].].].].].].].].].].].].]...+ : [ + > + > + + < h 1 a q q e = = ; $ @   B + +   {   ,   o   [ + + { ,   v l ].].].].].].].].].].].].].].].].].].].].].].].].].].].].].].].].].].].].].].].].].p 0 $ $ + @ @ < + + # @ @ @ . @ 2 # @ 2 @ [ + +   +   {   { { { { > { { { + { , { { { , { 6 , + _.].].].].].].].].].].].].].].].].].].].].].].].].].].].].].].].].].].].].].].].].].].].].].].].].].].].].].].].].].].].].].].].].].].].].].].].].].].].].].].].].].].].].].].].G + # @ @ @ . @ 2 # @ 2 @ [ + +   +   {   { { { { > { { { + { , { { { , { 6 , + : [ + > + > + + < h 1 a q q e = = ",
". + + { { , . @ $ 1 % y & e = = 0 # @ < +   { + , { { , +   + ,   [ > + , + + { ,   v @ { < [ @ % @ @ $ a 4 % = - 4 4 a e e z : ' + + @ 2 + 2 2 @ 2 $ 2 # $ 1 $ $ $ 9 . 6.].].].].].].].].].].].].].].].].].].].].].].].].].].].].].].].].].].].].].].].].j.[ : . + + { { , . @ $ 1 % y & e = = 0 # @ < +   { + , { { , +   + ,   [ > + , J ].].].].].].].].].].].].].].].].].].].].].].].].].].].].].].].].].].].].].].].].].,.$ $ 9 . + @ + + + @ @ 1 $ @ 2 $ @ 2 2 @ + [ , v , { { o , { { , { { { + + [ + , , { ,   + v [ _.].].].].].].].].].].].].].].].].].].].].].].].].].].].].].].].].].].].].].].].].].].].].].].].].].].].].].].].].].].].].].].].].].].].].].].].].].].].].].].].].].].].].].].].G + @ @ 1 $ @ 2 $ @ 2 2 @ + [ , v , { { o , { { , { { { + + [ + , , { ,   + v [ : . + + { { , . @ $ 1 % y & e = = ",
"@ [   [ > + C [ 9 $ = 4 e e a = 0 $ 2 < + + + { ,   v > { + ,   + + , + , + , , { { { , @ + [ @ 2 # 2 $ # = a = = % = = 4 I ( : + [ m - $ ; - } $ 1 $ 2 $ @ 9 2 # @ @ + & ].].].].].].].].].].].].].].].].].].].].].].].].].].].].].].].].].].].].].].].].( , : @ [   [ > + C [ 9 $ = 4 e e a = 0 $ 2 < + + + { ,   v > { + ,   + + , + , + Z.].].].].].].].].].].].].].].].].].].].].].].].].].].].].].].].].].].].].].].].O.# # @ @ + + + < . C @ 1 $ 1 $ $ # @ @ [   +   { + ' { ' { {   { ' + {   + [ + + { + { + [ [ + , _.].].].].].].].].].].].].].].].].].].].].].].].].].].].].].].].].].].].].].].].].].].].].].].].].].].].].].].].].].].].].].].].].].].].].].].].].].].].].].].].].].].].].].].].g.C @ 1 $ 1 $ $ # @ @ [   +   { + ' { ' { {   { ' + {   + [ + + { + { + [ [ + , : @ [   [ > + C [ 9 $ = 4 e e a = ",
"[ + + + + + . @ # 1 ; = F O z a = 1 C . + { { ' { 6 { { , { + , , + + { , { > { , {   {   + + @ @ @ @ @ $ $ ; l = 0 % = g a V : . 1 = - 0 5 5 - ; $ @ $ @ < @ @ < + + < k ].].].].].].].].].].].].].].].].].].].].].].].].].].].].].].].].].].].].].].].].$   : [ + + + + + . @ # 1 ; = F O z a = 1 C . + { { ' { 6 { { , { + , , + + { , {  .].].].].].].].].].].].].].].].].].].].].].].].].].].].].].].].].].].].].].].].z.@ < + + <   + + B . 2 0 * % $ # @ . > +   { , ! ' ! , ! ' { + { { {   + . 2 .     , , [ +   +   _.].].].].].].].].].].].].].].].].].].].].].].].].].].].].].].].].].].].].].].].].].].].].].].].].].].].].].].].].].].].].].].].].].].].].].].].].].].].].].].].].].].].].].].].V.. 2 0 * % $ # @ . > +   { , ! ' ! , ! ' { + { { {   + . 2 .     , , [ +   +   : [ + + + + + . @ # 1 ; = F O z a ",
": : : : : : : : : : : : : : : : : : : : : : : : : : : : : : : : : : : : : : : : : : : : : : : : : : : : : : : : : : : : : : : : : : : : : : : : : : : : : : : : : : : : %.F.].].].].].].].].].].].].].].].].].].].].].].].].].].].].].].].].].].].].].].b+: : : : : : : : : : : : : : : : : : : : : : : : : : : : : : : : : : : : : : : : : u.].].].].].].].].].].].].].].].].].].].].].].].].].].].].].].].].].].].].].].]./.: : : : : : : : : : : : : : : : : : : : : : : : : : : : : : : : : : : : : : : : : : : : : : : : _.].].].].].].].].].].].].].].].].].].].].].].].].].].].].].].].].].].].].].].].].].].].].].].].].].].].].].].].].].].].].].].].].].].].].].].].].].].].].].].].].].].].].].].].d.: : : : : : : : : : : : : : : : : : : : : : : : : : : : : : : : : : : : : : : : : : : : : : : : : : : : : : : : ",
"  . + @ # $ % & * * = - ; @ . >   > , ' > ' ) ' ' ' ) ! ) ' ) ' ) ! ) ! ~ ' ' ' ) ! ) ' ' ' +     { ] ' ' { > >   @ # ^ / ( _ : < [ < @ [ } | } - 1 ; $ $ 1 # @ $ 1 - $ $ H.].].].].].].].].].].].].].].].].].].].].].].].].].].].].].].].].].].].].].].E + . :   . + @ # $ % & * * = - ; @ . >   > , ' > ' ) ' ' ' ) ! ) ' ) ' ) ! ) ! ~ ' C ].].].].].].].].].].].].].].].].].].].].].].].].].].].].].].].].].].].].].].].f @ $ 1 - $ $ 2 . [ + + { ' ' ! { ! { { + [ [ . 1 + + + . + . $ 1 $ 2 2 @ @ [ + . [ . 3 . + + + . _.].].].].].].].].].].].].].].].].].].].].].].].].].].].].].].].].].].].].].].].].].].].].].].].].].].].].].].].].].].].].].].].].].].].].].].].].].].].].].].].].].].].].].].].-.+ + { ' ' ! { ! { { + [ [ . 1 + + + . + . $ 1 $ 2 2 @ @ [ + . [ . 3 . + + + . :   . + @ # $ % & * * = - ; @ . > ",
"< @ . @ . ; * 4 5 - ; 2 @ @ + +   + { > , ' ! 6 ' ' ! 6 6 ' 6 7 ! ! 8 { ' { ! 6 ' ' + ' { [ + 2 [ { { { ' , 6   > + 9 $ 0 a b : @ 2 . @ # @ - c - - 5 d 1 0 1 $ $ 0 @ 2 . L.].].].].].].].].].].].].].].].].].].].].].].].].].].].].].].].].].].].].].].V [ [ : < @ . @ . ; * 4 5 - ; 2 @ @ + +   + { > , ' ! 6 ' ' ! 6 6 ' 6 7 ! ! 8 { ' { 6 ^+].].].].].].].].].].].].].].].].].].].].].].].].].].].].].].].].].].].].]..+k $ $ 0 @ 2 . @ 3 + [ + { { 6 { ' , + 2 @   + + [ @ [ @ @ @ @ $ 5 0 $ 0 2 2 @ $ $ @ @ . 2 [ + [ [ _.].].].].].].].].].].].].].].].].].].].].].].].].].].].].].].].].].].].].].].].].].].].].].].].].].].].].].].].].].].].].].].].].].].].].].].].].].].].].].].].].].].].].].].].G [ + { { 6 { ' , + 2 @   + + [ @ [ @ @ @ @ $ 5 0 $ 0 2 2 @ $ $ @ @ . 2 [ + [ [ : < @ . @ . ; * 4 5 - ; 2 @ @ + + ",
"@ [ @ # $ $ ; 1 $ ; $ @ . @ <     > , { ' { 6 6 ! { 6 ! ! ! ! ' ' 6 { { ' + ' { 6 { { > , + [ 2 + ,   { { > { + + < $ $ ^ e b : $ # @ . @ 2 @ 1 f g - 5 = * 0 } # 1 2 h 3 g ].].].].].].].].].].].].].].].].].].].].].].].].].].].].].].].].].].].].].].r < + : @ [ @ # $ $ ; 1 $ ; $ @ . @ <     > , { ' { 6 6 ! { 6 ! ! ! ! ' ' 6 { { ' + ' g.].].].].].].].].].].].].].].].].].].].].].].].].].].].].].].].].].].].].].d.0 } # 1 2 h 3 . @ . + + + + { { { { , { + 3   + + . + + + . [ $ # 0 | $ $ $ @ @ @ @ @ 2 @ + [ < + _.].].].].].].].].].].].].].].].].].].].].].].].].].].].].].].].].].].].].].].].].].].].].].].].].].].].].].].].].].].].].].].].].].].].].].].].].].].].].].].].].].].].].].].].g.+ + + + { { { { , { + 3   + + . + + + . [ $ # 0 | $ $ $ @ @ @ @ @ 2 @ + [ < + : @ [ @ # $ $ ; 1 $ ; $ @ . @ <   ",
"9 h ; $ $ # 2 @ @ @ . . @ . @ [ >   {   { ' ' ' ' ' ! ' ' i ' 6 ' ' , 6 { ' ' ' '   ' '   [ . + , ' > , '   + + . @ ; ; a j b : @ $ # @ 2 $ $ 1 $ $ k 4 c l - 0 0 m 9 . [ 9 k+].].].].].].].].].].].].].].].].].].].].].].].].].].].].].].].].].].].].Q.9 3 . : 9 h ; $ $ # 2 @ @ @ . . @ . @ [ >   {   { ' ' ' ' ' ! ' ' i ' 6 ' ' , 6 { ' ' ( ].].].].].].].].].].].].].].].].].].].].].].].].].].].].].].].].].].].].].x - 0 0 m 9 . [ . + 3 . @ [ {   { 6 ' { , { , + { [ @ < @ 9 + . $ 1 0 - n } 1 # # @ # 1 @ @ . @ 3 . _.].].].].].].].].].].].].].].].].].].].].].].].].].].].].].].].].].].].].].].].].].].].].].].].].].].].].].].].].].].].].].].].].].].].].].].].].].].].].].].].].].].].].].].].E . @ [ {   { 6 ' { , { , + { [ @ < @ 9 + . $ 1 0 - n } 1 # # @ # 1 @ @ . @ 3 . : 9 h ; $ $ # 2 @ @ @ . . @ . @ [ ",
"$ 1 - = 1 2 @ . [ 2 . $ . 9 2 $   +   6 ' ' 6 ' ' 6 , 8 6 ' o ' 6 {   ' , { , { , ' , ' ,   @     , , '   {   [ @ ; 5 / j & a : @ 2 @ 2 @ # m 1 1 $ 0 n g = - 0 ; $ @ @ < + C.].].].].].].].].].].].].].].].].].].].].].].].].].].].].].].].].].].].].0.$ # @ : $ 1 - = 1 2 @ . [ 2 . $ . 9 2 $   +   6 ' ' 6 ' ' 6 , 8 6 ' o ' 6 {   ' , { , 1 ].].].].].].].].].].].].].].].].].].].].].].].].].].].].].].].].].].].].].K - 0 ; $ @ @ < + + . 2 @ [ + > { { { { ' { { { + [ @ 2 # @ $ $ $ 5 ; } 5 $ 1 0 3 @ m $ # $ @ $ # @ _.].].].].].].].].].].].].].].].].].].].].].].].].].].].].].].].].].].].].].].].].].].].].].].].].].].].].].].].].].].].].].].].].].].].].].].].].].].].].].].].].].].].].].].].g.2 @ [ + > { { { { ' { { { + [ @ 2 # @ $ $ $ 5 ; } 5 $ 1 0 3 @ m $ # $ @ $ # @ : $ 1 - = 1 2 @ . [ 2 . $ . 9 2 $ ",
"# 0 * a # @ + + + < < @ @ ; = @ [ +   { {   { o 6 , { 6 ! { , ' { { ' { ' , , ' o {   { + , [ + , { '   , + + @ # ^ ( p e / a : 2 2 # 2 $ 2 @ $ 1 - $ 1 - c 4 0 1 $ @ + . + T ].].].].].].].].].].].].].].].].].].].].].].].].].].].].].].].].].].].].X.* 0 @ : # 0 * a # @ + + + < < @ @ ; = @ [ +   { {   { o 6 , { 6 ! { , ' { { ' { ' , , ] 7+].].].].].].].].].].].].].].].].].].].].].].].].].].].].].].].].].].].].S 4 0 1 $ @ + . + + + # 1 [ + , [ { ' , { { ' ,   2 $ 0 } 0 / = ^ 5 0 ; 1 1 $ 1 # 2 # } 1 $ - * 0 @ _.].].].].].].].].].].].].].].].].].].].].].].].].].].].].].].].].].].].].].].].].].].].].].].].].].].].].].].].].].].].].].].].].].].].].].].].].].].].].].].].].].].].].].].].G # 1 [ + , [ { ' , { { ' ,   2 $ 0 } 0 / = ^ 5 0 ; 1 1 $ 1 # 2 # } 1 $ - * 0 @ : # 0 * a # @ + + + < < @ @ ; = @ ",
"; 0 4 1 @ [     >     < # ; a # . {   ! ' 6 ' ' ' ' ' ' , ' ' 6 ' 6 , '   ' , ,   ' ,   {       ' { > {   . @ # 0 ( q / = ^ % : 1 $ 1 1 # $ $ 1 $ - 0 ; 0 4 c - $ 1 @ @ @ @ [ . m $ @ + > {   , ! { 6 { + [ } * / * e q q e a 0 r $ $ $ 2 $ 2 $ 0 % - 0 q ; @ : ; 0 4 1 @ [     >     < # ; a # . {   ! ' 6 ' ' ' ' ' ' , ' ' 6 ' 6 , '   ' , ,   ' ,   {       ' { > {   . @ # 0 ( q / = ^ % : 1 $ 1 1 # $ $ 1 $ - 0 ; 0 4 c - $ 1 @ @ @ @ [ . m $ @ + > {   , ! { 6 { + [ } * / * e q q e a 0 r $ $ $ 2 $ 2 $ 0 % - 0 q ; @ : ; 0 4 1 @ [     >     < # ; a # . {   ! ' 6 ' ' ' ' ' ' , ' ' 6 ' 6 , '   ' , ,   ' ,   {       ' { > {   . @ # 0 ( q / = ^ % : 1 $ 1 1 # $ $ 1 $ - 0 ; 0 4 c - $ 1 @ @ @ @ [ . m $ @ + > {   , ! { 6 { + [ } * / * e q q e a 0 r $ $ $ 2 $ 2 $ 0 % - 0 q ; @ : ; 0 4 1 @ [     >     < # ; a # ",
"0 d 0 # @ < +   + . [ 9 $ 4 * $ 9 [   + ,   { ' 6 ' { , ' , '   , '   { , ' ,   > , >   .     +       [ @ @ # 0 a s / 5 ^ - / : 1 1 $ $ } 1 $ 2 2 $ $ - 0 0 4 - 1 $ # 9 @ @ + . @ 1 [ + + + { { ' { , ' + @ - j t _ _ b u t / - 0 1 $ $ 1 1 1 1 0 s 0 = - $ @ : 0 d 0 # @ < +   + . [ 9 $ 4 * $ 9 [   + ,   { ' 6 ' { , ' , '   , '   { , ' ,   > , >   .     +       [ @ @ # 0 a s / 5 ^ - / : 1 1 $ $ } 1 $ 2 2 $ $ - 0 0 4 - 1 $ # 9 @ @ + . @ 1 [ + + + { { ' { , ' + @ - j t _ _ b u t / - 0 1 $ $ 1 1 1 1 0 s 0 = - $ @ : 0 d 0 # @ < +   + . [ 9 $ 4 * $ 9 [   + ,   { ' 6 ' { , ' , '   , '   { , ' ,   > , >   .     +       [ @ @ # 0 a s / 5 ^ - / : 1 1 $ $ } 1 $ 2 2 $ $ - 0 0 4 - 1 $ # 9 @ @ + . @ 1 [ + + + { { ' { , ' + @ - j t _ _ b u t / - 0 1 $ $ 1 1 1 1 0 s 0 = - $ @ : 0 d 0 # @ < +   + . [ 9 $ 4 * $ ",
"= / 0 # . +   > +   + # $ a % $ . + >   ' { ' , ' ) , { {   { ,   { , 8 ' { ' '   { { +   > + .   +   . # $ = / * / 0 ; 0 - g : 9 2 1 2 k # m # @ # $ 1 4 4 4 = 0 # m $ @ @ . @ [ 2 @ [ + , , { + 6 + { v 2 5 j p w b x b y = 0 ; 5 # 2 2 @ 2 $ 1 4 - 0 $ ; @ : = / 0 # . +   > +   + # $ a % $ . + >   ' { ' , ' ) , { {   { ,   { , 8 ' { ' '   { { +   > + .   +   . # $ = / * / 0 ; 0 - g : 9 2 1 2 k # m # @ # $ 1 4 4 4 = 0 # m $ @ @ . @ [ 2 @ [ + , , { + 6 + { v 2 5 j p w b x b y = 0 ; 5 # 2 2 @ 2 $ 1 4 - 0 $ ; @ : = / 0 # . +   > +   + # $ a % $ . + >   ' { ' , ' ) , { {   { ,   { , 8 ' { ' '   { { +   > + .   +   . # $ = / * / 0 ; 0 - g : 9 2 1 2 k # m # @ # $ 1 4 4 4 = 0 # m $ @ @ . @ [ 2 @ [ + , , { + 6 + { v 2 5 j p w b x b y = 0 ; 5 # 2 2 @ 2 $ 1 4 - 0 $ ; @ : = / 0 # . +   > +   + # $ a % $ ",
"= z 0 @   < , + > + . @ ; l q ; @ + + { , ' > ' 6 { '   , { , > , 6 A ! + ' { B > { + { C [ < + [ @ + . 1 / e * e ^ 1 $ $ ; = : 2 1 1 2 $ 1 @ $ @ $ - k 5 * f g - $ # $ $ # @ @ + 2 $ [ + + @ + , { , +   + - j j p D E _ a ^ $ $ 0 @ $ < @ @ @ @ 2 0 1 4 0 @ : = z 0 @   < , + > + . @ ; l q ; @ + + { , ' > ' 6 { '   , { , > , 6 A ! + ' { B > { + { C [ < + [ @ + . 1 / e * e ^ 1 $ $ ; = : 2 1 1 2 $ 1 @ $ @ $ - k 5 * f g - $ # $ $ # @ @ + 2 $ [ + + @ + , { , +   + - j j p D E _ a ^ $ $ 0 @ $ < @ @ @ @ 2 0 1 4 0 @ : = z 0 @   < , + > + . @ ; l q ; @ + + { , ' > ' 6 { '   , { , > , 6 A ! + ' { B > { + { C [ < + [ @ + . 1 / e * e ^ 1 $ $ ; = : 2 1 1 2 $ 1 @ $ @ $ - k 5 * f g - $ # $ $ # @ @ + 2 $ [ + + @ + , { , +   + - j j p D E _ a ^ $ $ 0 @ $ < @ @ @ @ 2 0 1 4 0 @ : = z 0 @   < , + > + . @ ; l q ; ",
"= e 0 9 + <     + + < @ ; / * 0 @ +   { > { ' { { ' { { ' +   v   > ' ' {   ' + {     [ + @ 2 2 # @ @ 9 } 4 4 4 4 0 ; # ; $ 4 : # @ $ @ @ 1 m # @ 2 @ 1 4 F * = l 0 $ 1 # $ @ . + @ . C [ , , { { , +   [ < m 0 l j G u & = 0 $ $ @ 9 + @ + . @ + @ $ 1 = 1 1 : = e 0 9 + <     + + < @ ; / * 0 @ +   { > { ' { { ' { { ' +   v   > ' ' {   ' + {     [ + @ 2 2 # @ @ 9 } 4 4 4 4 0 ; # ; $ 4 : # @ $ @ @ 1 m # @ 2 @ 1 4 F * = l 0 $ 1 # $ @ . + @ . C [ , , { { , +   [ < m 0 l j G u & = 0 $ $ @ 9 + @ + . @ + @ $ 1 = 1 1 : = e 0 9 + <     + + < @ ; / * 0 @ +   { > { ' { { ' { { ' +   v   > ' ' {   ' + {     [ + @ 2 2 # @ @ 9 } 4 4 4 4 0 ; # ; $ 4 : # @ $ @ @ 1 m # @ 2 @ 1 4 F * = l 0 $ 1 # $ @ . + @ . C [ , , { { , +   [ < m 0 l j G u & = 0 $ $ @ 9 + @ + . @ + @ $ 1 = 1 1 : = e 0 9 + <     + + < @ ; / * 0 ",
"/ * 4 $ . + +   + + < @ 0 y 0 ; @ < <   , { + { >   ,   +     + , ' , { { ! { +   +   + . 2 0 = $ 2 2 @ 2 @ 1 ; # $ 2 2 @ $ 0 : 2 . 2 @ # 2 1 $ m # $ # - = * * - 0 $ $ 9 m $ # @ < 2 m . 3   {   { { { + + @ @ ; q H t e = 0 $ < @ < + . + @ + + . @ 1 2 $ $ : / * 4 $ . + +   + + < @ 0 y 0 ; @ < <   , { + { >   ,   +     + , ' , { { ! { +   +   + . 2 0 = $ 2 2 @ 2 @ 1 ; # $ 2 2 @ $ 0 : 2 . 2 @ # 2 1 $ m # $ # - = * * - 0 $ $ 9 m $ # @ < 2 m . 3   {   { { { + + @ @ ; q H t e = 0 $ < @ < + . + @ + + . @ 1 2 $ $ : / * 4 $ . + +   + + < @ 0 y 0 ; @ < <   , { + { >   ,   +     + , ' , { { ! { +   +   + . 2 0 = $ 2 2 @ 2 @ 1 ; # $ 2 2 @ $ 0 : 2 . 2 @ # 2 1 $ m # $ # - = * * - 0 $ $ 9 m $ # @ < 2 m . 3   {   { { { + + @ @ ; q H t e = 0 $ < @ < + . + @ + + . @ 1 2 $ $ : / * 4 $ . + +   + + < @ 0 y 0 ; ",
"l = 1 @ @ < + + +   + @ / 0 $ @ 2 < + + +   +   { , + { + , +   > { { { > + + > + . + + # @ 2 # 2 [   + . . 2 @ $ . @ 9 $ 9 ; : . [ + @ [ 2 1 $ 2 @ $ $ - y l * 4 0 0 $ ; $ # 2 h @ . @ . + + + , { , [   + + . 1 = l I a = ; @ @ . 3 @ @ [ . @ [ @ @ 2 [ # 1 : l = 1 @ @ < + + +   + @ / 0 $ @ 2 < + + +   +   { , + { + , +   > { { { > + + > + . + + # @ 2 # 2 [   + . . 2 @ $ . @ 9 $ 9 ; : . [ + @ [ 2 1 $ 2 @ $ $ - y l * 4 0 0 $ ; $ # 2 h @ . @ . + + + , { , [   + + . 1 = l I a = ; @ @ . 3 @ @ [ . @ [ @ @ 2 [ # 1 : l = 1 @ @ < + + +   + @ / 0 $ @ 2 < + + +   +   { , + { + , +   > { { { > + + > + . + + # @ 2 # 2 [   + . . 2 @ $ . @ 9 $ 9 ; : . [ + @ [ 2 1 $ 2 @ $ $ - y l * 4 0 0 $ ; $ # 2 h @ . @ . + + + , { , [   + + . 1 = l I a = ; @ @ . 3 @ @ [ . @ [ @ @ 2 [ # 1 : l = 1 @ @ < + + +   + @ / 0 $ @ ",
"0 0 9 @ . + < + > C + . $ # # @ . + . + + + , { { { ,   { {   { , {   { {   { +   $ . @ [ @ @ [ + . { [ + + @ < @ m @ 0 $ @ @ : + [ @ . @ 2 k 1 2 $ # 1 0 * a 4 4 0 0 $ ; } r ; @ @ @ + 3 + +   + { + [ + + + [ @ $ 0 0 4 5 2 $ > + @ @ @ @ @ < . + [ [ @ 2 m : 0 0 9 @ . + < + > C + . $ # # @ . + . + + + , { { { ,   { {   { , {   { {   { +   $ . @ [ @ @ [ + . { [ + + @ < @ m @ 0 $ @ @ : + [ @ . @ 2 k 1 2 $ # 1 0 * a 4 4 0 0 $ ; } r ; @ @ @ + 3 + +   + { + [ + + + [ @ $ 0 0 4 5 2 $ > + @ @ @ @ @ < . + [ [ @ 2 m : 0 0 9 @ . + < + > C + . $ # # @ . + . + + + , { { { ,   { {   { , {   { {   { +   $ . @ [ @ @ [ + . { [ + + @ < @ m @ 0 $ @ @ : + [ @ . @ 2 k 1 2 $ # 1 0 * a 4 4 0 0 $ ; } r ; @ @ @ + 3 + +   + { + [ + + + [ @ $ 0 0 4 5 2 $ > + @ @ @ @ @ < . + [ [ @ 2 m : 0 0 9 @ . + < + > C + . $ # # @ ",
"$ @ # + < @ + < @ # 9 @ @ < @ # 2 @ + [ +   3 , ,   { + + + . + + + +   > + @ C [ [ @ . @ . +   + . +   @ # @ # $ # $ ; # + + : . . @ + [ @ 9 $ 1 # $ 1 0 * * a * = 0 0 $ $ 1 0 1 # [ 2 . . [ [ + [ + +   + . . $ 2 # 0 $ ; $ $ + + + < 2 1 @ [ @ [ C [ [ . 2 : $ @ # + < @ + < @ # 9 @ @ < @ # 2 @ + [ +   3 , ,   { + + + . + + + +   > + @ C [ [ @ . @ . +   + . +   @ # @ # $ # $ ; # + + : . . @ + [ @ 9 $ 1 # $ 1 0 * * a * = 0 0 $ $ 1 0 1 # [ 2 . . [ [ + [ + +   + . . $ 2 # 0 $ ; $ $ + + + < 2 1 @ [ @ [ C [ [ . 2 : $ @ # + < @ + < @ # 9 @ @ < @ # 2 @ + [ +   3 , ,   { + + + . + + + +   > + @ C [ [ @ . @ . +   + . +   @ # @ # $ # $ ; # + + : . . @ + [ @ 9 $ 1 # $ 1 0 * * a * = 0 0 $ $ 1 0 1 # [ 2 . . [ [ + [ + +   + . . $ 2 # 0 $ ; $ $ + + + < 2 1 @ [ @ [ C [ [ . 2 : $ @ # + < @ + < @ # 9 @ @ < @ # ",
"@ ; @ 9 @ > . @ @ @ @ @ . # @ $ @ + + .   + +     3   +   + . @ . + . + + $ < 2 # < @   > + + @ < +   + + @ @ 0 0 0 $ 0 $ @   : @ + @ . @ . @ # J 1 1 $ 0 y q a * 4 = 0 ; 1 0 - ; $ m @ . @ . + + . + @ [ @ [ @ 2 @ m $ $ $ } ; @ # < [ $ 0 1 @ @ . @ . @ + . : @ ; @ 9 @ > . @ @ @ @ @ . # @ $ @ + + .   + +     3   +   + . @ . + . + + $ < 2 # < @   > + + @ < +   + + @ @ 0 0 0 $ 0 $ @   : @ + @ . @ . @ # J 1 1 $ 0 y q a * 4 = 0 ; 1 0 - ; $ m @ . @ . + + . + @ [ @ [ @ 2 @ m $ $ $ } ; @ # < [ $ 0 1 @ @ . @ . @ + . : @ ; @ 9 @ > . @ @ @ @ @ . # @ $ @ + + .   + +     3   +   + . @ . + . + + $ < 2 # < @   > + + @ < +   + + @ @ 0 0 0 $ 0 $ @   : @ + @ . @ . @ # J 1 1 $ 0 y q a * 4 = 0 ; 1 0 - ; $ m @ . @ . + + . + @ [ @ [ @ 2 @ m $ $ $ } ; @ # < [ $ 0 1 @ @ . @ . @ + . : @ ; @ 9 @ > . @ @ @ @ @ . # @ $ ",
"< # $ @ . $ 9 $ $ # @ 2 @ @ $ $ @ @ . @ @ [ + > v < [ + @ 9 @ # @ . < @ # 1 # @ < [ . [ [   + + + . + < + . - $ 1 0 1 @ @   > : + @ . [ @ 2 2 @ 2 2 $ 1 ; * j * * z a 0 ; ; $ } r ; 2 9 @ m @ [ [ + . [ + + [ . [ @ @ 1 ; $ $ @ @ @ @ @ @ 2 $ @ @ @ @ @ [ . 2 : < # $ @ . $ 9 $ $ # @ 2 @ @ $ $ @ @ . @ @ [ + > v < [ + @ 9 @ # @ . < @ # 1 # @ < [ . [ [   + + + . + < + . - $ 1 0 1 @ @   > : + @ . [ @ 2 2 @ 2 2 $ 1 ; * j * * z a 0 ; ; $ } r ; 2 9 @ m @ [ [ + . [ + + [ . [ @ @ 1 ; $ $ @ @ @ @ @ @ 2 $ @ @ @ @ @ [ . 2 : < # $ @ . $ 9 $ $ # @ 2 @ @ $ $ @ @ . @ @ [ + > v < [ + @ 9 @ # @ . < @ # 1 # @ < [ . [ [   + + + . + < + . - $ 1 0 1 @ @   > : + @ . [ @ 2 2 @ 2 2 $ 1 ; * j * * z a 0 ; ; $ } r ; 2 9 @ m @ [ [ + . [ + + [ . [ @ @ 1 ; $ $ @ @ @ @ @ @ 2 $ @ @ @ @ @ [ . 2 : < # $ @ . $ 9 $ $ # @ 2 @ @ $ $ ",
". $ ; ; $ 0 - 0 4 = @ 2 . @ 2 2 . + + [ + @ + , { + < @ # 1 0 $ $ $ $ $ # 2 @ 2 $ @ @ @ < +   < [ . + [ @ . $ 2 0 1 @ @   { { :   3 @ @ @ @ 2 @ 2 2 1 - 0 5 z a * K z a 0 0 ; 1 0 $ 9 m @ 2 @ . C [ C . @ . + [ < . 2 $ 1 $ $ # $ @ @ @ # $ 2 # 2 2 $ @ @ 2 @ : . $ ; ; $ 0 - 0 4 = @ 2 . @ 2 2 . + + [ + @ + , { + < @ # 1 0 $ $ $ $ $ # 2 @ 2 $ @ @ @ < +   < [ . + [ @ . $ 2 0 1 @ @   { { :   3 @ @ @ @ 2 @ 2 2 1 - 0 5 z a * K z a 0 0 ; 1 0 $ 9 m @ 2 @ . C [ C . @ . + [ < . 2 $ 1 $ $ # $ @ @ @ # $ 2 # 2 2 $ @ @ 2 @ : . $ ; ; $ 0 - 0 4 = @ 2 . @ 2 2 . + + [ + @ + , { + < @ # 1 0 $ $ $ $ $ # 2 @ 2 $ @ @ @ < +   < [ . + [ @ . $ 2 0 1 @ @   { { :   3 @ @ @ @ 2 @ 2 2 1 - 0 5 z a * K z a 0 0 ; 1 0 $ 9 m @ 2 @ . C [ C . @ . + [ < . 2 $ 1 $ $ # $ @ @ @ # $ 2 # 2 2 $ @ @ 2 @ : . $ ; ; $ 0 - 0 4 = @ 2 . @ 2 2 ",
"@ $ $ - = y = - 2 @ . [ + + + +   + +   + + + +   { . @ 1 a p & 0 1 0 0 } ; $ $ @ ; 9 @ @ @ @ . + + @ . [ @ # $ ; @ < + + { { : < [ . [ @ . 3 . . 2 $ - ; l * a * L j e = 0 0 ; $ m 2 @ # @ @ 2 @ . @ [ 3 [ [ + [ @ 2 - 5 m 2 @ @ 2 @ $ $ ; $ $ $ - 4 $ 2 2 9 : @ $ $ - = y = - 2 @ . [ + + + +   + +   + + + +   { . @ 1 a p & 0 1 0 0 } ; $ $ @ ; 9 @ @ @ @ . + + @ . [ @ # $ ; @ < + + { { : < [ . [ @ . 3 . . 2 $ - ; l * a * L j e = 0 0 ; $ m 2 @ # @ @ 2 @ . @ [ 3 [ [ + [ @ 2 - 5 m 2 @ @ 2 @ $ $ ; $ $ $ - 4 $ 2 2 9 : @ $ $ - = y = - 2 @ . [ + + + +   + +   + + + +   { . @ 1 a p & 0 1 0 0 } ; $ $ @ ; 9 @ @ @ @ . + + @ . [ @ # $ ; @ < + + { { : < [ . [ @ . 3 . . 2 $ - ; l * a * L j e = 0 0 ; $ m 2 @ # @ @ 2 @ . @ [ 3 [ [ + [ @ 2 - 5 m 2 @ @ 2 @ $ $ ; $ $ $ - 4 $ 2 2 9 : @ $ $ - = y = - 2 @ . [ + + + + ",
"$ a l 0 # # @ @ @ @ [ +   , + , { +   , + . 2 [   + @ # = 4 a 4 0 0 / a = 0 0 $ ^ 0 0 ; # . @ @ . $ + . @ < [ $ @ [ . + <   ' : + @ [ @ 2 [ + @ [ $ 0 1 1 - 0 4 a F j e 4 = 5 0 $ . @ @ @ @ @ . @ @ [   @ + @ . 3 . @ $ $ # 9 $ @ 9 2 2 $ * 0 $ 4 $ 1 M 3 2 @ : $ a l 0 # # @ @ @ @ [ +   , + , { +   , + . 2 [   + @ # = 4 a 4 0 0 / a = 0 0 $ ^ 0 0 ; # . @ @ . $ + . @ < [ $ @ [ . + <   ' : + @ [ @ 2 [ + @ [ $ 0 1 1 - 0 4 a F j e 4 = 5 0 $ . @ @ @ @ @ . @ @ [   @ + @ . 3 . @ $ $ # 9 $ @ 9 2 2 $ * 0 $ 4 $ 1 M 3 2 @ : $ a l 0 # # @ @ @ @ [ +   , + , { +   , + . 2 [   + @ # = 4 a 4 0 0 / a = 0 0 $ ^ 0 0 ; # . @ @ . $ + . @ < [ $ @ [ . + <   ' : + @ [ @ 2 [ + @ [ $ 0 1 1 - 0 4 a F j e 4 = 5 0 $ . @ @ @ @ @ . @ @ [   @ + @ . 3 . @ $ $ # 9 $ @ 9 2 2 $ * 0 $ 4 $ 1 M 3 2 @ : $ a l 0 # # @ @ @ @ [ +   , + , ",
"+ $ $ # @ @ + + + +   + { { { {   { + + 3 $ @ + + + @ = 5 0 $ 0 0 = = - - N = a l / a = } $ h 2 @ @ + + @ @ @ + + + + [ + , v : + [ < + 2 2 . [ + $ @ # @ $ $ 1 = F s j z a } 0 $ 9 @ @ @ @ @ @ @ [ @ + +   + [ + + . @ 1 m $ 2 $ $ 0 0 1 1 0 0 - # m @ . [ . : + $ $ # @ @ + + + +   + { { { {   { + + 3 $ @ + + + @ = 5 0 $ 0 0 = = - - N = a l / a = } $ h 2 @ @ + + @ @ @ + + + + [ + , v : + [ < + 2 2 . [ + $ @ # @ $ $ 1 = F s j z a } 0 $ 9 @ @ @ @ @ @ @ [ @ + +   + [ + + . @ 1 m $ 2 $ $ 0 0 1 1 0 0 - # m @ . [ . : + $ $ # @ @ + + + +   + { { { {   { + + 3 $ @ + + + @ = 5 0 $ 0 0 = = - - N = a l / a = } $ h 2 @ @ + + @ @ @ + + + + [ + , v : + [ < + 2 2 . [ + $ @ # @ $ $ 1 = F s j z a } 0 $ 9 @ @ @ @ @ @ @ [ @ + +   + [ + + . @ 1 m $ 2 $ $ 0 0 1 1 0 0 - # m @ . [ . : + $ $ # @ @ + + + +   + { { { { ",
"@ # 9 $ 9 m + < { + { { { { { '   { + . . $ - # @ [ @ @ @ @ ; ; N a l ^ r $ ; ^ * _ q * = 1 ; $ 9 @ @ 9 $ @ + . @ . . C @ + < : + + , @ 2 2 @ @ @ . [ 2 @ # $ $ ; - * s q * N ; $ $ @ $ $ $ # 1 $ @ @ [ + +   +   3 . @ [ @ # $ 1 0 0 0 $ $ $ 2 $ @ @ @ [ < @ : @ # 9 $ 9 m + < { + { { { { { '   { + . . $ - # @ [ @ @ @ @ ; ; N a l ^ r $ ; ^ * _ q * = 1 ; $ 9 @ @ 9 $ @ + . @ . . C @ + < : + + , @ 2 2 @ @ @ . [ 2 @ # $ $ ; - * s q * N ; $ $ @ $ $ $ # 1 $ @ @ [ + +   +   3 . @ [ @ # $ 1 0 0 0 $ $ $ 2 $ @ @ @ [ < @ : @ # 9 $ 9 m + < { + { { { { { '   { + . . $ - # @ [ @ @ @ @ ; ; N a l ^ r $ ; ^ * _ q * = 1 ; $ 9 @ @ 9 $ @ + . @ . . C @ + < : + + , @ 2 2 @ @ @ . [ 2 @ # $ $ ; - * s q * N ; $ $ @ $ $ $ # 1 $ @ @ [ + +   +   3 . @ [ @ # $ 1 0 0 0 $ $ $ 2 $ @ @ @ [ < @ : @ # 9 $ 9 m + < { + { { { { { ' ",
"@ # $ 0 $ @ [ , { { { ' ' 8 { { , + + 2 2 = 5 3 . ,   [ + . $ $ - * - $ # ; $ 0 0 = a ( a = = 0 $ ; h 2 @ @ # . @ 2 m # @ . . :   . [ [ [ [ 2 2 2 @ . @ @ @ 2 9 m - l O L z 4 0 $ $ 1 ; - 0 = - $ @ @ . + 3 { ,   + + < @ m 0 - = * = ; 0 $ $ @ $ $ # + @ [ @ : @ # $ 0 $ @ [ , { { { ' ' 8 { { , + + 2 2 = 5 3 . ,   [ + . $ $ - * - $ # ; $ 0 0 = a ( a = = 0 $ ; h 2 @ @ # . @ 2 m # @ . . :   . [ [ [ [ 2 2 2 @ . @ @ @ 2 9 m - l O L z 4 0 $ $ 1 ; - 0 = - $ @ @ . + 3 { ,   + + < @ m 0 - = * = ; 0 $ $ @ $ $ # + @ [ @ : @ # $ 0 $ @ [ , { { { ' ' 8 { { , + + 2 2 = 5 3 . ,   [ + . $ $ - * - $ # ; $ 0 0 = a ( a = = 0 $ ; h 2 @ @ # . @ 2 m # @ . . :   . [ [ [ [ 2 2 2 @ . @ @ @ 2 9 m - l O L z 4 0 $ $ 1 ; - 0 = - $ @ @ . + 3 { ,   + + < @ m 0 - = * = ; 0 $ $ @ $ $ # + @ [ @ : @ # $ 0 $ @ [ , { { { ' ' 8 { { ",
"$ # - * 1 # [ 9   +   { , { {   + + [ 2 @ @ . [ , { > > < @ < $ 0 e 0 0 $ $ $ ; = 4 e L z e * e = = 0 ; # ; 0 @ 1 0 % 0 1 $ $ : + 3   + + [ 2 2 2 @ 3 2 2 @ 2 @ 1 1 = I f y * % 0 - = 0 0 * t = - $ # + [ < [ + + + +   @ $ * e q z e 1 $ 0 ; $ 1 1 0 2 @ . [ : $ # - * 1 # [ 9   +   { , { {   + + [ 2 @ @ . [ , { > > < @ < $ 0 e 0 0 $ $ $ ; = 4 e L z e * e = = 0 ; # ; 0 @ 1 0 % 0 1 $ $ : + 3   + + [ 2 2 2 @ 3 2 2 @ 2 @ 1 1 = I f y * % 0 - = 0 0 * t = - $ # + [ < [ + + + +   @ $ * e q z e 1 $ 0 ; $ 1 1 0 2 @ . [ : $ # - * 1 # [ 9   +   { , { {   + + [ 2 @ @ . [ , { > > < @ < $ 0 e 0 0 $ $ $ ; = 4 e L z e * e = = 0 ; # ; 0 @ 1 0 % 0 1 $ $ : + 3   + + [ 2 2 2 @ 3 2 2 @ 2 @ 1 1 = I f y * % 0 - = 0 0 * t = - $ # + [ < [ + + + +   @ $ * e q z e 1 $ 0 ; $ 1 1 0 2 @ . [ : $ # - * 1 # [ 9   +   { , { {   ",
"[ $ 4 a $ @ [ { { { ' ,   , , , , , ,   , , > , { + { [   . @ $ / y ; r $ # ; 0 0 a a b & O b : * = l - 0 0 1 4 = F y z 5 # 1 : + [ + . + + [ @ . 2 . . 2 @ 2 . $ 1 - c * I F 4 - = - - a l s = F a @ < + + + [ [ [   @ . m 0 * = 4 0 } $ $ 0 - 0 $ 4 $ 2 @ @ : [ $ 4 a $ @ [ { { { ' ,   , , , , , ,   , , > , { + { [   . @ $ / y ; r $ # ; 0 0 a a b & O b : * = l - 0 0 1 4 = F y z 5 # 1 : + [ + . + + [ @ . 2 . . 2 @ 2 . $ 1 - c * I F 4 - = - - a l s = F a @ < + + + [ [ [   @ . m 0 * = 4 0 } $ $ 0 - 0 $ 4 $ 2 @ @ : [ $ 4 a $ @ [ { { { ' ,   , , , , , ,   , , > , { + { [   . @ $ / y ; r $ # ; 0 0 a a b & O b : * = l - 0 0 1 4 = F y z 5 # 1 : + [ + . + + [ @ . 2 . . 2 @ 2 . $ 1 - c * I F 4 - = - - a l s = F a @ < + + + [ [ [   @ . m 0 * = 4 0 } $ $ 0 - 0 $ 4 $ 2 @ @ : [ $ 4 a $ @ [ { { { ' ,   , , , ",
". $ * $ 2 + + { {   , + + [ +   +   {   { { , { ' { , > + + $ ; - 0 0 ; 0 % 5 % a 0 = * * ( j b z * a 4 4 4 - c - 1 # m [ @ . : . 3 @ { , + + [ [ @ 3 . @ 2 @ @ 2 $ } n * c 4 F F 4 = 5 0 4 / - 0 $ $ [ [ + + + [ + + @ 2 # $ 1 r $ 0 # 1 $ } 4 0 0 - 5 # @ . : . $ * $ 2 + + { {   , + + [ +   +   {   { { , { ' { , > + + $ ; - 0 0 ; 0 % 5 % a 0 = * * ( j b z * a 4 4 4 - c - 1 # m [ @ . : . 3 @ { , + + [ [ @ 3 . @ 2 @ @ 2 $ } n * c 4 F F 4 = 5 0 4 / - 0 $ $ [ [ + + + [ + + @ 2 # $ 1 r $ 0 # 1 $ } 4 0 0 - 5 # @ . : . $ * $ 2 + + { {   , + + [ +   +   {   { { , { ' { , > + + $ ; - 0 0 ; 0 % 5 % a 0 = * * ( j b z * a 4 4 4 - c - 1 # m [ @ . : . 3 @ { , + + [ [ @ 3 . @ 2 @ @ 2 $ } n * c 4 F F 4 = 5 0 4 / - 0 $ $ [ [ + + + [ + + @ 2 # $ 1 r $ 0 # 1 $ } 4 0 0 - 5 # @ . : . $ * $ 2 + + { {   , + + [ +   ",
"[ 2 2 @ + . {   { , + [ . m [ v [ v , 6 ' 6 ' { A   ' { < . # $ = 5 ; 0 e y = 0 % $ % $ 0 0 = % 1 ; $ 2 $ @ @ . @ + . [ + [ , : [ [ [ . + [ . + [ [ . 2 @ 2 @ . 2 # 1 } - n f 4 f g l 0 - 0 5 0 $ @ 2 @ . @ @ [ < [ @ . @ @ @ $ @ # } $ $ @ 0 $ $ 0 $ 0 $ [ + : [ 2 2 @ + . {   { , + [ . m [ v [ v , 6 ' 6 ' { A   ' { < . # $ = 5 ; 0 e y = 0 % $ % $ 0 0 = % 1 ; $ 2 $ @ @ . @ + . [ + [ , : [ [ [ . + [ . + [ [ . 2 @ 2 @ . 2 # 1 } - n f 4 f g l 0 - 0 5 0 $ @ 2 @ . @ @ [ < [ @ . @ @ @ $ @ # } $ $ @ 0 $ $ 0 $ 0 $ [ + : [ 2 2 @ + . {   { , + [ . m [ v [ v , 6 ' 6 ' { A   ' { < . # $ = 5 ; 0 e y = 0 % $ % $ 0 0 = % 1 ; $ 2 $ @ @ . @ + . [ + [ , : [ [ [ . + [ . + [ [ . 2 @ 2 @ . 2 # 1 } - n f 4 f g l 0 - 0 5 0 $ @ 2 @ . @ @ [ < [ @ . @ @ @ $ @ # } $ $ @ 0 $ $ 0 $ 0 $ [ + : [ 2 2 @ + . {   { , + [ . m [ v ",
"    + [ +   +   { { { , [ [ ,   ,   ' { ' ' ' ! 6 ' 6 { , @ 0 = a 0 a % $ $ ; 1 $ $ 2 # $ # 2 $ @ $ [ [     + , , , , ' , , ' : [ @ . 3 [ + @ 3 + @ 3 @ 2 @ 2 @ $ 2 $ 1 0 1 - - 4 g 4 0 0 $ $ ; $ # $ @ [ @ [ . . 2 2 2 m 1 # @ 9 @ 2 $ $ $ $ $ @ - $ 2 @ 9 + :     + [ +   +   { { { , [ [ ,   ,   ' { ' ' ' ! 6 ' 6 { , @ 0 = a 0 a % $ $ ; 1 $ $ 2 # $ # 2 $ @ $ [ [     + , , , , ' , , ' : [ @ . 3 [ + @ 3 + @ 3 @ 2 @ 2 @ $ 2 $ 1 0 1 - - 4 g 4 0 0 $ $ ; $ # $ @ [ @ [ . . 2 2 2 m 1 # @ 9 @ 2 $ $ $ $ $ @ - $ 2 @ 9 + :     + [ +   +   { { { , [ [ ,   ,   ' { ' ' ' ! 6 ' 6 { , @ 0 = a 0 a % $ $ ; 1 $ $ 2 # $ # 2 $ @ $ [ [     + , , , , ' , , ' : [ @ . 3 [ + @ 3 + @ 3 @ 2 @ 2 @ $ 2 $ 1 0 1 - - 4 g 4 0 0 $ $ ; $ # $ @ [ @ [ . . 2 2 2 m 1 # @ 9 @ 2 $ $ $ $ $ @ - $ 2 @ 9 + :     + [ +   +   { { { , [ [ ,   ",
"{ { @ { + , + [ , { 6 { { , + , , 6 ] { 6 6 6 6 { , { > + @ 0 y y - $ $ # @ @ 2 @ @ + + + + @ [   3 + + , { , { + ' 6 { , ! o : + [ @ . 2 3 @ 3 @ [ 2 . M 2 2 2 2 2 2 2 # m 1 1 1 - 5 - $ 0 0 0 - 1 $ 9 . @ @ 2 $ m 0 0 2 $ $ $ $ $ $ 1 $ # 1 # $ $ 1 # $ $ [ : { { @ { + , + [ , { 6 { { , + , , 6 ] { 6 6 6 6 { , { > + @ 0 y y - $ $ # @ @ 2 @ @ + + + + @ [   3 + + , { , { + ' 6 { , ! o : + [ @ . 2 3 @ 3 @ [ 2 . M 2 2 2 2 2 2 2 # m 1 1 1 - 5 - $ 0 0 0 - 1 $ 9 . @ @ 2 $ m 0 0 2 $ $ $ $ $ $ 1 $ # 1 # $ $ 1 # $ $ [ : { { @ { + , + [ , { 6 { { , + , , 6 ] { 6 6 6 6 { , { > + @ 0 y y - $ $ # @ @ 2 @ @ + + + + @ [   3 + + , { , { + ' 6 { , ! o : + [ @ . 2 3 @ 3 @ [ 2 . M 2 2 2 2 2 2 2 # m 1 1 1 - 5 - $ 0 0 0 - 1 $ 9 . @ @ 2 $ m 0 0 2 $ $ $ $ $ $ 1 $ # 1 # $ $ 1 # $ $ [ : { { @ { + , + [ , { 6 { { , + , ",
"+ +     , { o { , { { , , v , , { , { 6 { ' { + { { + + + # 0 * $ # # @ @ [ $ @ . [ + @   +   + ,   + , { , ! { 6 6 { ) { 6 ~ :   3 [ [ 2 # 2 @ [ . @ [ 3 @ k # 2 2 @ 2 $ @ $ m $ $ c 4 ; 1 $ 0 } 0 # # @ @ @ $ . 1 - 5 - 0 1 1 $ 2 $ $ $ # $ @ $ 9 $ @ P $ @ : + +     , { o { , { { , , v , , { , { 6 { ' { + { { + + + # 0 * $ # # @ @ [ $ @ . [ + @   +   + ,   + , { , ! { 6 6 { ) { 6 ~ :   3 [ [ 2 # 2 @ [ . @ [ 3 @ k # 2 2 @ 2 $ @ $ m $ $ c 4 ; 1 $ 0 } 0 # # @ @ @ $ . 1 - 5 - 0 1 1 $ 2 $ $ $ # $ @ $ 9 $ @ P $ @ : + +     , { o { , { { , , v , , { , { 6 { ' { + { { + + + # 0 * $ # # @ @ [ $ @ . [ + @   +   + ,   + , { , ! { 6 6 { ) { 6 ~ :   3 [ [ 2 # 2 @ [ . @ [ 3 @ k # 2 2 @ 2 $ @ $ m $ $ c 4 ; 1 $ 0 } 0 # # @ @ @ $ . 1 - 5 - 0 1 1 $ 2 $ $ $ # $ @ $ 9 $ @ P $ @ : + +     , { o { , { { , , v , , ",
"{ { { { { { ' ' ' 6 { { + + { , 6 , ' , ' , { ' {   {   @ @ 9 $ @ @ @ . . . @ . + +   , +   [   + , , { ' { ' 6 ' ' 6 ' 6 6 6 :   + + + @ @ 2 2 [ + @ + . [ @ 2 # @ @ . @ 2 @ . $ 2 - f c - 5 - 4 0 0 $ 1 @ $ 1 0 1 5 - 4 5 = 0 ; $ $ $ $ $ $ $ $ @ @ 2 @ $ 1 : { { { { { { ' ' ' 6 { { + + { , 6 , ' , ' , { ' {   {   @ @ 9 $ @ @ @ . . . @ . + +   , +   [   + , , { ' { ' 6 ' ' 6 ' 6 6 6 :   + + + @ @ 2 2 [ + @ + . [ @ 2 # @ @ . @ 2 @ . $ 2 - f c - 5 - 4 0 0 $ 1 @ $ 1 0 1 5 - 4 5 = 0 ; $ $ $ $ $ $ $ $ @ @ 2 @ $ 1 : { { { { { { ' ' ' 6 { { + + { , 6 , ' , ' , { ' {   {   @ @ 9 $ @ @ @ . . . @ . + +   , +   [   + , , { ' { ' 6 ' ' 6 ' 6 6 6 :   + + + @ @ 2 2 [ + @ + . [ @ 2 # @ @ . @ 2 @ . $ 2 - f c - 5 - 4 0 0 $ 1 @ $ 1 0 1 5 - 4 5 = 0 ; $ $ $ $ $ $ $ $ @ @ 2 @ $ 1 : { { { { { { ' ' ' 6 { { + + { , ",
"{ + , { ' { { 6 { ' { + +   v , { v , o , { { A { , + C + @ 2 @ < @ [ @ + [ + + + + {   { { v , + { { { { ! o ! ) o ! o 6 ! ! : , [ . + @ 2 2 @ @ @ @ . + [ 2 [ 2 2 @ @ . @ [ 2 @ # - 4 - = c = % l - 0 $ $ $ $ } $ } 0 F 4 4 = 0 ; $ $ 1 m # $ @ @ @ # m # 1 : { + , { ' { { 6 { ' { + +   v , { v , o , { { A { , + C + @ 2 @ < @ [ @ + [ + + + + {   { { v , + { { { { ! o ! ) o ! o 6 ! ! : , [ . + @ 2 2 @ @ @ @ . + [ 2 [ 2 2 @ @ . @ [ 2 @ # - 4 - = c = % l - 0 $ $ $ $ } $ } 0 F 4 4 = 0 ; $ $ 1 m # $ @ @ @ # m # 1 : { + , { ' { { 6 { ' { + +   v , { v , o , { { A { , + C + @ 2 @ < @ [ @ + [ + + + + {   { { v , + { { { { ! o ! ) o ! o 6 ! ! : , [ . + @ 2 2 @ @ @ @ . + [ 2 [ 2 2 @ @ . @ [ 2 @ # - 4 - = c = % l - 0 $ $ $ $ } $ } 0 F 4 4 = 0 ; $ $ 1 m # $ @ @ @ # m # 1 : { + , { ' { { 6 { ' { + +   v , ",
"! + { { { ,   ' 6 { ' ' [ @ [ ' , '     , , 6 6 ' + + @ 9 @ 2 @ @ + . + < +   +   ' + ' v 8 , < , ' , ' { { ' 6 6 ' ) 6 ) 6 ' : B [ . @ @ 1 $ @ 2 . 2 [ [ @ @ . 2 @ [ @ @ 2 @ @ @ 2 4 - f 4 4 4 5 * = 0 0 0 ; 1 ; $ $ 4 - c * l - 0 0 ; $ $ $ $ # 3 < @ $ $ $ : ! + { { { ,   ' 6 { ' ' [ @ [ ' , '     , , 6 6 ' + + @ 9 @ 2 @ @ + . + < +   +   ' + ' v 8 , < , ' , ' { { ' 6 6 ' ) 6 ) 6 ' : B [ . @ @ 1 $ @ 2 . 2 [ [ @ @ . 2 @ [ @ @ 2 @ @ @ 2 4 - f 4 4 4 5 * = 0 0 0 ; 1 ; $ $ 4 - c * l - 0 0 ; $ $ $ $ # 3 < @ $ $ $ : ! + { { { ,   ' 6 { ' ' [ @ [ ' , '     , , 6 6 ' + + @ 9 @ 2 @ @ + . + < +   +   ' + ' v 8 , < , ' , ' { { ' 6 6 ' ) 6 ) 6 ' : B [ . @ @ 1 $ @ 2 . 2 [ [ @ @ . 2 @ [ @ @ 2 @ @ @ 2 4 - f 4 4 4 5 * = 0 0 0 ; 1 ; $ $ 4 - c * l - 0 0 ; $ $ $ $ # 3 < @ $ $ $ : ! + { { { ,   ' 6 { ' ' [ @ [ ' ",
"  { { , ' ! o ' ! ' o   , [ + + , , v , { { , + >   B # $ $ h . + < + . + +     { , { { , { + [ y o { , 6 ' 6 Q o 6 R ) ! 6 6 :   + @ @ 2 $ 1 $ 2 @ 2 @ . @ [ @ 2 $ 2 2 . 2 . @ @ 2 } c 4 F g l = 4 - 4 = 4 y 0 ; $ ; $ c l f 4 = $ } 1 0 % 0 $ # @ @ 2 2 1 4 :   { { , ' ! o ' ! ' o   , [ + + , , v , { { , + >   B # $ $ h . + < + . + +     { , { { , { + [ y o { , 6 ' 6 Q o 6 R ) ! 6 6 :   + @ @ 2 $ 1 $ 2 @ 2 @ . @ [ @ 2 $ 2 2 . 2 . @ @ 2 } c 4 F g l = 4 - 4 = 4 y 0 ; $ ; $ c l f 4 = $ } 1 0 % 0 $ # @ @ 2 2 1 4 :   { { , ' ! o ' ! ' o   , [ + + , , v , { { , + >   B # $ $ h . + < + . + +     { , { { , { + [ y o { , 6 ' 6 Q o 6 R ) ! 6 6 :   + @ @ 2 $ 1 $ 2 @ 2 @ . @ [ @ 2 $ 2 2 . 2 . @ @ 2 } c 4 F g l = 4 - 4 = 4 y 0 ; $ ; $ c l f 4 = $ } 1 0 % 0 $ # @ @ 2 2 1 4 :   { { , ' ! o ' ! ' o   , [ + + ",
"' { + + v ' 6 { 6 ! , , v   [ [ v , + , o ' { { + + @ @ 0 ; = @ . 3 { . + [ v { , , + , ! 6 , 6 { ' 6 6 { , 6 6 6 ! 6 ! ! 6 ) : v +   2 [ 1 1 0 2 @ @ 2 @ @ 2 [ 2 2 $ 2 @ @ + M @ 2 # 1 - S f 4 n = l * 4 0 4 4 - 0 $ 0 1 - - * - - 0 - y 0 = = $ $ @ # 2 $ # : ' { + + v ' 6 { 6 ! , , v   [ [ v , + , o ' { { + + @ @ 0 ; = @ . 3 { . + [ v { , , + , ! 6 , 6 { ' 6 6 { , 6 6 6 ! 6 ! ! 6 ) : v +   2 [ 1 1 0 2 @ @ 2 @ @ 2 [ 2 2 $ 2 @ @ + M @ 2 # 1 - S f 4 n = l * 4 0 4 4 - 0 $ 0 1 - - * - - 0 - y 0 = = $ $ @ # 2 $ # : ' { + + v ' 6 { 6 ! , , v   [ [ v , + , o ' { { + + @ @ 0 ; = @ . 3 { . + [ v { , , + , ! 6 , 6 { ' 6 6 { , 6 6 6 ! 6 ! ! 6 ) : v +   2 [ 1 1 0 2 @ @ 2 @ @ 2 [ 2 2 $ 2 @ @ + M @ 2 # 1 - S f 4 n = l * 4 0 4 4 - 0 $ 0 1 - - * - - 0 - y 0 = = $ $ @ # 2 $ # : ' { + + v ' 6 { 6 ! , , v   [ [ ",
"{ , , ,   + { ' { ' { , + [   , . [ { , { , ,     < @ $ ; 0 0 $ @ + . @ + +     { { , ' ! ! ! ' { { 6 ! ! 6 { ! ! ) ! 6 ) 6 { : ,   3 [ @ @ 0 1 $ 1 $ # 9 2 3 2 @ 2 2 2 @ 2 @ 3 @ . @ @ 1 - 1 - - } 4 a 4 0 0 c = 0 1 1 } - g 5 - 0 1 0 4 e 4 4 0 $ 9 $ 2 9 m : { , , ,   + { ' { ' { , + [   , . [ { , { , ,     < @ $ ; 0 0 $ @ + . @ + +     { { , ' ! ! ! ' { { 6 ! ! 6 { ! ! ) ! 6 ) 6 { : ,   3 [ @ @ 0 1 $ 1 $ # 9 2 3 2 @ 2 2 2 @ 2 @ 3 @ . @ @ 1 - 1 - - } 4 a 4 0 0 c = 0 1 1 } - g 5 - 0 1 0 4 e 4 4 0 $ 9 $ 2 9 m : { , , ,   + { ' { ' { , + [   , . [ { , { , ,     < @ $ ; 0 0 $ @ + . @ + +     { { , ' ! ! ! ' { { 6 ! ! 6 { ! ! ) ! 6 ) 6 { : ,   3 [ @ @ 0 1 $ 1 $ # 9 2 3 2 @ 2 2 2 @ 2 @ 3 @ . @ @ 1 - 1 - - } 4 a 4 0 0 c = 0 1 1 } - g 5 - 0 1 0 4 e 4 4 0 $ 9 $ 2 9 m : { , , ,   + { ' { ' { , + [   , ",
"' { { , + , + , ' ! { B , > v v   , + +   + + + @ + 9 $ ; m 1 $ @ @ @ < + +   { {   > { { ' { { ' o ' ! ! { ! 7 ) ! ! ! ! 6 ! :   3 + . + 2 1 0 - 2 # 2 @ 1 2 @ 2 @ 2 # @ 2 2 2 . [ @ 2 2 m $ 1 $ } - - = = 0 % 4 = = ; - - k 1 1 $ } 0 - = * * = 0 $ $ 1 @ 9 : ' { { , + , + , ' ! { B , > v v   , + +   + + + @ + 9 $ ; m 1 $ @ @ @ < + +   { {   > { { ' { { ' o ' ! ! { ! 7 ) ! ! ! ! 6 ! :   3 + . + 2 1 0 - 2 # 2 @ 1 2 @ 2 @ 2 # @ 2 2 2 . [ @ 2 2 m $ 1 $ } - - = = 0 % 4 = = ; - - k 1 1 $ } 0 - = * * = 0 $ $ 1 @ 9 : ' { { , + , + , ' ! { B , > v v   , + +   + + + @ + 9 $ ; m 1 $ @ @ @ < + +   { {   > { { ' { { ' o ' ! ! { ! 7 ) ! ! ! ! 6 ! :   3 + . + 2 1 0 - 2 # 2 @ 1 2 @ 2 @ 2 # @ 2 2 2 . [ @ 2 2 m $ 1 $ } - - = = 0 % 4 = = ; - - k 1 1 $ } 0 - = * * = 0 $ $ 1 @ 9 : ' { { , + , + , ' ! { B , > v v ",
"{ { { { '   @ { { , ' , . { ' , { ' , + + +   + 9 @ # 0 4 = ; 2 9 9 @ $ < < { > > { { ' { { ' !   ! ! ' ! ' ) ) { ) { ) ) ' ) :   [ + [ [ @ @ c $ } 0 1 # 2 $ # 2 2 @ $ . @ 2 @ @ . + @ @ . 2 @ 2 | 1 0 1 0 0 0 l / - 0 k n k 1 $ 1 $ m ; 5 l a 4 0 $ ; $ ; $ : { { { { '   @ { { , ' , . { ' , { ' , + + +   + 9 @ # 0 4 = ; 2 9 9 @ $ < < { > > { { ' { { ' !   ! ! ' ! ' ) ) { ) { ) ) ' ) :   [ + [ [ @ @ c $ } 0 1 # 2 $ # 2 2 @ $ . @ 2 @ @ . + @ @ . 2 @ 2 | 1 0 1 0 0 0 l / - 0 k n k 1 $ 1 $ m ; 5 l a 4 0 $ ; $ ; $ : { { { { '   @ { { , ' , . { ' , { ' , + + +   + 9 @ # 0 4 = ; 2 9 9 @ $ < < { > > { { ' { { ' !   ! ! ' ! ' ) ) { ) { ) ) ' ) :   [ + [ [ @ @ c $ } 0 1 # 2 $ # 2 2 @ $ . @ 2 @ @ . + @ @ . 2 @ 2 | 1 0 1 0 0 0 l / - 0 k n k 1 $ 1 $ m ; 5 l a 4 0 $ ; $ ; $ : { { { { '   @ { { , ' , . { ' , ",
"] ' , + + v , v @ { { o { { { {   v + [ . [ + + < $ 0 * _ t ; h @ @ # @ . , > , + { >     + { 6 { > 6 ! ' 6 ! 6 ! ! 6 6 6 { { : , , + + . [ 2 1 0 0 - 1 } 1 2 2 2 $ $ 2 @ @ @ M @ [ @ [ . [ [ [ @ 2 1 1 1 1 1 = * y = 0 0 $ $ 2 2 @ @ 1 - - 0 4 = = = % 0 0 1 : ] ' , + + v , v @ { { o { { { {   v + [ . [ + + < $ 0 * _ t ; h @ @ # @ . , > , + { >     + { 6 { > 6 ! ' 6 ! 6 ! ! 6 6 6 { { : , , + + . [ 2 1 0 0 - 1 } 1 2 2 2 $ $ 2 @ @ @ M @ [ @ [ . [ [ [ @ 2 1 1 1 1 1 = * y = 0 0 $ $ 2 2 @ @ 1 - - 0 4 = = = % 0 0 1 : ] ' , + + v , v @ { { o { { { {   v + [ . [ + + < $ 0 * _ t ; h @ @ # @ . , > , + { >     + { 6 { > 6 ! ' 6 ! 6 ! ! 6 6 6 { { : , , + + . [ 2 1 0 0 - 1 } 1 2 2 2 $ $ 2 @ @ @ M @ [ @ [ . [ [ [ @ 2 1 1 1 1 1 = * y = 0 0 $ $ 2 2 @ @ 1 - - 0 4 = = = % 0 0 1 : ] ' , + + v , v @ { { o { { { { ",
", , ! 6   ' {   [ { { ' 6 { ' 6 v , , +   +   . [ 0 g q j & - $ . @ . +     { + + >   + + {   ' ' { ' ! ' ! ) ! 6 ) 6 { ' 6 ' : + [ [ . + [ @ $ 4 1 $ } ; - k $ 1 2 1 # 2 2 @ [ @ [ [ . + @ [ [ + + @ 1 } $ 0 4 y F a % $ $ # @ 2 9 2 $ 1 $ - 0 4 4 a y a = % : , , ! 6   ' {   [ { { ' 6 { ' 6 v , , +   +   . [ 0 g q j & - $ . @ . +     { + + >   + + {   ' ' { ' ! ' ! ) ! 6 ) 6 { ' 6 ' : + [ [ . + [ @ $ 4 1 $ } ; - k $ 1 2 1 # 2 2 @ [ @ [ [ . + @ [ [ + + @ 1 } $ 0 4 y F a % $ $ # @ 2 9 2 $ 1 $ - 0 4 4 a y a = % : , , ! 6   ' {   [ { { ' 6 { ' 6 v , , +   +   . [ 0 g q j & - $ . @ . +     { + + >   + + {   ' ' { ' ! ' ! ) ! 6 ) 6 { ' 6 ' : + [ [ . + [ @ $ 4 1 $ } ; - k $ 1 2 1 # 2 2 @ [ @ [ [ . + @ [ [ + + @ 1 } $ 0 4 y F a % $ $ # @ 2 9 2 $ 1 $ - 0 4 4 a y a = % : , , ! 6   ' {   [ { { ' 6 { ' 6 ",
"{ {   + , + , + , { ' 6 ' ' 6 ! ' { ,   , , { + . 0 * & z q 5 $ @ @ . < 2 h . .   + @   , + +   + {   { ' 6 { ' 6 ' ' 6 ' { { : , + [ [ @ [ @ 2 - - m # 1 1 - 1 - 1 - } 1 $ @ @ . [ [ [ 3 3 [ +   [ . @ 1 1 0 n e T a 5 ; h @ @ 2 @ @ @ @ $ $ % 5 & p L _ z a : { {   + , + , + , { ' 6 ' ' 6 ! ' { ,   , , { + . 0 * & z q 5 $ @ @ . < 2 h . .   + @   , + +   + {   { ' 6 { ' 6 ' ' 6 ' { { : , + [ [ @ [ @ 2 - - m # 1 1 - 1 - 1 - } 1 $ @ @ . [ [ [ 3 3 [ +   [ . @ 1 1 0 n e T a 5 ; h @ @ 2 @ @ @ @ $ $ % 5 & p L _ z a : { {   + , + , + , { ' 6 ' ' 6 ! ' { ,   , , { + . 0 * & z q 5 $ @ @ . < 2 h . .   + @   , + +   + {   { ' 6 { ' 6 ' ' 6 ' { { : , + [ [ @ [ @ 2 - - m # 1 1 - 1 - 1 - } 1 $ @ @ . [ [ [ 3 3 [ +   [ . @ 1 1 0 n e T a 5 ; h @ @ 2 @ @ @ @ $ $ % 5 & p L _ z a : { {   + , + , + , { ' 6 ' ' 6 ! ",
"' ' v + +   + + + , { { 6 ! ' { { ' { , > { + + < $ e * ( a 0 $ 9 9 . + < + + . 2 @ # @ @ . < < + [ + { > ' > ! ' 6 ! A {   > : , + . + [ 2 3 @ $ 2 @ 2 9 $ 1 1 - n 5 1 0 2 U . @   + + [ . + { + [ , @ [ 1 } = I & * l ; $ # 2 @ @ 9 @ # # 0 $ - a j _ b t j : ' ' v + +   + + + , { { 6 ! ' { { ' { , > { + + < $ e * ( a 0 $ 9 9 . + < + + . 2 @ # @ @ . < < + [ + { > ' > ! ' 6 ! A {   > : , + . + [ 2 3 @ $ 2 @ 2 9 $ 1 1 - n 5 1 0 2 U . @   + + [ . + { + [ , @ [ 1 } = I & * l ; $ # 2 @ @ 9 @ # # 0 $ - a j _ b t j : ' ' v + +   + + + , { { 6 ! ' { { ' { , > { + + < $ e * ( a 0 $ 9 9 . + < + + . 2 @ # @ @ . < < + [ + { > ' > ! ' 6 ! A {   > : , + . + [ 2 3 @ $ 2 @ 2 9 $ 1 1 - n 5 1 0 2 U . @   + + [ . + { + [ , @ [ 1 } = I & * l ; $ # 2 @ @ 9 @ # # 0 $ - a j _ b t j : ' ' v + +   + + + , { { 6 ! ' { ",
", 3 . # m $ [ {     6 { ' { ' o ' { , { , { , > [ 2 ; } - 0 - 0 2 m @ . + . $ $ 1 $ $ $ 0 $ 0 @ $ . @ . . + ,   { > > , , { + :   + [ + [ [ . @ [ # @ @ 2 $ m - - l | } 1 1 @ 2 + + + , + [   + { , B   [ @ 1 - l F a 4 0 $ $ 9 $ 2 @ $ @ @ @ $ 0 0 l q j L p : , 3 . # m $ [ {     6 { ' { ' o ' { , { , { , > [ 2 ; } - 0 - 0 2 m @ . + . $ $ 1 $ $ $ 0 $ 0 @ $ . @ . . + ,   { > > , , { + :   + [ + [ [ . @ [ # @ @ 2 $ m - - l | } 1 1 @ 2 + + + , + [   + { , B   [ @ 1 - l F a 4 0 $ $ 9 $ 2 @ $ @ @ @ $ 0 0 l q j L p : , 3 . # m $ [ {     6 { ' { ' o ' { , { , { , > [ 2 ; } - 0 - 0 2 m @ . + . $ $ 1 $ $ $ 0 $ 0 @ $ . @ . . + ,   { > > , , { + :   + [ + [ [ . @ [ # @ @ 2 $ m - - l | } 1 1 @ 2 + + + , + [   + { , B   [ @ 1 - l F a 4 0 $ $ 9 $ 2 @ $ @ @ @ $ 0 0 l q j L p : , 3 . # m $ [ {     6 { ' { ' o ",
"{ @ 2 $ 1 . +   @ , { ' 6 ! ! ) { 6 { , ' { { ,   @ @ # $ 0 0 0 @ @ . @ @ @ 1 $ ; 0 - 4 % 0 - ; $ # @ 9 @ 3 . > , {   { {   + :   , @ [ 3 . . [ [ @ 3 . @ 2 m ; 5 - } ; | - m 2 . + , +   , , + [ +   + [ . @ 1 - l z a 0 0 $ 2 $ # # m # $ $ # $ 0 0 - 4 z j : { @ 2 $ 1 . +   @ , { ' 6 ! ! ) { 6 { , ' { { ,   @ @ # $ 0 0 0 @ @ . @ @ @ 1 $ ; 0 - 4 % 0 - ; $ # @ 9 @ 3 . > , {   { {   + :   , @ [ 3 . . [ [ @ 3 . @ 2 m ; 5 - } ; | - m 2 . + , +   , , + [ +   + [ . @ 1 - l z a 0 0 $ 2 $ # # m # $ $ # $ 0 0 - 4 z j : { @ 2 $ 1 . +   @ , { ' 6 ! ! ) { 6 { , ' { { ,   @ @ # $ 0 0 0 @ @ . @ @ @ 1 $ ; 0 - 4 % 0 - ; $ # @ 9 @ 3 . > , {   { {   + :   , @ [ 3 . . [ [ @ 3 . @ 2 m ; 5 - } ; | - m 2 . + , +   , , + [ +   + [ . @ 1 - l z a 0 0 $ 2 $ # # m # $ $ # $ 0 0 - 4 z j : { @ 2 $ 1 . +   @ , { ' 6 ! ! ) ",
"2 2 } 2 [ @ 2 [ + + ' { { 6 ' ! { { , { v   { + + + . @ $ - $ 2 $ # @ 2 # 2 # 0 - 4 a = = = 0 0 $ 0 = 0 0 0 $ @ + , + + + @ @ : + [ [   [ [ + 3 + . @ $ @ 2 # 5 ; 1 1 $ 2 $ 1 2 @ . , > [ v + [   , + + + 2 @ . - 4 F y = 0 $ $ 1 $ $ $ $ $ 2 $ $ $ ; $ r 5 % : 2 2 } 2 [ @ 2 [ + + ' { { 6 ' ! { { , { v   { + + + . @ $ - $ 2 $ # @ 2 # 2 # 0 - 4 a = = = 0 0 $ 0 = 0 0 0 $ @ + , + + + @ @ : + [ [   [ [ + 3 + . @ $ @ 2 # 5 ; 1 1 $ 2 $ 1 2 @ . , > [ v + [   , + + + 2 @ . - 4 F y = 0 $ $ 1 $ $ $ $ $ 2 $ $ $ ; $ r 5 % : 2 2 } 2 [ @ 2 [ + + ' { { 6 ' ! { { , { v   { + + + . @ $ - $ 2 $ # @ 2 # 2 # 0 - 4 a = = = 0 0 $ 0 = 0 0 0 $ @ + , + + + @ @ : + [ [   [ [ + 3 + . @ $ @ 2 # 5 ; 1 1 $ 2 $ 1 2 @ . , > [ v + [   , + + + 2 @ . - 4 F y = 0 $ $ 1 $ $ $ $ $ 2 $ $ $ ; $ r 5 % : 2 2 } 2 [ @ 2 [ + + ' { { 6 ' ! ",
"[ 2 [ + [ + @ [ v { { 6 ! ! 6 { ' , , , + , { , { + @ + 2 $ @ $ 2 } 1 1 $ m c c g * * * * y 4 = - - 4 * 4 4 - @ @ +   [ @ 2 # : , @ . + [ 3 . @ + . [ 2 @ 2 $ # 1 m $ @ 1 2 k @ 2 2 [ + + + { { + , + , [ < @ @ $ 5 * z a % 0 0 0 - 0 0 0 $ # $ # $ 2 # @ 2 $ : [ 2 [ + [ + @ [ v { { 6 ! ! 6 { ' , , , + , { , { + @ + 2 $ @ $ 2 } 1 1 $ m c c g * * * * y 4 = - - 4 * 4 4 - @ @ +   [ @ 2 # : , @ . + [ 3 . @ + . [ 2 @ 2 $ # 1 m $ @ 1 2 k @ 2 2 [ + + + { { + , + , [ < @ @ $ 5 * z a % 0 0 0 - 0 0 0 $ # $ # $ 2 # @ 2 $ : [ 2 [ + [ + @ [ v { { 6 ! ! 6 { ' , , , + , { , { + @ + 2 $ @ $ 2 } 1 1 $ m c c g * * * * y 4 = - - 4 * 4 4 - @ @ +   [ @ 2 # : , @ . + [ 3 . @ + . [ 2 @ 2 $ # 1 m $ @ 1 2 k @ 2 2 [ + + + { { + , + , [ < @ @ $ 5 * z a % 0 0 0 - 0 0 0 $ # $ # $ 2 # @ 2 $ : [ 2 [ + [ + @ [ v { { 6 ! ! 6 { ",
"+ + , + + v   , { { 6 { ' ! A 6 { { { { , v { + + + + < @ @ m 1 1 - 4 k - 1 - g c s e z e e e - = = = q = - 0 $ @ @ @ 2 ; } $ : < [ @ . . @ [ + [ + + . + @ [ 2 @ @ 2 $ @ 0 2 1 # @ 3 @   + {   { +   .   [ [ @ 2 ; - * s y 4 = l % = = - } ; m $ # @ @ @ [ @ : + + , + + v   , { { 6 { ' ! A 6 { { { { , v { + + + + < @ @ m 1 1 - 4 k - 1 - g c s e z e e e - = = = q = - 0 $ @ @ @ 2 ; } $ : < [ @ . . @ [ + [ + + . + @ [ 2 @ @ 2 $ @ 0 2 1 # @ 3 @   + {   { +   .   [ [ @ 2 ; - * s y 4 = l % = = - } ; m $ # @ @ @ [ @ : + + , + + v   , { { 6 { ' ! A 6 { { { { , v { + + + + < @ @ m 1 1 - 4 k - 1 - g c s e z e e e - = = = q = - 0 $ @ @ @ 2 ; } $ : < [ @ . . @ [ + [ + + . + @ [ 2 @ @ 2 $ @ 0 2 1 # @ 3 @   + {   { +   .   [ [ @ 2 ; - * s y 4 = l % = = - } ; m $ # @ @ @ [ @ : + + , + + v   , { { 6 { ' ! A 6 ",
"+ ' + { , , + +   , { { 6 ! { 6 ' { ,   +     +   @ + [ . @ . 0 k n N N - 2 $ } % * F * e s z l e e F a c 0 1 ; 1 1 0 1 - 4 4 : @ @ 2 @ @ [ @ [   [ + [ . . 3 < . . @ $ 1 1 1 0 1 k | 2 [ v + , +   . + 3 + . @ @ 1 $ 4 s z e * j e F 4 0 ; $ $ $ 2 @ @ . @ + : + ' + { , , + +   , { { 6 ! { 6 ' { ,   +     +   @ + [ . @ . 0 k n N N - 2 $ } % * F * e s z l e e F a c 0 1 ; 1 1 0 1 - 4 4 : @ @ 2 @ @ [ @ [   [ + [ . . 3 < . . @ $ 1 1 1 0 1 k | 2 [ v + , +   . + 3 + . @ @ 1 $ 4 s z e * j e F 4 0 ; $ $ $ 2 @ @ . @ + : + ' + { , , + +   , { { 6 ! { 6 ' { ,   +     +   @ + [ . @ . 0 k n N N - 2 $ } % * F * e s z l e e F a c 0 1 ; 1 1 0 1 - 4 4 : @ @ 2 @ @ [ @ [   [ + [ . . 3 < . . @ $ 1 1 1 0 1 k | 2 [ v + , +   . + 3 + . @ @ 1 $ 4 s z e * j e F 4 0 ; $ $ $ 2 @ @ . @ + : + ' + { , , + +   , { { 6 ! { 6 ",
"{ { , ' , > , , , ' 6 ! ' ! ' ! { '   v +   , + [ . [ < . 2 . 2 - 1 1 1 ; 1 2 # 1 0 / y e z / a * / * * f % - - - S c 4 - } - : 2 # # $ [ @ . @ 3 < @ . + @ @ [ @ @ @ @ ; - 5 - - - - $ @ < { + + + + [ [ . 3 [ . m $ = * t z q q * y ^ } $ $ # 2 @ @ [ + . + : { { , ' , > , , , ' 6 ! ' ! ' ! { '   v +   , + [ . [ < . 2 . 2 - 1 1 1 ; 1 2 # 1 0 / y e z / a * / * * f % - - - S c 4 - } - : 2 # # $ [ @ . @ 3 < @ . + @ @ [ @ @ @ @ ; - 5 - - - - $ @ < { + + + + [ [ . 3 [ . m $ = * t z q q * y ^ } $ $ # 2 @ @ [ + . + : { { , ' , > , , , ' 6 ! ' ! ' ! { '   v +   , + [ . [ < . 2 . 2 - 1 1 1 ; 1 2 # 1 0 / y e z / a * / * * f % - - - S c 4 - } - : 2 # # $ [ @ . @ 3 < @ . + @ @ [ @ @ @ @ ; - 5 - - - - $ @ < { + + + + [ [ . 3 [ . m $ = * t z q q * y ^ } $ $ # 2 @ @ [ + . + : { { , ' , > , , , ' 6 ! ' ! ' ! ",
"{ , { { ' , + @ + , { ' ! { ' ' { { , +   v + [ + . . 2 @ 2 1 2 J 2 2 $ 2 1 # 2 0 = * z s y a - = = - 4 4 - g 5 0 - % 5 = - - : ; $ $ # $ @ @ . @ . @ @ [ @ [ . [ $ . $ } * 4 - = 5 1 $ J 2   [ { , @ 2 2 +   < [ @ # 0 f T V j a = % 0 $ 2 @ . @ + + + + + , : { , { { ' , + @ + , { ' ! { ' ' { { , +   v + [ + . . 2 @ 2 1 2 J 2 2 $ 2 1 # 2 0 = * z s y a - = = - 4 4 - g 5 0 - % 5 = - - : ; $ $ # $ @ @ . @ . @ @ [ @ [ . [ $ . $ } * 4 - = 5 1 $ J 2   [ { , @ 2 2 +   < [ @ # 0 f T V j a = % 0 $ 2 @ . @ + + + + + , : { , { { ' , + @ + , { ' ! { ' ' { { , +   v + [ + . . 2 @ 2 1 2 J 2 2 $ 2 1 # 2 0 = * z s y a - = = - 4 4 - g 5 0 - % 5 = - - : ; $ $ # $ @ @ . @ . @ @ [ @ [ . [ $ . $ } * 4 - = 5 1 $ J 2   [ { , @ 2 2 +   < [ @ # 0 f T V j a = % 0 $ 2 @ . @ + + + + + , : { , { { ' , + @ + , { ' ! { ' ' ",
"v ' { , ' { ' { + { + {   { { {   +   + + + . @ . 3 [ @ 2 [ 1 2 # @ @ 2 @ @ @ @ $ W F * e ( 4 = 0 - 0 $ 0 1 $ $ 0 % - 5 4 0 $ : 0 0 1 $ $ # m $ @ 9 @ 1 @ @ @ @ # @ m # ; = y * a 4 0 $ # 2 @ . . + + @ 2 . @ + . @ $ 1 = T s z a = 5 $ # @ @ @ @ + + , [ { , : v ' { , ' { ' { + { + {   { { {   +   + + + . @ . 3 [ @ 2 [ 1 2 # @ @ 2 @ @ @ @ $ W F * e ( 4 = 0 - 0 $ 0 1 $ $ 0 % - 5 4 0 $ : 0 0 1 $ $ # m $ @ 9 @ 1 @ @ @ @ # @ m # ; = y * a 4 0 $ # 2 @ . . + + @ 2 . @ + . @ $ 1 = T s z a = 5 $ # @ @ @ @ + + , [ { , : v ' { , ' { ' { + { + {   { { {   +   + + + . @ . 3 [ @ 2 [ 1 2 # @ @ 2 @ @ @ @ $ W F * e ( 4 = 0 - 0 $ 0 1 $ $ 0 % - 5 4 0 $ : 0 0 1 $ $ # m $ @ 9 @ 1 @ @ @ @ # @ m # ; = y * a 4 0 $ # 2 @ . . + + @ 2 . @ + . @ $ 1 = T s z a = 5 $ # @ @ @ @ + + , [ { , : v ' { , ' { ' { + { + {   { { { ",
"' , 6 + { , { v , @ + , + { , v + + + . @ @ @ # 3 . 2 2 [ @ 3 [ @ [ . @ . @ @ @ 2 - 5 X s t q l 0 ; $ $ $ @ $ 1 - - = - 0 2 2 : a 4 = ^ ; } ; $ $ $ ; # $ $ 2 @ 2 @ 9 $ r - F z q 4 - 0 $ m 2 2 [ + [ [ [ 3 @ . [ @ # $ - l z s * % 0 ; $ @ @ [ + ,   + +   ' : ' , 6 + { , { v , @ + , + { , v + + + . @ @ @ # 3 . 2 2 [ @ 3 [ @ [ . @ . @ @ @ 2 - 5 X s t q l 0 ; $ $ $ @ $ 1 - - = - 0 2 2 : a 4 = ^ ; } ; $ $ $ ; # $ $ 2 @ 2 @ 9 $ r - F z q 4 - 0 $ m 2 2 [ + [ [ [ 3 @ . [ @ # $ - l z s * % 0 ; $ @ @ [ + ,   + +   ' : ' , 6 + { , { v , @ + , + { , v + + + . @ @ @ # 3 . 2 2 [ @ 3 [ @ [ . @ . @ @ @ 2 - 5 X s t q l 0 ; $ $ $ @ $ 1 - - = - 0 2 2 : a 4 = ^ ; } ; $ $ $ ; # $ $ 2 @ 2 @ 9 $ r - F z q 4 - 0 $ m 2 2 [ + [ [ [ 3 @ . [ @ # $ - l z s * % 0 ; $ @ @ [ + ,   + +   ' : ' , 6 + { , { v , @ + , + { , v ",
"o { {   { > + , + + + < + + < . @ @ $ 0 1 2 2 @ 2 2 m 2 [ . + + { + + @ 2 $ 2 # $ 0 0 - a E G z 0 1 1 $ $ $ $ $ = * } $ $ @ # : z F a 4 4 = = - N % 0 - 0 ; 0 $ 1 9 1 $ 0 - a j * a = - ; $ @ 2 # [ C @ @ @ 2 @ @ # @ 1 0 0 f W l 4 5 0 2 @ . + + [ + , ' o ' : o { {   { > + , + + + < + + < . @ @ $ 0 1 2 2 @ 2 2 m 2 [ . + + { + + @ 2 $ 2 # $ 0 0 - a E G z 0 1 1 $ $ $ $ $ = * } $ $ @ # : z F a 4 4 = = - N % 0 - 0 ; 0 $ 1 9 1 $ 0 - a j * a = - ; $ @ 2 # [ C @ @ @ 2 @ @ # @ 1 0 0 f W l 4 5 0 2 @ . + + [ + , ' o ' : o { {   { > + , + + + < + + < . @ @ $ 0 1 2 2 @ 2 2 m 2 [ . + + { + + @ 2 $ 2 # $ 0 0 - a E G z 0 1 1 $ $ $ $ $ = * } $ $ @ # : z F a 4 4 = = - N % 0 - 0 ; 0 $ 1 9 1 $ 0 - a j * a = - ; $ @ 2 # [ C @ @ @ 2 @ @ # @ 1 0 0 f W l 4 5 0 2 @ . + + [ + , ' o ' : o { {   { > + , + + + < + + < . ",
"{ { { { , { + + . @ @ 2 @ @ 1 m $ ; 0 * 5 1 @ 2 1 3 2 , +   + +   , +   [ @ @ # $ $ 1 = * T p l - 0 0 1 m 2 $ 0 c } - 2 2 $ [ : z F & z & j & e e e ( a a - 0 ^ 0 $ 0 $ ; 0 4 * & * l l % 0 0 # $ 2 2 # @ $ . 2 $ 2 $ $ # 0 5 = - = = - $ 2 @ < +   , { , , 6 : { { { { , { + + . @ @ 2 @ @ 1 m $ ; 0 * 5 1 @ 2 1 3 2 , +   + +   , +   [ @ @ # $ $ 1 = * T p l - 0 0 1 m 2 $ 0 c } - 2 2 $ [ : z F & z & j & e e e ( a a - 0 ^ 0 $ 0 $ ; 0 4 * & * l l % 0 0 # $ 2 2 # @ $ . 2 $ 2 $ $ # 0 5 = - = = - $ 2 @ < +   , { , , 6 : { { { { , { + + . @ @ 2 @ @ 1 m $ ; 0 * 5 1 @ 2 1 3 2 , +   + +   , +   [ @ @ # $ $ 1 = * T p l - 0 0 1 m 2 $ 0 c } - 2 2 $ [ : z F & z & j & e e e ( a a - 0 ^ 0 $ 0 $ ; 0 4 * & * l l % 0 0 # $ 2 2 # @ $ . 2 $ 2 $ $ # 0 5 = - = = - $ 2 @ < +   , { , , 6 : { { { { , { + + . @ @ 2 @ @ 1 m ",
"    v > [ + + . @ $ ; l 0 0 0 4 4 e l 4 $ $ # 2 2 [ . + + ,     v   , + . . @ 2 0 # 1 0 * s F 4 0 - 0 1 # @ 1 1 $ 1 $ 2 m @ . : * * z z q T Y b b L t s e * y 4 = 4 N - 0 = = a & z j e a = ^ 0 0 ; ; 0 $ # $ 2 # 0 $ $ $ $ $ $ 0 n y 4 1 $ % +   + { + , { { :     v > [ + + . @ $ ; l 0 0 0 4 4 e l 4 $ $ # 2 2 [ . + + ,     v   , + . . @ 2 0 # 1 0 * s F 4 0 - 0 1 # @ 1 1 $ 1 $ 2 m @ . : * * z z q T Y b b L t s e * y 4 = 4 N - 0 = = a & z j e a = ^ 0 0 ; ; 0 $ # $ 2 # 0 $ $ $ $ $ $ 0 n y 4 1 $ % +   + { + , { { :     v > [ + + . @ $ ; l 0 0 0 4 4 e l 4 $ $ # 2 2 [ . + + ,     v   , + . . @ 2 0 # 1 0 * s F 4 0 - 0 1 # @ 1 1 $ 1 $ 2 m @ . : * * z z q T Y b b L t s e * y 4 = 4 N - 0 = = a & z j e a = ^ 0 0 ; ; 0 $ # $ 2 # 0 $ $ $ $ $ $ 0 n y 4 1 $ % +   + { + , { { :     v > [ + + . @ $ ; l 0 0 0 4 ",
"+ v   + + $ 0 $ 0 0 4 e q j q z z * - } 1 2 2 J 2 @ + [ { , { , , { { + [ + @ 2 $ $ ; c g - % 5 0 m 1 $ 2 2 @ 2 1 1 2 @ @ . + : 0 4 l a y j E L : : p L b : L & z * * l g - a * & O b u & a 4 a = a 4 - 0 0 $ 0 - 1 - 0 - $ $ $ ; = W l ; $ @ [ + { + , , { ! : + v   + + $ 0 $ 0 0 4 e q j q z z * - } 1 2 2 J 2 @ + [ { , { , , { { + [ + @ 2 $ $ ; c g - % 5 0 m 1 $ 2 2 @ 2 1 1 2 @ @ . + : 0 4 l a y j E L : : p L b : L & z * * l g - a * & O b u & a 4 a = a 4 - 0 0 $ 0 - 1 - 0 - $ $ $ ; = W l ; $ @ [ + { + , , { ! : + v   + + $ 0 $ 0 0 4 e q j q z z * - } 1 2 2 J 2 @ + [ { , { , , { { + [ + @ 2 $ $ ; c g - % 5 0 m 1 $ 2 2 @ 2 1 1 2 @ @ . + : 0 4 l a y j E L : : p L b : L & z * * l g - a * & O b u & a 4 a = a 4 - 0 0 $ 0 - 1 - 0 - $ $ $ ; = W l ; $ @ [ + { + , , { ! : + v   + + $ 0 $ 0 0 4 e q j q z ",
"+ C @ @ $ @ ; a l e e q f s 4 - = - $ $ @ # 1 1 @     + ,   , + > > +   B + . @ $ # 1 1 $ 0 - ; $ # $ 9 9 @ @ < 2 $ 1 2 { + + : $ 0 ^ = a t : p & L t L p Z q z z t z s e l e z & t u T ` & & _ L p _ e 4 - 0 0 0 } - l - } 1 ; $ - 4 4 - 1 2 < +   , { , ' 6 : + C @ @ $ @ ; a l e e q f s 4 - = - $ $ @ # 1 1 @     + ,   , + > > +   B + . @ $ # 1 1 $ 0 - ; $ # $ 9 9 @ @ < 2 $ 1 2 { + + : $ 0 ^ = a t : p & L t L p Z q z z t z s e l e z & t u T ` & & _ L p _ e 4 - 0 0 0 } - l - } 1 ; $ - 4 4 - 1 2 < +   , { , ' 6 : + C @ @ $ @ ; a l e e q f s 4 - = - $ $ @ # 1 1 @     + ,   , + > > +   B + . @ $ # 1 1 $ 0 - ; $ # $ 9 9 @ @ < 2 $ 1 2 { + + : $ 0 ^ = a t : p & L t L p Z q z z t z s e l e z & t u T ` & & _ L p _ e 4 - 0 0 0 } - l - } 1 ; $ - 4 4 - 1 2 < +   , { , ' 6 : + C @ @ $ @ ; a l e e q f s 4 - ",
"[ [ + . @ @ 1 * 0 - - 0 % 1 0 0 k 1 1 1 1 $ 0 1 @ +   { { { A , v   { + , + + + [ 1 $ # $ $ 1 $ # @ 2 @ @ @ . @ @ @ . + +   , : @ 0 1 0 = z : t j z q j q q e a / = 4 = = 4 * z L t L u  .L  .G u u t H e = - 0 ; 0 $ 0 - 0 ; 0 0 } 4 5 0 $ m . 3 + { , { , ! : [ [ + . @ @ 1 * 0 - - 0 % 1 0 0 k 1 1 1 1 $ 0 1 @ +   { { { A , v   { + , + + + [ 1 $ # $ $ 1 $ # @ 2 @ @ @ . @ @ @ . + +   , : @ 0 1 0 = z : t j z q j q q e a / = 4 = = 4 * z L t L u  .L  .G u u t H e = - 0 ; 0 $ 0 - 0 ; 0 0 } 4 5 0 $ m . 3 + { , { , ! : [ [ + . @ @ 1 * 0 - - 0 % 1 0 0 k 1 1 1 1 $ 0 1 @ +   { { { A , v   { + , + + + [ 1 $ # $ $ 1 $ # @ 2 @ @ @ . @ @ @ . + +   , : @ 0 1 0 = z : t j z q j q q e a / = 4 = = 4 * z L t L u  .L  .G u u t H e = - 0 ; 0 $ 0 - 0 ; 0 0 } 4 5 0 $ m . 3 + { , { , ! : [ [ + . @ @ 1 * 0 - - 0 % 1 0 0 ",
"< @ @ @ $ @ $ $ $ ; @ 0 - $ 1 0 1 1 - 1 - - 2 . [ + { [ + { { { > v   + > . + . 9 9 $ $ $ $ 1 m $ @ m # $ @ @ [   + @ , , { > : 9 1 ; - = = * F q e & s z * * 0 = - l 0 - 0 0 4 4 e q p G E ..+.D : b L z e 4 % 0 0 0 0 - } 0 0 0 0 = - } # 2 @ . [ + , { ' 6 : < @ @ @ $ @ $ $ $ ; @ 0 - $ 1 0 1 1 - 1 - - 2 . [ + { [ + { { { > v   + > . + . 9 9 $ $ $ $ 1 m $ @ m # $ @ @ [   + @ , , { > : 9 1 ; - = = * F q e & s z * * 0 = - l 0 - 0 0 4 4 e q p G E ..+.D : b L z e 4 % 0 0 0 0 - } 0 0 0 0 = - } # 2 @ . [ + , { ' 6 : < @ @ @ $ @ $ $ $ ; @ 0 - $ 1 0 1 1 - 1 - - 2 . [ + { [ + { { { > v   + > . + . 9 9 $ $ $ $ 1 m $ @ m # $ @ @ [   + @ , , { > : 9 1 ; - = = * F q e & s z * * 0 = - l 0 - 0 0 4 4 e q p G E ..+.D : b L z e 4 % 0 0 0 0 - } 0 0 0 0 = - } # 2 @ . [ + , { ' 6 : < @ @ @ $ @ $ $ $ ; @ 0 - $ 1 0 ",
"[ 2 . 2 2 @ $ # @ 2 1 1 5 - - ; k - N 1 k 1 2 @ @ [ + +   +   {   [ { [ + [ + @ @ 1 $ 0 0 n } # 1 - - 0 4 1 [ + , v , , { { 6 : $ # $ r 0 % l * e q a 4 * a l 4 - 0 $ $ 9 $ 0 1 ^ = I q u @.Y  .p : b j t j q l = = 4 - 0 = * 4 4 4 0 % - 0 $ $ @ + + + , { ' : [ 2 . 2 2 @ $ # @ 2 1 1 5 - - ; k - N 1 k 1 2 @ @ [ + +   +   {   [ { [ + [ + @ @ 1 $ 0 0 n } # 1 - - 0 4 1 [ + , v , , { { 6 : $ # $ r 0 % l * e q a 4 * a l 4 - 0 $ $ 9 $ 0 1 ^ = I q u @.Y  .p : b j t j q l = = 4 - 0 = * 4 4 4 0 % - 0 $ $ @ + + + , { ' : [ 2 . 2 2 @ $ # @ 2 1 1 5 - - ; k - N 1 k 1 2 @ @ [ + +   +   {   [ { [ + [ + @ @ 1 $ 0 0 n } # 1 - - 0 4 1 [ + , v , , { { 6 : $ # $ r 0 % l * e q a 4 * a l 4 - 0 $ $ 9 $ 0 1 ^ = I q u @.Y  .p : b j t j q l = = 4 - 0 = * 4 4 4 0 % - 0 $ $ @ + + + , { ' : [ 2 . 2 2 @ $ # @ 2 1 1 5 - - ; ",
". @ 2 $ 0 @ 2 . @ . @ ; 4 1 l k 1 1 1 1 $ 2 @ @ + + +   + { , + + , . . @ + @ 2 $ ; - = * = ; } 0 5 # J @ [ + , { ' ' { { ' ' : h @ ; $ ^ 5 = a e e e c y a 4 = 0 0 $ # @ $ $ ; 5 = a e & p b t e e a a y q I I z F * a l / a z * = 4 = 5 0 - $ # . [ + { , { : . @ 2 $ 0 @ 2 . @ . @ ; 4 1 l k 1 1 1 1 $ 2 @ @ + + +   + { , + + , . . @ + @ 2 $ ; - = * = ; } 0 5 # J @ [ + , { ' ' { { ' ' : h @ ; $ ^ 5 = a e e e c y a 4 = 0 0 $ # @ $ $ ; 5 = a e & p b t e e a a y q I I z F * a l / a z * = 4 = 5 0 - $ # . [ + { , { : . @ 2 $ 0 @ 2 . @ . @ ; 4 1 l k 1 1 1 1 $ 2 @ @ + + +   + { , + + , . . @ + @ 2 $ ; - = * = ; } 0 5 # J @ [ + , { ' ' { { ' ' : h @ ; $ ^ 5 = a e e e c y a 4 = 0 0 $ # @ $ $ ; 5 = a e & p b t e e a a y q I I z F * a l / a z * = 4 = 5 0 - $ # . [ + { , { : . @ 2 $ 0 @ 2 . @ . @ ; 4 1 l k ",
"3 2 1 $ $ 2 . @ 2 3 $ m $ 2 2 $ 2 # m # m $ $ # @ [ +   [ + +   [ < 3 2 + . @ 9 $ = 4 * * l 1 1 2 @ # . v { { ' { , o ' o { ! : # $ $ 1 = * e a z e z a 4 a 4 - - } ; @ 9 < @ $ 0 4 * q ` t _ z a = ^ = = 4 l = 4 a 4 = W q s j T j y a - 4 4 % $ @ @ + +   { : 3 2 1 $ $ 2 . @ 2 3 $ m $ 2 2 $ 2 # m # m $ $ # @ [ +   [ + +   [ < 3 2 + . @ 9 $ = 4 * * l 1 1 2 @ # . v { { ' { , o ' o { ! : # $ $ 1 = * e a z e z a 4 a 4 - - } ; @ 9 < @ $ 0 4 * q ` t _ z a = ^ = = 4 l = 4 a 4 = W q s j T j y a - 4 4 % $ @ @ + +   { : 3 2 1 $ $ 2 . @ 2 3 $ m $ 2 2 $ 2 # m # m $ $ # @ [ +   [ + +   [ < 3 2 + . @ 9 $ = 4 * * l 1 1 2 @ # . v { { ' { , o ' o { ! : # $ $ 1 = * e a z e z a 4 a 4 - - } ; @ 9 < @ $ 0 4 * q ` t _ z a = ^ = = 4 l = 4 a 4 = W q s j T j y a - 4 4 % $ @ @ + +   { : 3 2 1 $ $ 2 . @ 2 3 $ m $ 2 2 $ ",
"[ @ $ 2 @ $ + + @ . 2 2 2 @ @ 2 @ 1 1 @ . @ 1 l ; [ + B , + + + 3 [ 9 $ @ @ 2 $ - * t & * - 1 @ . [ + + 6 { { 6 o ' ! ' 6 { ! : $ 0 0 = a j & y e j & z * = a 0 = 0 } $ . C . @ $ 0 - y _ & q e = = 0 1 0 5 4 4 4 4 4 5 = 4 * q T L & F e = * a 0 $ m < [ { 6 : [ @ $ 2 @ $ + + @ . 2 2 2 @ @ 2 @ 1 1 @ . @ 1 l ; [ + B , + + + 3 [ 9 $ @ @ 2 $ - * t & * - 1 @ . [ + + 6 { { 6 o ' ! ' 6 { ! : $ 0 0 = a j & y e j & z * = a 0 = 0 } $ . C . @ $ 0 - y _ & q e = = 0 1 0 5 4 4 4 4 4 5 = 4 * q T L & F e = * a 0 $ m < [ { 6 : [ @ $ 2 @ $ + + @ . 2 2 2 @ @ 2 @ 1 1 @ . @ 1 l ; [ + B , + + + 3 [ 9 $ @ @ 2 $ - * t & * - 1 @ . [ + + 6 { { 6 o ' ! ' 6 { ! : $ 0 0 = a j & y e j & z * = a 0 = 0 } $ . C . @ $ 0 - y _ & q e = = 0 1 0 5 4 4 4 4 4 5 = 4 * q T L & F e = * a 0 $ m < [ { 6 : [ @ $ 2 @ $ + + @ . 2 2 2 @ @ 2 ",
": : : : : : : : : : : : : : : : : : : : : : : : : : : : : : : : : : : : : : : : : : : : : : : : : : : : : : : : : : : : : : : : : : : : : : : : : : : : : : : : : : : : : : : : : : : : : : : : : : : : : : : : : : : : : : : : : : : : : : : : : : : : : : : : : : : : : : : : : : : : : : : : : : : : : : : : : : : : : : : : : : : : : : : : : : : : : : : : : : : : : : : : : : : : : : : : : : : : : : : : : : : : : : : : : : : : : : : : : : : : : : : : : : : : : : : : : : : : : : : : : : : : : : : : : : : : : : : : : : : : : : : : : : : : : : : : : : : : : : : : : : : : : : : : : : : : : : : : : : : : : : : : : : : : : : : : : : : : : : : : : : : : : : : : : : : : : : : : : : : : : : : : : : : : : : : : : : : : : : : : : : : : : : : : : : : : : : : : : : : : : : : : : : : : : : : : : : : : : : : : ",
",   { ' ! ! { { , ' v . C { { { {   + . m $ 1 = = e q & * a N 0 0 $ $ $ 0 = 4 & p ` & j _ t j X a y ^ 0 0 $ = 4 0 $ $ @ @ 9 < : g e #.L #.p E $.$.$.Z W = N = = a F 4 $ ; @ @ C [ > B   + B < @ 9 $ ; r 0 r ; r ^ N $ ^ N 0 ; $ ; $ C < < + > B > > [ < 9 < 2 : ,   { ' ! ! { { , ' v . C { { { {   + . m $ 1 = = e q & * a N 0 0 $ $ $ 0 = 4 & p ` & j _ t j X a y ^ 0 0 $ = 4 0 $ $ @ @ 9 < : g e #.L #.p E $.$.$.Z W = N = = a F 4 $ ; @ @ C [ > B   + B < @ 9 $ ; r 0 r ; r ^ N $ ^ N 0 ; $ ; $ C < < + > B > > [ < 9 < 2 : ,   { ' ! ! { { , ' v . C { { { {   + . m $ 1 = = e q & * a N 0 0 $ $ $ 0 = 4 & p ` & j _ t j X a y ^ 0 0 $ = 4 0 $ $ @ @ 9 < : g e #.L #.p E $.$.$.Z W = N = = a F 4 $ ; @ @ C [ > B   + B < @ 9 $ ; r 0 r ; r ^ N $ ^ N 0 ; $ ; $ C < < + > B > > [ < 9 < 2 : ,   { ' ! ! { { , ' v . C { { { ",
"+ v { ,   { { { { { [ [ [ ' { { [ + + @ # $ 0 - 0 = a l q q * ^ $ $ $ # $ - 5 = y e p L w D D u ` a 5 ^ 0 ^ 0 a = 0 ; # @ @ @ : = = / a a I Z %.&.Z V I g / 4 * * / 0 $ ; 2 @ < C . + < < @ @ } 0 ; $ ; ; h ; $ ; 0 ^ ; 0 % = $ 9 9 < + < > > > + ] > < < C < : + v { ,   { { { { { [ [ [ ' { { [ + + @ # $ 0 - 0 = a l q q * ^ $ $ $ # $ - 5 = y e p L w D D u ` a 5 ^ 0 ^ 0 a = 0 ; # @ @ @ : = = / a a I Z %.&.Z V I g / 4 * * / 0 $ ; 2 @ < C . + < < @ @ } 0 ; $ ; ; h ; $ ; 0 ^ ; 0 % = $ 9 9 < + < > > > + ] > < < C < : + v { ,   { { { { { [ [ [ ' { { [ + + @ # $ 0 - 0 = a l q q * ^ $ $ $ # $ - 5 = y e p L w D D u ` a 5 ^ 0 ^ 0 a = 0 ; # @ @ @ : = = / a a I Z %.&.Z V I g / 4 * * / 0 $ ; 2 @ < C . + < < @ @ } 0 ; $ ; ; h ; $ ; 0 ^ ; 0 % = $ 9 9 < + < > > > + ] > < < C < : + v { ,   { { { { { [ [ [ ' { { ",
"+   { v ,   { { ,   + +   v + ' { { [ [ 2 @ 0 0 = - 0 = 4 e j a = ; ; $ m 1 0 - a e O : b @.G : & a g - ^ 5 = 4 a 0 ; $ # @ < : 0 ^ 0 0 ; = I V #.W I a a * a a % r ; ; 9 9 < @ @ < @ + < 9 = ; 0 0 ; N a ; 9 $ N ; $ ; $ ; ; 9 C . < < > *.> A > { > < *.> > : +   { v ,   { { ,   + +   v + ' { { [ [ 2 @ 0 0 = - 0 = 4 e j a = ; ; $ m 1 0 - a e O : b @.G : & a g - ^ 5 = 4 a 0 ; $ # @ < : 0 ^ 0 0 ; = I V #.W I a a * a a % r ; ; 9 9 < @ @ < @ + < 9 = ; 0 0 ; N a ; 9 $ N ; $ ; $ ; ; 9 C . < < > *.> A > { > < *.> > : +   { v ,   { { ,   + +   v + ' { { [ [ 2 @ 0 0 = - 0 = 4 e j a = ; ; $ m 1 0 - a e O : b @.G : & a g - ^ 5 = 4 a 0 ; $ # @ < : 0 ^ 0 0 ; = I V #.W I a a * a a % r ; ; 9 9 < @ @ < @ + < 9 = ; 0 0 ; N a ; 9 $ N ; $ ; $ ; ; 9 C . < < > *.> A > { > < *.> > : +   { v ,   { { ,   + +   v + ' ",
"@ [   + , { { , , v + [ { , { + , , + 2 2 $ 1 0 - = N 0 1 = y & a & 4 } ; 1 0 0 4 e j b u p _ L p V g N = % = a a = 0 $ # @ @ : r ; ; ; ; N g I e I g / z g g ^ r ; ; $ h $ 9 9 9 C 9 . @ @ ; h ; ; $ 0 ^ # h ; ; $ ; 9 9 9 C @ < < B > > ' { ' > ' ' *.' > ' : @ [   + , { { , , v + [ { , { + , , + 2 2 $ 1 0 - = N 0 1 = y & a & 4 } ; 1 0 0 4 e j b u p _ L p V g N = % = a a = 0 $ # @ @ : r ; ; ; ; N g I e I g / z g g ^ r ; ; $ h $ 9 9 9 C 9 . @ @ ; h ; ; $ 0 ^ # h ; ; $ ; 9 9 9 C @ < < B > > ' { ' > ' ' *.' > ' : @ [   + , { { , , v + [ { , { + , , + 2 2 $ 1 0 - = N 0 1 = y & a & 4 } ; 1 0 0 4 e j b u p _ L p V g N = % = a a = 0 $ # @ @ : r ; ; ; ; N g I e I g / z g g ^ r ; ; $ h $ 9 9 9 C 9 . @ @ ; h ; ; $ 0 ^ # h ; ; $ ; 9 9 9 C @ < < B > > ' { ' > ' ' *.' > ' : @ [   + , { { , , v + [ { , { + ",
"[ $ 3   { ' v   + { [ > + ' , { v   [ @ $ # $ 0 0 0 0 1 $ } = a z e & a 0 ; $ 0 a * t & _ e e q #.& q a = 0 = * j * = ; @ 9 @ : # $ ; N N a g ( I ( g N % ^ 0 ; | ; $ ; # ; $ r ; $ 9 @ @ < 9 @ 9 9 9 = ; | 0 9 ; 9 ; C C < < < < > B > { ' > > { > A ' { *.A : [ $ 3   { ' v   + { [ > + ' , { v   [ @ $ # $ 0 0 0 0 1 $ } = a z e & a 0 ; $ 0 a * t & _ e e q #.& q a = 0 = * j * = ; @ 9 @ : # $ ; N N a g ( I ( g N % ^ 0 ; | ; $ ; # ; $ r ; $ 9 @ @ < 9 @ 9 9 9 = ; | 0 9 ; 9 ; C C < < < < > B > { ' > > { > A ' { *.A : [ $ 3   { ' v   + { [ > + ' , { v   [ @ $ # $ 0 0 0 0 1 $ } = a z e & a 0 ; $ 0 a * t & _ e e q #.& q a = 0 = * j * = ; @ 9 @ : # $ ; N N a g ( I ( g N % ^ 0 ; | ; $ ; # ; $ r ; $ 9 @ @ < 9 @ 9 9 9 = ; | 0 9 ; 9 ; C C < < < < > B > { ' > > { > A ' { *.A : [ $ 3   { ' v   + { [ > + ' , { ",
"+ 2 @ + + { + v     [ , , { { , {   [ 2 2 2 1 0 0 0 1 - 0 1 1 = = = a e = 5 ; 0 0 a & j & I a a a a & V a = / F z j 4 0 $ @ . : ; r 0 g ( V a S = = ^ 0 ; h ; $ m $ $ 0 5 1 5 0 0 $ h $ C @ C @ C @ C $ 0 $ 9 } r $ C 9 [ @ < + + > < { *.{ B + > > > > > A > : + 2 @ + + { + v     [ , , { { , {   [ 2 2 2 1 0 0 0 1 - 0 1 1 = = = a e = 5 ; 0 0 a & j & I a a a a & V a = / F z j 4 0 $ @ . : ; r 0 g ( V a S = = ^ 0 ; h ; $ m $ $ 0 5 1 5 0 0 $ h $ C @ C @ C @ C $ 0 $ 9 } r $ C 9 [ @ < + + > < { *.{ B + > > > > > A > : + 2 @ + + { + v     [ , , { { , {   [ 2 2 2 1 0 0 0 1 - 0 1 1 = = = a e = 5 ; 0 0 a & j & I a a a a & V a = / F z j 4 0 $ @ . : ; r 0 g ( V a S = = ^ 0 ; h ; $ m $ $ 0 5 1 5 0 0 $ h $ C @ C @ C @ C $ 0 $ 9 } r $ C 9 [ @ < + + > < { *.{ B + > > > > > A > : + 2 @ + + { + v     [ , , { { , ",
"+ @ . 1 [ , { v + + + + > , , { , [ $ 2 | $ $ 0 ; 0 0 - = 0 0 } $ 0 ^ 0 ( a = - } = e _ t e a l N ^ a & e g 4 * s & l % 9 @ < : 0 = / y e =.g n ^ N r | 9 9 9 2 9 9 9 1 0 N ^ 0 ; 0 $ < 9 < @ < @ @ 9 9 h 9 9 0 = ; 9 < < < B < + B > +   {   < B + C > < B { : + @ . 1 [ , { v + + + + > , , { , [ $ 2 | $ $ 0 ; 0 0 - = 0 0 } $ 0 ^ 0 ( a = - } = e _ t e a l N ^ a & e g 4 * s & l % 9 @ < : 0 = / y e =.g n ^ N r | 9 9 9 2 9 9 9 1 0 N ^ 0 ; 0 $ < 9 < @ < @ @ 9 9 h 9 9 0 = ; 9 < < < B < + B > +   {   < B + C > < B { : + @ . 1 [ , { v + + + + > , , { , [ $ 2 | $ $ 0 ; 0 0 - = 0 0 } $ 0 ^ 0 ( a = - } = e _ t e a l N ^ a & e g 4 * s & l % 9 @ < : 0 = / y e =.g n ^ N r | 9 9 9 2 9 9 9 1 0 N ^ 0 ; 0 $ < 9 < @ < @ @ 9 9 h 9 9 0 = ; 9 < < < B < + B > +   {   < B + C > < B { : + @ . 1 [ , { v + + + + > , , { ",
"[ . [ [ + +   + 2 [ [ + , { , ' + + 3 2 | 2 $ $ ; 5 = = c 4 0 ; $ $ $ 0 5 = l ^ 0 0 a s L z a = $ r - a a / = l e z = $ 9 2 < : I a a a I I ^ ; ^ r ; h @ 9 9 @ @ h r - a - } = 0 0 0 ; @ @ + 9 @ < 2 @ h $ ; y g 0 $ + + + < + < + + > B < + + [ < + @ @ @ < : [ . [ [ + +   + 2 [ [ + , { , ' + + 3 2 | 2 $ $ ; 5 = = c 4 0 ; $ $ $ 0 5 = l ^ 0 0 a s L z a = $ r - a a / = l e z = $ 9 2 < : I a a a I I ^ ; ^ r ; h @ 9 9 @ @ h r - a - } = 0 0 0 ; @ @ + 9 @ < 2 @ h $ ; y g 0 $ + + + < + < + + > B < + + [ < + @ @ @ < : [ . [ [ + +   + 2 [ [ + , { , ' + + 3 2 | 2 $ $ ; 5 = = c 4 0 ; $ $ $ 0 5 = l ^ 0 0 a s L z a = $ r - a a / = l e z = $ 9 2 < : I a a a I I ^ ; ^ r ; h @ 9 9 @ @ h r - a - } = 0 0 0 ; @ @ + 9 @ < 2 @ h $ ; y g 0 $ + + + < + < + + > B < + + [ < + @ @ @ < : [ . [ [ + +   + 2 [ [ + , { , ' ",
"@ @ [ > @ , { + [ $ $ @ [ > v + , , 2 9 - 2 $ 1 0 ^ = 4 a l y = $ $ # $ $ 0 a = - ^ l e q & a = ; $ ; - e g = 4 e = - ; @ @   : g = g I ^ ^ r ; ; ; ; 9 h 2 @ C 9 # $ a 4 ^ 0 ; = z * - h 9 < @ 9 < @ @ 9 9 $ 0 0 ; @ C B   > < + + < @ + 2 @ < < @ @ # $ $ # : @ @ [ > @ , { + [ $ $ @ [ > v + , , 2 9 - 2 $ 1 0 ^ = 4 a l y = $ $ # $ $ 0 a = - ^ l e q & a = ; $ ; - e g = 4 e = - ; @ @   : g = g I ^ ^ r ; ; ; ; 9 h 2 @ C 9 # $ a 4 ^ 0 ; = z * - h 9 < @ 9 < @ @ 9 9 $ 0 0 ; @ C B   > < + + < @ + 2 @ < < @ @ # $ $ # : @ @ [ > @ , { + [ $ $ @ [ > v + , , 2 9 - 2 $ 1 0 ^ = 4 a l y = $ $ # $ $ 0 a = - ^ l e q & a = ; $ ; - e g = 4 e = - ; @ @   : g = g I ^ ^ r ; ; ; ; 9 h 2 @ C 9 # $ a 4 ^ 0 ; = z * - h 9 < @ 9 < @ @ 9 9 $ 0 0 ; @ C B   > < + + < @ + 2 @ < < @ @ # $ $ # : @ @ [ > @ , { + [ $ $ @ [ > v + ",
"$ 2 + [ + , { v + 1 a % $ +   { { + 2 9 2 m # 0 5 = = a * y z 4 = 0 $ $ # $ 0 5 0 0 % 4 e q * = 0 ; } ^ l a a = a = ; $ @ . < : = n ^ ^ ; # 9 9 ; ^ 0 J 9 < . [ 9 ; $ 0 ; ; ; r 0 & t / $ @ . @ @ < < @ ; r 0 ; | 9 9 < < < @ < 1 9 > . @ 9 9   + v 9 # = 4 9 : $ 2 + [ + , { v + 1 a % $ +   { { + 2 9 2 m # 0 5 = = a * y z 4 = 0 $ $ # $ 0 5 0 0 % 4 e q * = 0 ; } ^ l a a = a = ; $ @ . < : = n ^ ^ ; # 9 9 ; ^ 0 J 9 < . [ 9 ; $ 0 ; ; ; r 0 & t / $ @ . @ @ < < @ ; r 0 ; | 9 9 < < < @ < 1 9 > . @ 9 9   + v 9 # = 4 9 : $ 2 + [ + , { v + 1 a % $ +   { { + 2 9 2 m # 0 5 = = a * y z 4 = 0 $ $ # $ 0 5 0 0 % 4 e q * = 0 ; } ^ l a a = a = ; $ @ . < : = n ^ ^ ; # 9 9 ; ^ 0 J 9 < . [ 9 ; $ 0 ; ; ; r 0 & t / $ @ . @ @ < < @ ; r 0 ; | 9 9 < < < @ < 1 9 > . @ 9 9   + v 9 # = 4 9 : $ 2 + [ + , { v + 1 a % $ +   { ",
"@ @ [ {   + {   + 2 - a = 0 @ + [ { [ 9 @ 2 $ ; = = 4 * e z s y 4 = 0 $ $ @ 9 $ ; N 0 = a j & e 0 0 ; 0 4 e g 4 l 0 0 # 9 @ < : g ; h ; ; 2 9 9 # ^ & 0 ; < < . @ # # . $ @ U 9 ; 0 = ; m C . 9 9 @ . 9 ; ; 9 $ ; # < < <   B . ; @ <   < + + < + . . 0 e / ; : @ @ [ {   + {   + 2 - a = 0 @ + [ { [ 9 @ 2 $ ; = = 4 * e z s y 4 = 0 $ $ @ 9 $ ; N 0 = a j & e 0 0 ; 0 4 e g 4 l 0 0 # 9 @ < : g ; h ; ; 2 9 9 # ^ & 0 ; < < . @ # # . $ @ U 9 ; 0 = ; m C . 9 9 @ . 9 ; ; 9 $ ; # < < <   B . ; @ <   < + + < + . . 0 e / ; : @ @ [ {   + {   + 2 - a = 0 @ + [ { [ 9 @ 2 $ ; = = 4 * e z s y 4 = 0 $ $ @ 9 $ ; N 0 = a j & e 0 0 ; 0 4 e g 4 l 0 0 # 9 @ < : g ; h ; ; 2 9 9 # ^ & 0 ; < < . @ # # . $ @ U 9 ; 0 = ; m C . 9 9 @ . 9 ; ; 9 $ ; # < < <   B . ; @ <   < + + < + . . 0 e / ; : @ @ [ {   + {   + 2 - a = 0 @ + ",
"$ . + + , [ { , + [ 0 = 4 a - # . . 2 # 1 $ 0 - = = a z q ( a * y * 4 0 ; $ @ $ $ - = 0 = z O j a 4 0 ; = e a a / = $ ; # 9 < : ^ | J h 9 9 9 ; h ^ l / ; 9 < < . @ 9 @ 2 < @ C 9 9 9 9 @ @ 9 @ @ 9 9 $ ; $ ; 5 I $ 9 @ . B < @ @ . < + < . . + > < @ ; 0 5 ; : $ . + + , [ { , + [ 0 = 4 a - # . . 2 # 1 $ 0 - = = a z q ( a * y * 4 0 ; $ @ $ $ - = 0 = z O j a 4 0 ; = e a a / = $ ; # 9 < : ^ | J h 9 9 9 ; h ^ l / ; 9 < < . @ 9 @ 2 < @ C 9 9 9 9 @ @ 9 @ @ 9 9 $ ; $ ; 5 I $ 9 @ . B < @ @ . < + < . . + > < @ ; 0 5 ; : $ . + + , [ { , + [ 0 = 4 a - # . . 2 # 1 $ 0 - = = a z q ( a * y * 4 0 ; $ @ $ $ - = 0 = z O j a 4 0 ; = e a a / = $ ; # 9 < : ^ | J h 9 9 9 ; h ^ l / ; 9 < < . @ 9 @ 2 < @ C 9 9 9 9 @ @ 9 @ @ 9 9 $ ; $ ; 5 I $ 9 @ . B < @ @ . < + < . . + > < @ ; 0 5 ; : $ . + + , [ { , + [ 0 = 4 a - # ",
"@ + @   , { { , {   @ - = a 4 N $ 1 ; 0 5 = = a e a e j y * l = = y a a 0 } @ @ ; 0 } 0 = y w & ( 5 l % = ( & q & g ; h 9 @ . : 9 h 9 9 9 9 h @ 9 ; a 0 @ @ . < @ < + > < + < < < @ 9 @ 9 h # 9 @ . @ $ @ 9 $ ^ a 0 $ . < <   < > < > +   [ + +   < @ $ 0 % 0 : @ + @   , { { , {   @ - = a 4 N $ 1 ; 0 5 = = a e a e j y * l = = y a a 0 } @ @ ; 0 } 0 = y w & ( 5 l % = ( & q & g ; h 9 @ . : 9 h 9 9 9 9 h @ 9 ; a 0 @ @ . < @ < + > < + < < < @ 9 @ 9 h # 9 @ . @ $ @ 9 $ ^ a 0 $ . < <   < > < > +   [ + +   < @ $ 0 % 0 : @ + @   , { { , {   @ - = a 4 N $ 1 ; 0 5 = = a e a e j y * l = = y a a 0 } @ @ ; 0 } 0 = y w & ( 5 l % = ( & q & g ; h 9 @ . : 9 h 9 9 9 9 h @ 9 ; a 0 @ @ . < @ < + > < + < < < @ 9 @ 9 h # 9 @ . @ $ @ 9 $ ^ a 0 $ . < <   < > < > +   [ + +   < @ $ 0 % 0 : @ + @   , { { , {   @ - = a 4 N ",
". m @ + { { , { { { [ m = = = = = 0 = = a / a e a V e e e I 4 % 4 * * F = 0 $ @ 1 * # 1 0 W j _ y g 0 0 0 a z * 4 = 0 ; ; @ @ : h 9 9 C 9 B 9 $ 0 ; ; ; < @ + + > B > + [ + [ + < @ @ C ; $ $ < C @ < @ < # @ $ 0 0 2 @ B B + { > + { > C + < < 3 @ @ # 0 N 0 : . m @ + { { , { { { [ m = = = = = 0 = = a / a e a V e e e I 4 % 4 * * F = 0 $ @ 1 * # 1 0 W j _ y g 0 0 0 a z * 4 = 0 ; ; @ @ : h 9 9 C 9 B 9 $ 0 ; ; ; < @ + + > B > + [ + [ + < @ @ C ; $ $ < C @ < @ < # @ $ 0 0 2 @ B B + { > + { > C + < < 3 @ @ # 0 N 0 : . m @ + { { , { { { [ m = = = = = 0 = = a / a e a V e e e I 4 % 4 * * F = 0 $ @ 1 * # 1 0 W j _ y g 0 0 0 a z * 4 = 0 ; ; @ @ : h 9 9 C 9 B 9 $ 0 ; ; ; < @ + + > B > + [ + [ + < @ @ C ; $ $ < C @ < @ < # @ $ 0 0 2 @ B B + { > + { > C + < < 3 @ @ # 0 N 0 : . m @ + { { , { { { [ m = = = = ",
"3 # [ + [ { { { { ,   @ 1 = * = % = = a = = 4 l ( q ` t z y a 5 4 4 l * * - $ . @ @ m @ 0 e p b L ( 5 ; 0 5 a l g = 4 $ ; h 9 : 2 9 < 9 h # $ $ $ $ @ @ < @ > B +   B + > < @ + < $ @ ; } $ 9 @ + + C . C @ B @ @ 9 @ < + > A > { { > { > + v + + 9 $ 0 ; r ; : 3 # [ + [ { { { { ,   @ 1 = * = % = = a = = 4 l ( q ` t z y a 5 4 4 l * * - $ . @ @ m @ 0 e p b L ( 5 ; 0 5 a l g = 4 $ ; h 9 : 2 9 < 9 h # $ $ $ $ @ @ < @ > B +   B + > < @ + < $ @ ; } $ 9 @ + + C . C @ B @ @ 9 @ < + > A > { { > { > + v + + 9 $ 0 ; r ; : 3 # [ + [ { { { { ,   @ 1 = * = % = = a = = 4 l ( q ` t z y a 5 4 4 l * * - $ . @ @ m @ 0 e p b L ( 5 ; 0 5 a l g = 4 $ ; h 9 : 2 9 < 9 h # $ $ $ $ @ @ < @ > B +   B + > < @ + < $ @ ; } $ 9 @ + + C . C @ B @ @ 9 @ < + > A > { { > { > + v + + 9 $ 0 ; r ; : 3 # [ + [ { { { { ,   @ 1 = * = ",
"@ 1 @ + +   { , { { ] + @ - 5 S 5 - = = 0 ; 0 = a e & K z e ( a = l 4 4 = 0 # @ @ @ @ @ ; * p -.b t % r $ $ % 4 a a / % 0 $ ; : 9 @ 9 9 1 h - $ 9 @ C < + > + <   B @   + . @ @ $ $ ; 0 1 9 # + + + + + + < @ . < @ + <   A { > ;.' ' { {   { > < @ $ ; $ ; $ : @ 1 @ + +   { , { { ] + @ - 5 S 5 - = = 0 ; 0 = a e & K z e ( a = l 4 4 = 0 # @ @ @ @ @ ; * p -.b t % r $ $ % 4 a a / % 0 $ ; : 9 @ 9 9 1 h - $ 9 @ C < + > + <   B @   + . @ @ $ $ ; 0 1 9 # + + + + + + < @ . < @ + <   A { > ;.' ' { {   { > < @ $ ; $ ; $ : @ 1 @ + +   { , { { ] + @ - 5 S 5 - = = 0 ; 0 = a e & K z e ( a = l 4 4 = 0 # @ @ @ @ @ ; * p -.b t % r $ $ % 4 a a / % 0 $ ; : 9 @ 9 9 1 h - $ 9 @ C < + > + <   B @   + . @ @ $ $ ; 0 1 9 # + + + + + + < @ . < @ + <   A { > ;.' ' { {   { > < @ $ ; $ ; $ : @ 1 @ + +   { , { { ] + @ - 5 S ",
"2 0 @ [ { [ { + { 6   , 2 2 - = / = 0 - $ $ $ ; = e j t & a a a a 4 * = - } $ $ @ v m . $ N j >.u s =.0 ; $ 0 4 * z y a = 1 ; : 9 $ ; } ; J h < < <   < > > +   < + < @   < + 9 ; # $ } # . +   >   > { > . + < < B   > { > > ' ' { { ' { ' >   + . 9 ; ; ; $ : 2 0 @ [ { [ { + { 6   , 2 2 - = / = 0 - $ $ $ ; = e j t & a a a a 4 * = - } $ $ @ v m . $ N j >.u s =.0 ; $ 0 4 * z y a = 1 ; : 9 $ ; } ; J h < < <   < > > +   < + < @   < + 9 ; # $ } # . +   >   > { > . + < < B   > { > > ' ' { { ' { ' >   + . 9 ; ; ; $ : 2 0 @ [ { [ { + { 6   , 2 2 - = / = 0 - $ $ $ ; = e j t & a a a a 4 * = - } $ $ @ v m . $ N j >.u s =.0 ; $ 0 4 * z y a = 1 ; : 9 $ ; } ; J h < < <   < > > +   < + < @   < + 9 ; # $ } # . +   >   > { > . + < < B   > { > > ' ' { { ' { ' >   + . 9 ; ; ; $ : 2 0 @ [ { [ { + { 6   , 2 2 - = ",
"@ 2 < < + . @ { , { { + { [ $ - = 4 = 1 $ 2 $ $ - l & L L * / a a * z * = 5 $ $ . @ @ . @ - * Y b L * N $ $ $ = y * ,.* a = 0 : $ % 1 0 $ @ @ . + + > + + + < +   < + @ @ . @ 9 $ @ . 9 @ + + > + > +   > [ @ + . + + + > > , A , > { { { + > + + @ 2 $ } ; 0 : @ 2 < < + . @ { , { { + { [ $ - = 4 = 1 $ 2 $ $ - l & L L * / a a * z * = 5 $ $ . @ @ . @ - * Y b L * N $ $ $ = y * ,.* a = 0 : $ % 1 0 $ @ @ . + + > + + + < +   < + @ @ . @ 9 $ @ . 9 @ + + > + > +   > [ @ + . + + + > > , A , > { { { + > + + @ 2 $ } ; 0 : @ 2 < < + . @ { , { { + { [ $ - = 4 = 1 $ 2 $ $ - l & L L * / a a * z * = 5 $ $ . @ @ . @ - * Y b L * N $ $ $ = y * ,.* a = 0 : $ % 1 0 $ @ @ . + + > + + + < +   < + @ @ . @ 9 $ @ . 9 @ + + > + > +   > [ @ + . + + + > > , A , > { { { + > + + @ 2 $ } ; 0 : @ 2 < < + . @ { , { { + { [ $ - ",
"m @ . [ [ [ @ @ , { , ' + [ 1 - 4 4 l 4 m $ 2 $ $ % 4 e z z 5 0 - a * F * * = - 0 $ @ 2 @ $ = W T j a = ; ; $ ; = = a * = ; 0 : # l % $ $ $ @ < + > +   +     + 3 9 $ 1 $ @ $ @ + + + + +   + { + , { { v @ @ @ < C   > + { > { { { { { ' v   + < # m 0 1 $ 0 : m @ . [ [ [ @ @ , { , ' + [ 1 - 4 4 l 4 m $ 2 $ $ % 4 e z z 5 0 - a * F * * = - 0 $ @ 2 @ $ = W T j a = ; ; $ ; = = a * = ; 0 : # l % $ $ $ @ < + > +   +     + 3 9 $ 1 $ @ $ @ + + + + +   + { + , { { v @ @ @ < C   > + { > { { { { { ' v   + < # m 0 1 $ 0 : m @ . [ [ [ @ @ , { , ' + [ 1 - 4 4 l 4 m $ 2 $ $ % 4 e z z 5 0 - a * F * * = - 0 $ @ 2 @ $ = W T j a = ; ; $ ; = = a * = ; 0 : # l % $ $ $ @ < + > +   +     + 3 9 $ 1 $ @ $ @ + + + + +   + { + , { { v @ @ @ < C   > + { > { { { { { ' v   + < # m 0 1 $ 0 : m @ . [ [ [ @ @ , { , ' + [ 1 - ",
"9 @ @ @ # $ 0 1 @ , { , + , 2 k - 0 a 4 ; $ 2 $ $ $ - = = = $ 1 r % l a F y e e 4 0 $ # @ @ $ 0 = a * l ^ $ $ 1 } 0 4 = ^ 0 0 : m $ $ } 9 % @ +   > + + + { @ . @ $ 0 t l # @ [ @ . + +   + + + +   + > + > 2 . @ 2 + + { + v >   , > { > + . + @ m $ 1 } 0 1 : 9 @ @ @ # $ 0 1 @ , { , + , 2 k - 0 a 4 ; $ 2 $ $ $ - = = = $ 1 r % l a F y e e 4 0 $ # @ @ $ 0 = a * l ^ $ $ 1 } 0 4 = ^ 0 0 : m $ $ } 9 % @ +   > + + + { @ . @ $ 0 t l # @ [ @ . + +   + + + +   + > + > 2 . @ 2 + + { + v >   , > { > + . + @ m $ 1 } 0 1 : 9 @ @ @ # $ 0 1 @ , { , + , 2 k - 0 a 4 ; $ 2 $ $ $ - = = = $ 1 r % l a F y e e 4 0 $ # @ @ $ 0 = a * l ^ $ $ 1 } 0 4 = ^ 0 0 : m $ $ } 9 % @ +   > + + + { @ . @ $ 0 t l # @ [ @ . + +   + + + +   + > + > 2 . @ 2 + + { + v >   , > { > + . + @ m $ 1 } 0 1 : 9 @ @ @ # $ 0 1 @ , { , + , 2 k ",
"m # @ @ $ = * = $ + {   { + 2 1 1 } 4 l - - 2 @ 2 $ 1 0 - 0 1 $ @ $ $ 4 a z j L q / r $ # 9 2 0 0 4 4 a / = ; $ ; $ ; 0 0 ^ 0 : . . . @ # % .   + { '   > +   @ 9 1 % a - ; @ . +   >     { [ > [ > + [   + . < . + @ <   +   > {   { [   [ . @ # 1 1 ; ; ; $ : m # @ @ $ = * = $ + {   { + 2 1 1 } 4 l - - 2 @ 2 $ 1 0 - 0 1 $ @ $ $ 4 a z j L q / r $ # 9 2 0 0 4 4 a / = ; $ ; $ ; 0 0 ^ 0 : . . . @ # % .   + { '   > +   @ 9 1 % a - ; @ . +   >     { [ > [ > + [   + . < . + @ <   +   > {   { [   [ . @ # 1 1 ; ; ; $ : m # @ @ $ = * = $ + {   { + 2 1 1 } 4 l - - 2 @ 2 $ 1 0 - 0 1 $ @ $ $ 4 a z j L q / r $ # 9 2 0 0 4 4 a / = ; $ ; $ ; 0 0 ^ 0 : . . . @ # % .   + { '   > +   @ 9 1 % a - ; @ . +   >     { [ > [ > + [   + . < . + @ <   +   > {   { [   [ . @ # 1 1 ; ; ; $ : m # @ @ $ = * = $ + {   { + 2 1 ",
"@ $ # . $ e e l 0 [ { { , [ [ J 2 # 5 4 0 4 0 m @ 2 $ $ 1 0 # 2 @ @ $ r 0 a z & O & - $ $ 2 $ $ 1 % z s y ( 5 0 ; $ ; r = / / : @ @ < [ < + @   { > , ' {   + + 2 9 1 - * 1 @ + > [ + { { > + , 2 < + > [ + @ [ @ . < [ < + +   + + [ + @ @ @ 1 $ ; = $ $ ; $ : @ $ # . $ e e l 0 [ { { , [ [ J 2 # 5 4 0 4 0 m @ 2 $ $ 1 0 # 2 @ @ $ r 0 a z & O & - $ $ 2 $ $ 1 % z s y ( 5 0 ; $ ; r = / / : @ @ < [ < + @   { > , ' {   + + 2 9 1 - * 1 @ + > [ + { { > + , 2 < + > [ + @ [ @ . < [ < + +   + + [ + @ @ @ 1 $ ; = $ $ ; $ : @ $ # . $ e e l 0 [ { { , [ [ J 2 # 5 4 0 4 0 m @ 2 $ $ 1 0 # 2 @ @ $ r 0 a z & O & - $ $ 2 $ $ 1 % z s y ( 5 0 ; $ ; r = / / : @ @ < [ < + @   { > , ' {   + + 2 9 1 - * 1 @ + > [ + { { > + , 2 < + > [ + @ [ @ . < [ < + +   + + [ + @ @ @ 1 $ ; = $ $ ; $ : @ $ # . $ e e l 0 [ { { , [ [ J ",
"1 2 2 @ $ = a = 4 # + v , + [ 2 2 m ; 4 0 - = 1 $ @ $ @ $ - } $ @ # $ 0 ; = f s W e l 1 $ $ 1 - 0 - F b z e a = 0 0 0 ; = z V : + < + B   { > , ' ' A ! ' { ' + < @ @ $ $ @ . [ ,   { {   { . 9 1 { +   { +   + @ + < < + +   + @ < . . . 2 $ $ 1 $ 1 ; 1 $ # : 1 2 2 @ $ = a = 4 # + v , + [ 2 2 m ; 4 0 - = 1 $ @ $ @ $ - } $ @ # $ 0 ; = f s W e l 1 $ $ 1 - 0 - F b z e a = 0 0 0 ; = z V : + < + B   { > , ' ' A ! ' { ' + < @ @ $ $ @ . [ ,   { {   { . 9 1 { +   { +   + @ + < < + +   + @ < . . . 2 $ $ 1 $ 1 ; 1 $ # : 1 2 2 @ $ = a = 4 # + v , + [ 2 2 m ; 4 0 - = 1 $ @ $ @ $ - } $ @ # $ 0 ; = f s W e l 1 $ $ 1 - 0 - F b z e a = 0 0 0 ; = z V : + < + B   { > , ' ' A ! ' { ' + < @ @ $ $ @ . [ ,   { {   { . 9 1 { +   { +   + @ + < < + +   + @ < . . . 2 $ $ 1 $ 1 ; 1 $ # : 1 2 2 @ $ = a = 4 # + v , + [ 2 ",
"$ $ m . # $ / a = m . {   , [ J 2 m 1 - 0 0 = - 1 @ 2 $ $ 5 a 4 0 $ $ ; $ } % 4 y z * 0 $ $ 1 5 0 0 I '.O V z = % 0 $ 0 = I z : { { ,   { > { { ' ! 6 ' ! ' >   + + . + @ [ @ + > { ' { v + m 2 < + ' { > @ 2 < + @ @ 2 + . + < @ + @ 2 $ $ $ 1 0 $ $ $ $ $ $ : $ $ m . # $ / a = m . {   , [ J 2 m 1 - 0 0 = - 1 @ 2 $ $ 5 a 4 0 $ $ ; $ } % 4 y z * 0 $ $ 1 5 0 0 I '.O V z = % 0 $ 0 = I z : { { ,   { > { { ' ! 6 ' ! ' >   + + . + @ [ @ + > { ' { v + m 2 < + ' { > @ 2 < + @ @ 2 + . + < @ + @ 2 $ $ $ 1 0 $ $ $ $ $ $ : $ $ m . # $ / a = m . {   , [ J 2 m 1 - 0 0 = - 1 @ 2 $ $ 5 a 4 0 $ $ ; $ } % 4 y z * 0 $ $ 1 5 0 0 I '.O V z = % 0 $ 0 = I z : { { ,   { > { { ' ! 6 ' ! ' >   + + . + @ [ @ + > { ' { v + m 2 < + ' { > @ 2 < + @ @ 2 + . + < @ + @ 2 $ $ $ 1 0 $ $ $ $ $ $ : $ $ m . # $ / a = m . {   , [ J ",
"$ 1 9 $ $ 0 a & 4 @ +   , v [ 2 2 2 ; - 1 0 1 4 - # m @ 0 / O q - 0 0 } 0 $ 0 4 y * a 5 ; 1 $ k d 1 4 _ T & y / l 0 ; ; 0 = a : >   + { { { ' { o ' ! { 6 { { { , + + + M + [ B { + { >   { < + , > , + { + [ [ < @ ; 0 # @ @ 2 2 $ $ 1 - 0 1 0 1 $ # - 0 ; $ : $ 1 9 $ $ 0 a & 4 @ +   , v [ 2 2 2 ; - 1 0 1 4 - # m @ 0 / O q - 0 0 } 0 $ 0 4 y * a 5 ; 1 $ k d 1 4 _ T & y / l 0 ; ; 0 = a : >   + { { { ' { o ' ! { 6 { { { , + + + M + [ B { + { >   { < + , > , + { + [ [ < @ ; 0 # @ @ 2 2 $ $ 1 - 0 1 0 1 $ # - 0 ; $ : $ 1 9 $ $ 0 a & 4 @ +   , v [ 2 2 2 ; - 1 0 1 4 - # m @ 0 / O q - 0 0 } 0 $ 0 4 y * a 5 ; 1 $ k d 1 4 _ T & y / l 0 ; ; 0 = a : >   + { { { ' { o ' ! { 6 { { { , + + + M + [ B { + { >   { < + , > , + { + [ [ < @ ; 0 # @ @ 2 2 $ $ 1 - 0 1 0 1 $ # - 0 ; $ : $ 1 9 $ $ 0 a & 4 @ +   , v [ 2 ",
"0 - 1 $ 0 a & t = # + , {   [ 3 [ 2 1 0 = 0 - - 5 ; $ 1 0 a j j l % r ; $ # $ 0 4 a a % 0 $ 1 } } 0 - F %.j z * a = 0 ; ; 0 - : > , > {     ' { { ' ! ) ! { > { + {   + +   + > { , { , > v + > v { B , > { + @ [ @ $ $ $ 0 $ $ $ $ 0 4 l ; } 0 $ 1 $ $ $ $ 0 : 0 - 1 $ 0 a & t = # + , {   [ 3 [ 2 1 0 = 0 - - 5 ; $ 1 0 a j j l % r ; $ # $ 0 4 a a % 0 $ 1 } } 0 - F %.j z * a = 0 ; ; 0 - : > , > {     ' { { ' ! ) ! { > { + {   + +   + > { , { , > v + > v { B , > { + @ [ @ $ $ $ 0 $ $ $ $ 0 4 l ; } 0 $ 1 $ $ $ $ 0 : 0 - 1 $ 0 a & t = # + , {   [ 3 [ 2 1 0 = 0 - - 5 ; $ 1 0 a j j l % r ; $ # $ 0 4 a a % 0 $ 1 } } 0 - F %.j z * a = 0 ; ; 0 - : > , > {     ' { { ' ! ) ! { > { + {   + +   + > { , { , > v + > v { B , > { + @ [ @ $ $ $ 0 $ $ $ $ 0 4 l ; } 0 $ 1 $ $ $ $ 0 : 0 - 1 $ 0 a & t = # + , {   [ 3 ",
"k 0 0 - a j _ t e $ [ { { { ,   [ @ # 1 5 4 5 0 - - 5 1 = e s j a - 0 0 h h 2 $ 0 - l 4 = % 0 $ # 1 0 * K p t e a a 0 } ; 0 ; : { [   +   { ! ' ! ) ' ! ' ! 6   { { + [ . +   , { { { { ,   +   {   {   { + [ < + . @ @ 2 # $ ; $ ; 5 = ; 0 # 1 $ # $ $ $ 1 0 : k 0 0 - a j _ t e $ [ { { { ,   [ @ # 1 5 4 5 0 - - 5 1 = e s j a - 0 0 h h 2 $ 0 - l 4 = % 0 $ # 1 0 * K p t e a a 0 } ; 0 ; : { [   +   { ! ' ! ) ' ! ' ! 6   { { + [ . +   , { { { { ,   +   {   {   { + [ < + . @ @ 2 # $ ; $ ; 5 = ; 0 # 1 $ # $ $ $ 1 0 : k 0 0 - a j _ t e $ [ { { { ,   [ @ # 1 5 4 5 0 - - 5 1 = e s j a - 0 0 h h 2 $ 0 - l 4 = % 0 $ # 1 0 * K p t e a a 0 } ; 0 ; : { [   +   { ! ' ! ) ' ! ' ! 6   { { + [ . +   , { { { { ,   +   {   {   { + [ < + . @ @ 2 # $ ; $ ; 5 = ; 0 # 1 $ # $ $ $ 1 0 : k 0 0 - a j _ t e $ [ { { { ,   ",
"1 | 5 * & t L t & $ @       + [ + [ @ 9 0 = f = = l * y * z & j q 4 1 $ $ @ 9 @ 1 0 - * a l 4 = - } 4 * j b L z a a - ; $ 9 0 : ' { v   3   { { 6 ' ! ! ! A ' ;.+ > + B + > { ' { { ' { { { + { + {   + {   + < @ @ @ 9 $ $ ; 0 $ $ - 0 1 $ $ 9 # $ 9 $ ; 0 h : 1 | 5 * & t L t & $ @       + [ + [ @ 9 0 = f = = l * y * z & j q 4 1 $ $ @ 9 @ 1 0 - * a l 4 = - } 4 * j b L z a a - ; $ 9 0 : ' { v   3   { { 6 ' ! ! ! A ' ;.+ > + B + > { ' { { ' { { { + { + {   + {   + < @ @ @ 9 $ $ ; 0 $ $ - 0 1 $ $ 9 # $ 9 $ ; 0 h : 1 | 5 * & t L t & $ @       + [ + [ @ 9 0 = f = = l * y * z & j q 4 1 $ $ @ 9 @ 1 0 - * a l 4 = - } 4 * j b L z a a - ; $ 9 0 : ' { v   3   { { 6 ' ! ! ! A ' ;.+ > + B + > { ' { { ' { { { + { + {   + {   + < @ @ @ 9 $ $ ; 0 $ $ - 0 1 $ $ 9 # $ 9 $ ; 0 h : 1 | 5 * & t L t & $ @       + [ ",
"2 - 4 * j _ p u z = 2 + + v + , [ + + @ m ; - = = = 4 a * e e z q 4 0 } $ 9 @ 9 $ ; 5 4 q e * l % - = * j T %.L e = = 0 ; ; ; : { , > v   , { 6 ' o ' ! ' 6 ! ' ' { 2   { { { { { ' { ' ' , { {   + { + + + + [ @ @ # $ 0 a c 0 ; ; $ $ 1 h $ 2 @ h $ @ # @ < : 2 - 4 * j _ p u z = 2 + + v + , [ + + @ m ; - = = = 4 a * e e z q 4 0 } $ 9 @ 9 $ ; 5 4 q e * l % - = * j T %.L e = = 0 ; ; ; : { , > v   , { 6 ' o ' ! ' 6 ! ' ' { 2   { { { { { ' { ' ' , { {   + { + + + + [ @ @ # $ 0 a c 0 ; ; $ $ 1 h $ 2 @ h $ @ # @ < : 2 - 4 * j _ p u z = 2 + + v + , [ + + @ m ; - = = = 4 a * e e z q 4 0 } $ 9 @ 9 $ ; 5 4 q e * l % - = * j T %.L e = = 0 ; ; ; : { , > v   , { 6 ' o ' ! ' 6 ! ' ' { 2   { { { { { ' { ' ' , { {   + { + + + + [ @ @ # $ 0 a c 0 ; ; $ $ 1 h $ 2 @ h $ @ # @ < : 2 - 4 * j _ p u z = 2 + + v + , ",
"2 0 5 * q j _ : _ = . +     v     [ , + . $ 0 % 0 0 1 - = a F & z a = ; $ @ . @ $ $ 0 4 * z & ( = a l * e L -.T e / * g r ; 0 : 6 { ' ' { , ' { , 6 { ! 6 ' { ! { { + B + + ' { { { , v { { { {   v + [ > @ @ @ 2 0 0 - 5 q j l 5 $ 1 $ $ $ 1 } $ 2 $ @ C + + : 2 0 5 * q j _ : _ = . +     v     [ , + . $ 0 % 0 0 1 - = a F & z a = ; $ @ . @ $ $ 0 4 * z & ( = a l * e L -.T e / * g r ; 0 : 6 { ' ' { , ' { , 6 { ! 6 ' { ! { { + B + + ' { { { , v { { { {   v + [ > @ @ @ 2 0 0 - 5 q j l 5 $ 1 $ $ $ 1 } $ 2 $ @ C + + : 2 0 5 * q j _ : _ = . +     v     [ , + . $ 0 % 0 0 1 - = a F & z a = ; $ @ . @ $ $ 0 4 * z & ( = a l * e L -.T e / * g r ; 0 : 6 { ' ' { , ' { , 6 { ! 6 ' { ! { { + B + + ' { { { , v { { { {   v + [ > @ @ @ 2 0 0 - 5 q j l 5 $ 1 $ $ $ 1 } $ 2 $ @ C + + : 2 0 5 * q j _ : _ = . +     v   ",
"$ 1 % y V & L b z 0 # + + , + , + +     + . $ 0 1 $ $ $ 5 a & j * z 5 0 $ . @ @ # ; 0 = * a z p e 4 4 l z L w b & a 4 = % 0 ^ : ) ! 6 ! { 6 { ' { ' , ! 6 ' ! o ' { v 2 2 > { { ' + { ' {   { , { + < @ 3 . @ $ l F e q z y _ q % 0 0 $ $ $ 5 ; $ 9 + . + + + : $ 1 % y V & L b z 0 # + + , + , + +     + . $ 0 1 $ $ $ 5 a & j * z 5 0 $ . @ @ # ; 0 = * a z p e 4 4 l z L w b & a 4 = % 0 ^ : ) ! 6 ! { 6 { ' { ' , ! 6 ' ! o ' { v 2 2 > { { ' + { ' {   { , { + < @ 3 . @ $ l F e q z y _ q % 0 0 $ $ $ 5 ; $ 9 + . + + + : $ 1 % y V & L b z 0 # + + , + , + +     + . $ 0 1 $ $ $ 5 a & j * z 5 0 $ . @ @ # ; 0 = * a z p e 4 4 l z L w b & a 4 = % 0 ^ : ) ! 6 ! { 6 { ' { ' , ! 6 ' ! o ' { v 2 2 > { { ' + { ' {   { , { + < @ 3 . @ $ l F e q z y _ q % 0 0 $ $ $ 5 ; $ 9 + . + + + : $ 1 % y V & L b z 0 # + + , + , ",
"@ } 0 l e t G & a 1 @ 3 + v + + [ + + v + @ # $ $ # @ $ 0 4 W q y a l 0 0 # + @ $ ; $ 0 4 l ( s _ a / a j p b %.L y = = a g = : ! 6 ! { ! { { 6 { { ' { 6 { ' ! { {   + . + +   { B , {   { +   > @ [ @ @ @ h $ a j z t t L j a l 1 $ ; $ 0 5 0 h [ @ + < + + : @ } 0 l e t G & a 1 @ 3 + v + + [ + + v + @ # $ $ # @ $ 0 4 W q y a l 0 0 # + @ $ ; $ 0 4 l ( s _ a / a j p b %.L y = = a g = : ! 6 ! { ! { { 6 { { ' { 6 { ' ! { {   + . + +   { B , {   { +   > @ [ @ @ @ h $ a j z t t L j a l 1 $ ; $ 0 5 0 h [ @ + < + + : @ } 0 l e t G & a 1 @ 3 + v + + [ + + v + @ # $ $ # @ $ 0 4 W q y a l 0 0 # + @ $ ; $ 0 4 l ( s _ a / a j p b %.L y = = a g = : ! 6 ! { ! { { 6 { { ' { 6 { ' ! { {   + . + +   { B , {   { +   > @ [ @ @ @ h $ a j z t t L j a l 1 $ ; $ 0 5 0 h [ @ + < + + : @ } 0 l e t G & a 1 @ 3 + v + + ",
". $ = * y j t z = $ + 3   , , + @   + { +   @ 2 1 $ $ 2 1 = = * * a * = 0 m @ @ 2 $ 0 1 % 4 F q L z a 4 a z _ L %.V a a e a a : ) ) ! ! 7 ' ! 6 6 6 { 6 ' ! 6 ' { ' { { + + { {   , > + + + + + [ + @ C 9 9 # $ = & & & _ t & = 0 0 $ # $ 0 1 # @ @ > + + + + : . $ = * y j t z = $ + 3   , , + @   + { +   @ 2 1 $ $ 2 1 = = * * a * = 0 m @ @ 2 $ 0 1 % 4 F q L z a 4 a z _ L %.V a a e a a : ) ) ! ! 7 ' ! 6 6 6 { 6 ' ! 6 ' { ' { { + + { {   , > + + + + + [ + @ C 9 9 # $ = & & & _ t & = 0 0 $ # $ 0 1 # @ @ > + + + + : . $ = * y j t z = $ + 3   , , + @   + { +   @ 2 1 $ $ 2 1 = = * * a * = 0 m @ @ 2 $ 0 1 % 4 F q L z a 4 a z _ L %.V a a e a a : ) ) ! ! 7 ' ! 6 6 6 { 6 ' ! 6 ' { ' { { + + { {   , > + + + + + [ + @ C 9 9 # $ = & & & _ t & = 0 0 $ # $ 0 1 # @ @ > + + + + : . $ = * y j t z = $ + 3   , , + ",
"$ 1 = e * q L a ; @ . + + +   [ + [   , > + @ @ $ @ @ @ 1 0 0 % l 4 a 4 0 9 @ @ $ $ $ $ $ 0 4 y V t e 4 = a z p T w z ( y z V : ).! 7 ) 6 ! 6 ! ' ! 6 ' 6 { ! ' ' { {     + . + > + + + + . < . @ @ # 2 $ $ 0 - = a ( q j & a ^ # h # @ 1 # $ 9 @ . + + . + [ : $ 1 = e * q L a ; @ . + + +   [ + [   , > + @ @ $ @ @ @ 1 0 0 % l 4 a 4 0 9 @ @ $ $ $ $ $ 0 4 y V t e 4 = a z p T w z ( y z V : ).! 7 ) 6 ! 6 ! ' ! 6 ' 6 { ! ' ' { {     + . + > + + + + . < . @ @ # 2 $ $ 0 - = a ( q j & a ^ # h # @ 1 # $ 9 @ . + + . + [ : $ 1 = e * q L a ; @ . + + +   [ + [   , > + @ @ $ @ @ @ 1 0 0 % l 4 a 4 0 9 @ @ $ $ $ $ $ 0 4 y V t e 4 = a z p T w z ( y z V : ).! 7 ) 6 ! 6 ! ' ! 6 ' 6 { ! ' ' { {     + . + > + + + + . < . @ @ # 2 $ $ 0 - = a ( q j & a ^ # h # @ 1 # $ 9 @ . + + . + [ : $ 1 = e * q L a ; @ . + + +   [ ",
"$ 0 l z e & & a $ @ + v { { v ' + , , + {   + @ m # [ @ @ @ @ - 0 % 4 y - $ @ + # 9 $ # $ $ - f F * y 4 = a * j _ Z j ( e & j : !.!.) ! ! ' ' ' ' ! A 6 ' ' { { 6 { { B [ @ C @ 3 . C 2 $ m @ @ # h 0 r = N = / l a & t & a = r $ h 9 $ r $ @ @ @ @ > + [ + > : $ 0 l z e & & a $ @ + v { { v ' + , , + {   + @ m # [ @ @ @ @ - 0 % 4 y - $ @ + # 9 $ # $ $ - f F * y 4 = a * j _ Z j ( e & j : !.!.) ! ! ' ' ' ' ! A 6 ' ' { { 6 { { B [ @ C @ 3 . C 2 $ m @ @ # h 0 r = N = / l a & t & a = r $ h 9 $ r $ @ @ @ @ > + [ + > : $ 0 l z e & & a $ @ + v { { v ' + , , + {   + @ m # [ @ @ @ @ - 0 % 4 y - $ @ + # 9 $ # $ $ - f F * y 4 = a * j _ Z j ( e & j : !.!.) ! ! ' ' ' ' ! A 6 ' ' { { 6 { { B [ @ C @ 3 . C 2 $ m @ @ # h 0 r = N = / l a & t & a = r $ h 9 $ r $ @ @ @ @ > + [ + > : $ 0 l z e & & a $ @ + v { { v ' ",
"1 4 a e & t y a $ @ , { ' , { ,   + , { +   + [ @ @ < [ + [ @ 1 } - = z 4 $ # 9 @ @ # @ @ # $ 0 4 = 4 ( * 4 a q _ & s V & _ t : ! 6 ! 6 ! ) ! ! 6 { 6 ' o { ' ' { '   + @ @ $ $ # $ 1 ; 0 4 z 0 0 0 4 l * a y z a * e I 4 = ^ 1 ; $ - 1 2 # 9 [ + < 2 @ . + , : 1 4 a e & t y a $ @ , { ' , { ,   + , { +   + [ @ @ < [ + [ @ 1 } - = z 4 $ # 9 @ @ # @ @ # $ 0 4 = 4 ( * 4 a q _ & s V & _ t : ! 6 ! 6 ! ) ! ! 6 { 6 ' o { ' ' { '   + @ @ $ $ # $ 1 ; 0 4 z 0 0 0 4 l * a y z a * e I 4 = ^ 1 ; $ - 1 2 # 9 [ + < 2 @ . + , : 1 4 a e & t y a $ @ , { ' , { ,   + , { +   + [ @ @ < [ + [ @ 1 } - = z 4 $ # 9 @ @ # @ @ # $ 0 4 = 4 ( * 4 a q _ & s V & _ t : ! 6 ! 6 ! ) ! ! 6 { 6 ' o { ' ' { '   + @ @ $ $ # $ 1 ; 0 4 z 0 0 0 4 l * a y z a * e I 4 = ^ 1 ; $ - 1 2 # 9 [ + < 2 @ . + , : 1 4 a e & t y a $ @ , { ' , { , ",
"= * l * z & & = $ . C > v ' 6 { , , , v { , +   . @ [ { + @ . $ 1 } - a y % 0 @ # @ @ . . @ @ # ; ; 4 l a a ( V p e z ( e V & : ) , 7 ! , , 6 ' { ' ' { { , { v ' + { @ [ 1 - - 5 = a q q e = 5 = z q e e z L & y I y g N 0 0 r } 0 0 @ @ @ @ @ @ 1 . + + + { : = * l * z & & = $ . C > v ' 6 { , , , v { , +   . @ [ { + @ . $ 1 } - a y % 0 @ # @ @ . . @ @ # ; ; 4 l a a ( V p e z ( e V & : ) , 7 ! , , 6 ' { ' ' { { , { v ' + { @ [ 1 - - 5 = a q q e = 5 = z q e e z L & y I y g N 0 0 r } 0 0 @ @ @ @ @ @ 1 . + + + { : = * l * z & & = $ . C > v ' 6 { , , , v { , +   . @ [ { + @ . $ 1 } - a y % 0 @ # @ @ . . @ @ # ; ; 4 l a a ( V p e z ( e V & : ) , 7 ! , , 6 ' { ' ' { { , { v ' + { @ [ 1 - - 5 = a q q e = 5 = z q e e z L & y I y g N 0 0 r } 0 0 @ @ @ @ @ @ 1 . + + + { : = * l * z & & = $ . C > v ' 6 { ",
"5 4 l a y z V 5 0 @ + + { { , ' + + { , > { +   v 2 @ . [ # $ - $ 1 1 = * l 0 $ $ . + @ + . . @ # m - - = 4 * t a g e & z X ( : 7 ! ' ! 6 { { 6 o { , , { , { , + + [ . m - y z z f 4 * = - 0 ; = a e j t _ & j e a a % 0 0 ; 1 ; $ $ @ 2 < [ @ 2 . + [ , , , : 5 4 l a y z V 5 0 @ + + { { , ' + + { , > { +   v 2 @ . [ # $ - $ 1 1 = * l 0 $ $ . + @ + . . @ # m - - = 4 * t a g e & z X ( : 7 ! ' ! 6 { { 6 o { , , { , { , + + [ . m - y z z f 4 * = - 0 ; = a e j t _ & j e a a % 0 0 ; 1 ; $ $ @ 2 < [ @ 2 . + [ , , , : 5 4 l a y z V 5 0 @ + + { { , ' + + { , > { +   v 2 @ . [ # $ - $ 1 1 = * l 0 $ $ . + @ + . . @ # m - - = 4 * t a g e & z X ( : 7 ! ' ! 6 { { 6 o { , , { , { , + + [ . m - y z z f 4 * = - 0 ; = a e j t _ & j e a a % 0 0 ; 1 ; $ $ @ 2 < [ @ 2 . + [ , , , : 5 4 l a y z V 5 0 @ + + { { , ' ",
"0 0 0 5 #.q q = ; @ @ + { , {   , ,   { , ' , {   + + + h 1 1 k 1 $ $ 0 = 4 - $ @ . C   + + . @ @ # $ 1 ; 0 = V = = ( T _ & a : ! 6 6 6 ' { , ,   + + + @ + @ . 2 2 $ $ 4 ; 0 = = 0 0 ; 0 r 0 0 0 - e O L L p p j z e = = = = 0 $ # @ . @ 2 @ [ + 3 [ @ [ [ { : 0 0 0 5 #.q q = ; @ @ + { , {   , ,   { , ' , {   + + + h 1 1 k 1 $ $ 0 = 4 - $ @ . C   + + . @ @ # $ 1 ; 0 = V = = ( T _ & a : ! 6 6 6 ' { , ,   + + + @ + @ . 2 2 $ $ 4 ; 0 = = 0 0 ; 0 r 0 0 0 - e O L L p p j z e = = = = 0 $ # @ . @ 2 @ [ + 3 [ @ [ [ { : 0 0 0 5 #.q q = ; @ @ + { , {   , ,   { , ' , {   + + + h 1 1 k 1 $ $ 0 = 4 - $ @ . C   + + . @ @ # $ 1 ; 0 = V = = ( T _ & a : ! 6 6 6 ' { , ,   + + + @ + @ . 2 2 $ $ 4 ; 0 = = 0 0 ; 0 r 0 0 0 - e O L L p p j z e = = = = 0 $ # @ . @ 2 @ [ + 3 [ @ [ [ { : 0 0 0 5 #.q q = ; @ @ + { , {   ",
"; $ } % = e e l 0 # @ + + { { { { { , , { , { {   , [ + 2 - - 1 $ @ 1 - 5 = r 2 @ < +   + < + . @ @ 2 $ $ 1 ; N 0 = * T b T ( : ! , { ' , +   + [ 2 1 9 1 1 2 k - = $ $ # @ $ $ 2 # 9 2 $ 0 ^ 0 r 0 a & L p L V X e = = 0 ; $ $ @ @ 3 < [ . +   [   3   +   , : ; $ } % = e e l 0 # @ + + { { { { { , , { , { {   , [ + 2 - - 1 $ @ 1 - 5 = r 2 @ < +   + < + . @ @ 2 $ $ 1 ; N 0 = * T b T ( : ! , { ' , +   + [ 2 1 9 1 1 2 k - = $ $ # @ $ $ 2 # 9 2 $ 0 ^ 0 r 0 a & L p L V X e = = 0 ; $ $ @ @ 3 < [ . +   [   3   +   , : ; $ } % = e e l 0 # @ + + { { { { { , , { , { {   , [ + 2 - - 1 $ @ 1 - 5 = r 2 @ < +   + < + . @ @ 2 $ $ 1 ; N 0 = * T b T ( : ! , { ' , +   + [ 2 1 9 1 1 2 k - = $ $ # @ $ $ 2 # 9 2 $ 0 ^ 0 r 0 a & L p L V X e = = 0 ; $ $ @ @ 3 < [ . +   [   3   +   , : ; $ } % = e e l 0 # @ + + { { { ",
"@ 0 ; 5 5 * z / 0 @ . < + ,   { , ' { ' { {   { { {   @ 3 0 c $ 2 2 m | 1 ; 1 # 2 @ @ . + @ + @ @ @ @ 9 2 # $ $ 0 ^ ( t L b & : 6 > { { + + [ @ $ = - 0 $ # 2 = 0 $ @ @ + @ < . @ < + 9 @ 5 - 0 1 0 z q a a = S 5 ; 0 $ 9 $ @ @ @ + < > + @ + @ [ +   , { , { : @ 0 ; 5 5 * z / 0 @ . < + ,   { , ' { ' { {   { { {   @ 3 0 c $ 2 2 m | 1 ; 1 # 2 @ @ . + @ + @ @ @ @ 9 2 # $ $ 0 ^ ( t L b & : 6 > { { + + [ @ $ = - 0 $ # 2 = 0 $ @ @ + @ < . @ < + 9 @ 5 - 0 1 0 z q a a = S 5 ; 0 $ 9 $ @ @ @ + < > + @ + @ [ +   , { , { : @ 0 ; 5 5 * z / 0 @ . < + ,   { , ' { ' { {   { { {   @ 3 0 c $ 2 2 m | 1 ; 1 # 2 @ @ . + @ + @ @ @ @ 9 2 # $ $ 0 ^ ( t L b & : 6 > { { + + [ @ $ = - 0 $ # 2 = 0 $ @ @ + @ < . @ < + 9 @ 5 - 0 1 0 z q a a = S 5 ; 0 $ 9 $ @ @ @ + < > + @ + @ [ +   , { , { : @ 0 ; 5 5 * z / 0 @ . < + ,   { ",
"@ $ $ 0 0 = l l - $ $ +   v , { ' o { , { , {   { , + [ @ $ 1 1 $ 2 @ $ m $ $ 2 @ @ @ @   C . + @ . @ @ # @ 9 $ ; 0 4 z T L b :   { , [ [ @ @ # - - 0 2 # @ @ @ . @ [ . + + + + + + @ [ 9 $ ; $ ; = 4 = ^ 0 0 $ ; $ 9 2 @ @ + . + + + [   + , >   { + { , { { : @ $ $ 0 0 = l l - $ $ +   v , { ' o { , { , {   { , + [ @ $ 1 1 $ 2 @ $ m $ $ 2 @ @ @ @   C . + @ . @ @ # @ 9 $ ; 0 4 z T L b :   { , [ [ @ @ # - - 0 2 # @ @ @ . @ [ . + + + + + + @ [ 9 $ ; $ ; = 4 = ^ 0 0 $ ; $ 9 2 @ @ + . + + + [   + , >   { + { , { { : @ $ $ 0 0 = l l - $ $ +   v , { ' o { , { , {   { , + [ @ $ 1 1 $ 2 @ $ m $ $ 2 @ @ @ @   C . + @ . @ @ # @ 9 $ ; 0 4 z T L b :   { , [ [ @ @ # - - 0 2 # @ @ @ . @ [ . + + + + + + @ [ 9 $ ; $ ; = 4 = ^ 0 0 $ ; $ 9 2 @ @ + . + + + [   + , >   { + { , { { : @ $ $ 0 0 = l l - $ $ +   v , { ",
"$ $ $ 1 0 4 4 - r # @ > +   + { { ' ' { , ' { { { + , + . 1 1 - - 1 2 @ # 2 2 $ # 2 2 @ . + @ 2 @ < @ . 2 9 2 $ $ ; % a F T b : [ @ 3 @ 2 1 } k l F 0 @ 2 @ [ + + + 3 + + , + > {   + @ @ @ h 1 0 5 0 0 0 $ $ @ @ @ 2 < < @ @ 3     + v + , + v + , { , , { 6 : $ $ $ 1 0 4 4 - r # @ > +   + { { ' ' { , ' { { { + , + . 1 1 - - 1 2 @ # 2 2 $ # 2 2 @ . + @ 2 @ < @ . 2 9 2 $ $ ; % a F T b : [ @ 3 @ 2 1 } k l F 0 @ 2 @ [ + + + 3 + + , + > {   + @ @ @ h 1 0 5 0 0 0 $ $ @ @ @ 2 < < @ @ 3     + v + , + v + , { , , { 6 : $ $ $ 1 0 4 4 - r # @ > +   + { { ' ' { , ' { { { + , + . 1 1 - - 1 2 @ # 2 2 $ # 2 2 @ . + @ 2 @ < @ . 2 9 2 $ $ ; % a F T b : [ @ 3 @ 2 1 } k l F 0 @ 2 @ [ + + + 3 + + , + > {   + @ @ @ h 1 0 5 0 0 0 $ $ @ @ @ 2 < < @ @ 3     + v + , + v + , { , , { 6 : $ $ $ 1 0 4 4 - r # @ > +   + { ",
"# $ $ $ - l = - } 2 @ + + + , { ' { o ' ' { 6 ' + ,   [ 3 @ | f - k $ 2 2 # @ # 2 # $ # @ @ # $ $ # @ @ @ 2 9 # $ $ 0 = z u & : 2 $ 1 0 4 = e e _ ( 0 @ < 2 <   +       + {   { + { + . @ < $ 0 - a - 0 h . 9 @ @ < @ @ [ @ # 2 > v [     + +   { { , { A , , : # $ $ $ - l = - } 2 @ + + + , { ' { o ' ' { 6 ' + ,   [ 3 @ | f - k $ 2 2 # @ # 2 # $ # @ @ # $ $ # @ @ @ 2 9 # $ $ 0 = z u & : 2 $ 1 0 4 = e e _ ( 0 @ < 2 <   +       + {   { + { + . @ < $ 0 - a - 0 h . 9 @ @ < @ @ [ @ # 2 > v [     + +   { { , { A , , : # $ $ $ - l = - } 2 @ + + + , { ' { o ' ' { 6 ' + ,   [ 3 @ | f - k $ 2 2 # @ # 2 # $ # @ @ # $ $ # @ @ @ 2 9 # $ $ 0 = z u & : 2 $ 1 0 4 = e e _ ( 0 @ < 2 <   +       + {   { + { + . @ < $ 0 - a - 0 h . 9 @ @ < @ @ [ @ # 2 > v [     + +   { { , { A , , : # $ $ $ - l = - } 2 @ + + + , { ",
"@ @ $ $ 0 - 4 = 0 $ . + + +   , , { 6 ' o { { ' , { ,   + @ 1 - 1 1 | m 2 @ $ $ 0 1 $ $ $ # $ # ; $ $ # # 9 m @ $ # ^ ^ a & & : * F z * l - 0 1 - 1 $ [ [ v + ,   { { { { { { , , +   + < m $ 4 y % 0 @ @ . + + [ + + @ 2 m % @ [ > , v v , , { , , { ' , , { : @ @ $ $ 0 - 4 = 0 $ . + + +   , , { 6 ' o { { ' , { ,   + @ 1 - 1 1 | m 2 @ $ $ 0 1 $ $ $ # $ # ; $ $ # # 9 m @ $ # ^ ^ a & & : * F z * l - 0 1 - 1 $ [ [ v + ,   { { { { { { , , +   + < m $ 4 y % 0 @ @ . + + [ + + @ 2 m % @ [ > , v v , , { , , { ' , , { : @ @ $ $ 0 - 4 = 0 $ . + + +   , , { 6 ' o { { ' , { ,   + @ 1 - 1 1 | m 2 @ $ $ 0 1 $ $ $ # $ # ; $ $ # # 9 m @ $ # ^ ^ a & & : * F z * l - 0 1 - 1 $ [ [ v + ,   { { { { { { , , +   + < m $ 4 y % 0 @ @ . + + [ + + @ 2 m % @ [ > , v v , , { , , { ' , , { : @ @ $ $ 0 - 4 = 0 $ . + + +   , ",
"$ 1 $ 0 0 - = - 1 2 9 @ [ [ { B + ' { ' { ' { 6 { , + + [ [ @ 2 m $ 2 3 2 2 @ 2 $ 0 0 # # } ; 0 1 0 1 9 2 9 @ # h $ ; 0 / * p : 4 = r ; $ $ 0 $ $ < @ < > +   v + {   v   { { { > { + + @ $ ; 5 = } # @ < + + . @ . 2 $ $ $ @ + +   A     , + , + { , , { { ' : $ 1 $ 0 0 - = - 1 2 9 @ [ [ { B + ' { ' { ' { 6 { , + + [ [ @ 2 m $ 2 3 2 2 @ 2 $ 0 0 # # } ; 0 1 0 1 9 2 9 @ # h $ ; 0 / * p : 4 = r ; $ $ 0 $ $ < @ < > +   v + {   v   { { { > { + + @ $ ; 5 = } # @ < + + . @ . 2 $ $ $ @ + +   A     , + , + { , , { { ' : $ 1 $ 0 0 - = - 1 2 9 @ [ [ { B + ' { ' { ' { 6 { , + + [ [ @ 2 m $ 2 3 2 2 @ 2 $ 0 0 # # } ; 0 1 0 1 9 2 9 @ # h $ ; 0 / * p : 4 = r ; $ $ 0 $ $ < @ < > +   v + {   v   { { { > { + + @ $ ; 5 = } # @ < + + . @ . 2 $ $ $ @ + +   A     , + , + { , , { { ' : $ 1 $ 0 0 - = - 1 2 9 @ [ [ { B ",
"0 $ 1 1 ; 5 - 5 ; m @ < + + , ] { , { { , , { , { + 6 , + + + @ [ @ + . @ @ @ + . @ 2 $ $ $ 1 l 0 0 $ 0 $ # 9 $ $ # ; 0 = a L : $ $ @ 3 @ @ 2 $ @ 2 > 3 v +   { + { { + + {   { + [ + @ 2 $ - c 0 $ 9 + @ + + + + } % $ @ @ @ + { v { { + v   { , + { { ' , { : 0 $ 1 1 ; 5 - 5 ; m @ < + + , ] { , { { , , { , { + 6 , + + + @ [ @ + . @ @ @ + . @ 2 $ $ $ 1 l 0 0 $ 0 $ # 9 $ $ # ; 0 = a L : $ $ @ 3 @ @ 2 $ @ 2 > 3 v +   { + { { + + {   { + [ + @ 2 $ - c 0 $ 9 + @ + + + + } % $ @ @ @ + { v { { + v   { , + { { ' , { : 0 $ 1 1 ; 5 - 5 ; m @ < + + , ] { , { { , , { , { + 6 , + + + @ [ @ + . @ @ @ + . @ 2 $ $ $ 1 l 0 0 $ 0 $ # 9 $ $ # ; 0 = a L : $ $ @ 3 @ @ 2 $ @ 2 > 3 v +   { + { { + + {   { + [ + @ 2 $ - c 0 $ 9 + @ + + + + } % $ @ @ @ + { v { { + v   { , + { { ' , { : 0 $ 1 1 ; 5 - 5 ; m @ < + + , ] ",
"; k ; } 0 = 0 } 1 $ $ @ @ @ [ { +   {   { { { ' , ' , + +   + . [ + + + + @ + . @ [ @ # $ 1 0 - = ; $ 1 ; $ @ # # $ $ a e * ` : +   + [ + [ @ @ - + @ + 2   + , ' + , , { + + { [ + [ 2 - k - 0 1 @ [ +   + > [ @ $ @ [ + [ + +   , { , , [ + , + , , , { { 6 : ; k ; } 0 = 0 } 1 $ $ @ @ @ [ { +   {   { { { ' , ' , + +   + . [ + + + + @ + . @ [ @ # $ 1 0 - = ; $ 1 ; $ @ # # $ $ a e * ` : +   + [ + [ @ @ - + @ + 2   + , ' + , , { + + { [ + [ 2 - k - 0 1 @ [ +   + > [ @ $ @ [ + [ + +   , { , , [ + , + , , , { { 6 : ; k ; } 0 = 0 } 1 $ $ @ @ @ [ { +   {   { { { ' , ' , + +   + . [ + + + + @ + . @ [ @ # $ 1 0 - = ; $ 1 ; $ @ # # $ $ a e * ` : +   + [ + [ @ @ - + @ + 2   + , ' + , , { + + { [ + [ 2 - k - 0 1 @ [ +   + > [ @ $ @ [ + [ + +   , { , , [ + , + , , , { { 6 : ; k ; } 0 = 0 } 1 $ $ @ @ @ [ { ",
"S c - 5 - 1 % 0 % 5 1 # @ @   C   v > { , , { { { , { , [ + , +   +   ,       [ + < + 2 $ $ $ - 0 $ $ # $ $ # $ $ $ ; % = a e : {     { { + [ +   + , [ 2 3   , v {   +   +   v +   @ - - 0 } 1 $ @ . + + { [ { { [ > , + ' ' , { { , { [ + [ { [ , { { , , , : S c - 5 - 1 % 0 % 5 1 # @ @   C   v > { , , { { { , { , [ + , +   +   ,       [ + < + 2 $ $ $ - 0 $ $ # $ $ # $ $ $ ; % = a e : {     { { + [ +   + , [ 2 3   , v {   +   +   v +   @ - - 0 } 1 $ @ . + + { [ { { [ > , + ' ' , { { , { [ + [ { [ , { { , , , : S c - 5 - 1 % 0 % 5 1 # @ @   C   v > { , , { { { , { , [ + , +   +   ,       [ + < + 2 $ $ $ - 0 $ $ # $ $ # $ $ $ ; % = a e : {     { { + [ +   + , [ 2 3   , v {   +   +   v +   @ - - 0 } 1 $ @ . + + { [ { { [ > , + ' ' , { { , { [ + [ { [ , { { , , , : S c - 5 - 1 % 0 % 5 1 # @ @   C ",
"c 4 - N 0 = - = = = % } 9 @ 2 + @   +   + > , ' , { , + v +   [   +   B v   + + [   + . + . 2 $ $ # @ $ @ 9 $ # $ $ h 0 ; = ( : { { , { { , { { +   + + < 2 + { { + + [ 2 2 @ @ @ 2 2 $ $ 1 $ 1 @ @ + >     { , + + { { ' v A , , {   + , + + + + + , { { ' ' : c 4 - N 0 = - = = = % } 9 @ 2 + @   +   + > , ' , { , + v +   [   +   B v   + + [   + . + . 2 $ $ # @ $ @ 9 $ # $ $ h 0 ; = ( : { { , { { , { { +   + + < 2 + { { + + [ 2 2 @ @ @ 2 2 $ $ 1 $ 1 @ @ + >     { , + + { { ' v A , , {   + , + + + + + , { { ' ' : c 4 - N 0 = - = = = % } 9 @ 2 + @   +   + > , ' , { , + v +   [   +   B v   + + [   + . + . 2 $ $ # @ $ @ 9 $ # $ $ h 0 ; = ( : { { , { { , { { +   + + < 2 + { { + + [ 2 2 @ @ @ 2 2 $ $ 1 $ 1 @ @ + >     { , + + { { ' v A , , {   + , + + + + + , { { ' ' : c 4 - N 0 = - = = = % } 9 @ 2 + ",
"2 | c c - - = c l 4 - 0 0 $ 9 @ . + + > , ' { { , { , , , , + + + C { , + { + [ > + B , < @ @ 2 9 2 @ . # @ 2 $ # 9 $ ; ; = a : ! { ' { ' { ' { { { ' [ 3 @ +   { { + @ 0 % $ 2 - # . @ @ $ 1 # . + + + + {   { ' ' { , , ,   { { + { [ + [ . [ + , {   { { ! : 2 | c c - - = c l 4 - 0 0 $ 9 @ . + + > , ' { { , { , , , , + + + C { , + { + [ > + B , < @ @ 2 9 2 @ . # @ 2 $ # 9 $ ; ; = a : ! { ' { ' { ' { { { ' [ 3 @ +   { { + @ 0 % $ 2 - # . @ @ $ 1 # . + + + + {   { ' ' { , , ,   { { + { [ + [ . [ + , {   { { ! : 2 | c c - - = c l 4 - 0 0 $ 9 @ . + + > , ' { { , { , , , , + + + C { , + { + [ > + B , < @ @ 2 9 2 @ . # @ 2 $ # 9 $ ; ; = a : ! { ' { ' { ' { { { ' [ 3 @ +   { { + @ 0 % $ 2 - # . @ @ $ 1 # . + + + + {   { ' ' { , , ,   { { + { [ + [ . [ + , {   { { ! : 2 | c c - - = c l 4 - 0 0 $ 9 @ ",
"@ m 1 J $ 1 0 4 % * l % 0 % $ @ @ @ @ + + + +   { > , , + + [ 2 @ , ' , { + , + + { , + + + + < @ @ @ . @ @ 2 9 $ h # $ 0 = ( : ! ' 6 { ! 6 A 6 ' { { { @   , + { + . @ } - } * 0 @ 3 . @ 1 } $ @ + + { ' + { , { ,   { + { , + [ [ + [ m 1 m @ [ +   { 6 , 6 : @ m 1 J $ 1 0 4 % * l % 0 % $ @ @ @ @ + + + +   { > , , + + [ 2 @ , ' , { + , + + { , + + + + < @ @ @ . @ @ 2 9 $ h # $ 0 = ( : ! ' 6 { ! 6 A 6 ' { { { @   , + { + . @ } - } * 0 @ 3 . @ 1 } $ @ + + { ' + { , { ,   { + { , + [ [ + [ m 1 m @ [ +   { 6 , 6 : @ m 1 J $ 1 0 4 % * l % 0 % $ @ @ @ @ + + + +   { > , , + + [ 2 @ , ' , { + , + + { , + + + + < @ @ @ . @ @ 2 9 $ h # $ 0 = ( : ! ' 6 { ! 6 A 6 ' { { { @   , + { + . @ } - } * 0 @ 3 . @ 1 } $ @ + + { ' + { , { ,   { + { , + [ [ + [ m 1 m @ [ +   { 6 , 6 : @ m 1 J $ 1 0 4 % * l % 0 % $ @ ",
"+ . [ @ 2 $ - 4 y * * l % $ } $ @ . . . + [   { + , , +   v + + ' + ' A { { +   , > ,     + < @ # @ @ 2 2 $ @ $ # # 9 $ ; 4 a : 6 6 ! , 6 ' ! ! 6 { , + , +   B     + . $ - l - $ @ + + 3 } g } 2 [ ,   , { , , 6 { { {   , + + [ U 1 - 2 @ 2 [   , o , + , , : + . [ @ 2 $ - 4 y * * l % $ } $ @ . . . + [   { + , , +   v + + ' + ' A { { +   , > ,     + < @ # @ @ 2 2 $ @ $ # # 9 $ ; 4 a : 6 6 ! , 6 ' ! ! 6 { , + , +   B     + . $ - l - $ @ + + 3 } g } 2 [ ,   , { , , 6 { { {   , + + [ U 1 - 2 @ 2 [   , o , + , , : + . [ @ 2 $ - 4 y * * l % $ } $ @ . . . + [   { + , , +   v + + ' + ' A { { +   , > ,     + < @ # @ @ 2 2 $ @ $ # # 9 $ ; 4 a : 6 6 ! , 6 ' ! ! 6 { , + , +   B     + . $ - l - $ @ + + 3 } g } 2 [ ,   , { , , 6 { { {   , + + [ U 1 - 2 @ 2 [   , o , + , , : + . [ @ 2 $ - 4 y * * l % $ } $ ",
"+ 3 + . @ $ } 1 4 * F e 0 0 $ $ @ < 2 2 @ . +   , +   , +   +   , , > , ,   + { { > { , + { + 3 . h . @ @ # 9 # m $ ; ; ; % a : ! ' ! ! { ! 6 ) { ' { > {   {   + { . 2 $ 4 - ; m .   @ . . 1 # < > + { { , {     { { [ , + M @ 1 $ @ . . + . + { {   { ' , 6 : + 3 + . @ $ } 1 4 * F e 0 0 $ $ @ < 2 2 @ . +   , +   , +   +   , , > , ,   + { { > { , + { + 3 . h . @ @ # 9 # m $ ; ; ; % a : ! ' ! ! { ! 6 ) { ' { > {   {   + { . 2 $ 4 - ; m .   @ . . 1 # < > + { { , {     { { [ , + M @ 1 $ @ . . + . + { {   { ' , 6 : + 3 + . @ $ } 1 4 * F e 0 0 $ $ @ < 2 2 @ . +   , +   , +   +   , , > , ,   + { { > { , + { + 3 . h . @ @ # 9 # m $ ; ; ; % a : ! ' ! ! { ! 6 ) { ' { > {   {   + { . 2 $ 4 - ; m .   @ . . 1 # < > + { { , {     { { [ , + M @ 1 $ @ . . + . + { {   { ' , 6 : + 3 + . @ $ } 1 4 * F e 0 0 $ $ ",
"+ + + + + @ # 1 5 * z q 4 0 $ @ # + + < @ 2 @ @ + + [ + v + [ +   + { { { , + , , , B , >   + . @ @ @ @ 2 2 # @ $ $ # $ 0 = ( : ! 6 { ' ! ' { ' ! 6 { { > , +   + 3 $ 2 0 0 0 @ 9 @ 3   + . @ @ [ + ,   ' { , { { v   [ @ 1 } . @ . [ + [ + +   + { , { ' { { : + + + + + @ # 1 5 * z q 4 0 $ @ # + + < @ 2 @ @ + + [ + v + [ +   + { { { , + , , , B , >   + . @ @ @ @ 2 2 # @ $ $ # $ 0 = ( : ! 6 { ' ! ' { ' ! 6 { { > , +   + 3 $ 2 0 0 0 @ 9 @ 3   + . @ @ [ + ,   ' { , { { v   [ @ 1 } . @ . [ + [ + +   + { , { ' { { : + + + + + @ # 1 5 * z q 4 0 $ @ # + + < @ 2 @ @ + + [ + v + [ +   + { { { , + , , , B , >   + . @ @ @ @ 2 2 # @ $ $ # $ 0 = ( : ! 6 { ' ! ' { ' ! 6 { { > , +   + 3 $ 2 0 0 0 @ 9 @ 3   + . @ @ [ + ,   ' { , { { v   [ @ 1 } . @ . [ + [ + +   + { , { ' { { : + + + + + @ # 1 5 * z q 4 0 $ @ ",
"+   +   . + @ m 0 l z t e = ^ $ $ @ @ @ + @ +     + + ,   +   , { + , +     + { , > + { [ > + + . @ @ . @ 2 $ ; $ 0 ; 0 % / V : ! ' ! o 6 { ! { ! { { { v + + + m # $ 1 $ $ @ 2 @ + + + 3 @ + . + + + { , , v   +   @ m 2 @ [ . [ + + + + + , , { ' 6 { 6 { 6 : +   +   . + @ m 0 l z t e = ^ $ $ @ @ @ + @ +     + + ,   +   , { + , +     + { , > + { [ > + + . @ @ . @ 2 $ ; $ 0 ; 0 % / V : ! ' ! o 6 { ! { ! { { { v + + + m # $ 1 $ $ @ 2 @ + + + 3 @ + . + + + { , , v   +   @ m 2 @ [ . [ + + + + + , , { ' 6 { 6 { 6 : +   +   . + @ m 0 l z t e = ^ $ $ @ @ @ + @ +     + + ,   +   , { + , +     + { , > + { [ > + + . @ @ . @ 2 $ ; $ 0 ; 0 % / V : ! ' ! o 6 { ! { ! { { { v + + + m # $ 1 $ $ @ 2 @ + + + 3 @ + . + + + { , , v   +   @ m 2 @ [ . [ + + + + + , , { ' 6 { 6 { 6 : +   +   . + @ m 0 l z t e = ^ $ ",
"+ + { + + + @ @ $ 4 * z a = 0 $ 2 @ <   + + [ + [ +   + + [ + + . + ' , { v {   + , { + + { + + . $ [ @ @ 9 } = 0 % % N = a z : R ! ' ! { ! ' ! { ' { , { + @ 2 $ @ m $ @ @ @ @ < . + . C . + 3 + ,   + v + [ [ 2 @ [ + < + + + { { {   v , { { { o { , { { ! : + + { + + + @ @ $ 4 * z a = 0 $ 2 @ <   + + [ + [ +   + + [ + + . + ' , { v {   + , { + + { + + . $ [ @ @ 9 } = 0 % % N = a z : R ! ' ! { ! ' ! { ' { , { + @ 2 $ @ m $ @ @ @ @ < . + . C . + 3 + ,   + v + [ [ 2 @ [ + < + + + { { {   v , { { { o { , { { ! : + + { + + + @ @ $ 4 * z a = 0 $ 2 @ <   + + [ + [ +   + + [ + + . + ' , { v {   + , { + + { + + . $ [ @ @ 9 } = 0 % % N = a z : R ! ' ! { ! ' ! { ' { , { + @ 2 $ @ m $ @ @ @ @ < . + . C . + 3 + ,   + v + [ [ 2 @ [ + < + + + { { {   v , { { { o { , { { ! : + + { + + + @ @ $ 4 * z a = 0 $ ",
"+ + + ' + + < . $ } = e a l ^ 0 $ @ @ + + + < + + [ +   [ @ [ . v   v + {   + , { > { , + + . @ . @ $ @ 2 # ; - = = l / 4 a j : { , { ' 6 ' ,   { >     2 $ m = k # m @ @ < . + < +   + @ 3 < + + + [   [ [ . 2 3 [ + + , + {   , { {   > + {   { ' { 6 ' , { : + + + ' + + < . $ } = e a l ^ 0 $ @ @ + + + < + + [ +   [ @ [ . v   v + {   + , { > { , + + . @ . @ $ @ 2 # ; - = = l / 4 a j : { , { ' 6 ' ,   { >     2 $ m = k # m @ @ < . + < +   + @ 3 < + + + [   [ [ . 2 3 [ + + , + {   , { {   > + {   { ' { 6 ' , { : + + + ' + + < . $ } = e a l ^ 0 $ @ @ + + + < + + [ +   [ @ [ . v   v + {   + , { > { , + + . @ . @ $ @ 2 # ; - = = l / 4 a j : { , { ' 6 ' ,   { >     2 $ m = k # m @ @ < . + < +   + @ 3 < + + + [   [ [ . 2 3 [ + + , + {   , { {   > + {   { ' { 6 ' , { : + + + ' + + < . $ } = e a l ^ 0 ",
"[ + , +   { + [ 9 $ 4 z e a - 0 $ $ < +     , +   + + , + + [ +   [ + , + , ,   , + ,     + + [ @ @ 2 ; $ 1 } 4 * * * l g a z : ' 6 { { + 6 { { , + . m 2 P - 4 0 1 $ # . [ + . + + @ . @ 2 . . 1 [ [ [ . 2 @ +   +   { ,   { , ' , ' { , + + ' ~.' , { , ' 6 : [ + , +   { + [ 9 $ 4 z e a - 0 $ $ < +     , +   + + , + + [ +   [ + , + , ,   , + ,     + + [ @ @ 2 ; $ 1 } 4 * * * l g a z : ' 6 { { + 6 { { , + . m 2 P - 4 0 1 $ # . [ + . + + @ . @ 2 . . 1 [ [ [ . 2 @ +   +   { ,   { , ' , ' { , + + ' ~.' , { , ' 6 : [ + , +   { + [ 9 $ 4 z e a - 0 $ $ < +     , +   + + , + + [ +   [ + , + , ,   , + ,     + + [ @ @ 2 ; $ 1 } 4 * * * l g a z : ' 6 { { + 6 { { , + . m 2 P - 4 0 1 $ # . [ + . + + @ . @ 2 . . 1 [ [ [ . 2 @ +   +   { ,   { , ' , ' { , + + ' ~.' , { , ' 6 : [ + , +   { + [ 9 $ 4 z e a - 0 ",
"[ + > + > + + < h 1 a q q e = = ; $ @   B + +   {   ,   o   [ + + { ,   v   , + { { {   + + < @ @ # 2 1 0 0 % 5 l a a / * a V : { , { , { + + [ < 2 m 2 $ } 0 0 0 $ $ + @ @ < + + # @ @ @ . @ 2 # @ 2 @ [ + +   +   {   { { { { > { { { + { , { { { , { 6 , + : [ + > + > + + < h 1 a q q e = = ; $ @   B + +   {   ,   o   [ + + { ,   v   , + { { {   + + < @ @ # 2 1 0 0 % 5 l a a / * a V : { , { , { + + [ < 2 m 2 $ } 0 0 0 $ $ + @ @ < + + # @ @ @ . @ 2 # @ 2 @ [ + +   +   {   { { { { > { { { + { , { { { , { 6 , + : [ + > + > + + < h 1 a q q e = = ; $ @   B + +   {   ,   o   [ + + { ,   v   , + { { {   + + < @ @ # 2 1 0 0 % 5 l a a / * a V : { , { , { + + [ < 2 m 2 $ } 0 0 0 $ $ + @ @ < + + # @ @ @ . @ 2 # @ 2 @ [ + +   +   {   { { { { > { { { + { , { { { , { 6 , + : [ + > + > + + < h 1 a q q e = = ",
". + + { { , . @ $ 1 % y & e = = 0 # @ < +   { + , { { , +   + ,   [ > + , + + { ,   v @ { < [ @ % @ @ $ a 4 % = - 4 4 a e e z : ' + + @ 2 + 2 2 @ 2 $ 2 # $ 1 $ $ $ 9 . + @ + + + @ @ 1 $ @ 2 $ @ 2 2 @ + [ , v , { { o , { { , { { { + + [ + , , { ,   + v [ : . + + { { , . @ $ 1 % y & e = = 0 # @ < +   { + , { { , +   + ,   [ > + , + + { ,   v @ { < [ @ % @ @ $ a 4 % = - 4 4 a e e z : ' + + @ 2 + 2 2 @ 2 $ 2 # $ 1 $ $ $ 9 . + @ + + + @ @ 1 $ @ 2 $ @ 2 2 @ + [ , v , { { o , { { , { { { + + [ + , , { ,   + v [ : . + + { { , . @ $ 1 % y & e = = 0 # @ < +   { + , { { , +   + ,   [ > + , + + { ,   v @ { < [ @ % @ @ $ a 4 % = - 4 4 a e e z : ' + + @ 2 + 2 2 @ 2 $ 2 # $ 1 $ $ $ 9 . + @ + + + @ @ 1 $ @ 2 $ @ 2 2 @ + [ , v , { { o , { { , { { { + + [ + , , { ,   + v [ : . + + { { , . @ $ 1 % y & e = = ",
"@ [   [ > + C [ 9 $ = 4 e e a = 0 $ 2 < + + + { ,   v > { + ,   + + , + , + , , { { { , @ + [ @ 2 # 2 $ # = a = = % = = 4 I ( : + [ m - $ ; - } $ 1 $ 2 $ @ 9 2 # @ @ + + + < . C @ 1 $ 1 $ $ # @ @ [   +   { + ' { ' { {   { ' + {   + [ + + { + { + [ [ + , : @ [   [ > + C [ 9 $ = 4 e e a = 0 $ 2 < + + + { ,   v > { + ,   + + , + , + , , { { { , @ + [ @ 2 # 2 $ # = a = = % = = 4 I ( : + [ m - $ ; - } $ 1 $ 2 $ @ 9 2 # @ @ + + + < . C @ 1 $ 1 $ $ # @ @ [   +   { + ' { ' { {   { ' + {   + [ + + { + { + [ [ + , : @ [   [ > + C [ 9 $ = 4 e e a = 0 $ 2 < + + + { ,   v > { + ,   + + , + , + , , { { { , @ + [ @ 2 # 2 $ # = a = = % = = 4 I ( : + [ m - $ ; - } $ 1 $ 2 $ @ 9 2 # @ @ + + + < . C @ 1 $ 1 $ $ # @ @ [   +   { + ' { ' { {   { ' + {   + [ + + { + { + [ [ + , : @ [   [ > + C [ 9 $ = 4 e e a = ",
"[ + + + + + . @ # 1 ; = F O z a = 1 C . + { { ' { 6 { { , { + , , + + { , { > { , {   {   + + @ @ @ @ @ $ $ ; l = 0 % = g a V : . 1 = - 0 5 5 - ; $ @ $ @ < @ @ < + + <   + + B . 2 0 * % $ # @ . > +   { , ! ' ! , ! ' { + { { {   + . 2 .     , , [ +   +   : [ + + + + + . @ # 1 ; = F O z a = 1 C . + { { ' { 6 { { , { + , , + + { , { > { , {   {   + + @ @ @ @ @ $ $ ; l = 0 % = g a V : . 1 = - 0 5 5 - ; $ @ $ @ < @ @ < + + <   + + B . 2 0 * % $ # @ . > +   { , ! ' ! , ! ' { + { { {   + . 2 .     , , [ +   +   : [ + + + + + . @ # 1 ; = F O z a = 1 C . + { { ' { 6 { { , { + , , + + { , { > { , {   {   + + @ @ @ @ @ $ $ ; l = 0 % = g a V : . 1 = - 0 5 5 - ; $ @ $ @ < @ @ < + + <   + + B . 2 0 * % $ # @ . > +   { , ! ' ! , ! ' { + { { {   + . 2 .     , , [ +   +   : [ + + + + + . @ # 1 ; = F O z a ",
": : : : : : : : : : : : : : : : : : : : : : : : : : : : : : : : : : : : : : : : : : : : : : : : : : : : : : : : : : : : : : : : : : : : : : : : : : : : : : : : : : : : : : : : : : : : : : : : : : : : : : : : : : : : : : : : : : : : : : : : : : : : : : : : : : : : : : : : : : : : : : : : : : : : : : : : : : : : : : : : : : : : : : : : : : : : : : : : : : : : : : : : : : : : : : : : : : : : : : : : : : : : : : : : : : : : : : : : : : : : : : : : : : : : : : : : : : : : : : : : : : : : : : : : : : : : : : : : : : : : : : : : : : : : : : : : : : : : : : : : : : : : : : : : : : : : : : : : : : : : : : : : : : : : : : : : : : : : : : : : : : : : : : : : : : : : : : : : : : : : : : : : : : : : : : : : : : : : : : : : : : : : : : : : : : : : : : : : : : : : : : : : : : : : : : : : : : : : : : : : ",
"  . + @ # $ % & * * = - ; @ . >   > , ' > ' ) ' ' ' ) ! ) ' ) ' ) ! ) ! ~ ' ' ' ) ! ) ' ' ' +     { ] ' ' { > >   @ # ^ / ( _ : < [ < @ [ } | } - 1 ; $ $ 1 # @ $ 1 - $ $ 2 . [ + + { ' ' ! { ! { { + [ [ . 1 + + + . + . $ 1 $ 2 2 @ @ [ + . [ . 3 . + + + . :   . + @ # $ % & * * = - ; @ . >   > , ' > ' ) ' ' ' ) ! ) ' ) ' ) ! ) ! ~ ' ' ' ) ! ) ' ' ' +     { ] ' ' { > >   @ # ^ / ( _ : < [ < @ [ } | } - 1 ; $ $ 1 # @ $ 1 - $ $ 2 . [ + + { ' ' ! { ! { { + [ [ . 1 + + + . + . $ 1 $ 2 2 @ @ [ + . [ . 3 . + + + . :   . + @ # $ % & * * = - ; @ . >   > , ' > ' ) ' ' ' ) ! ) ' ) ' ) ! ) ! ~ ' ' ' ) ! ) ' ' ' +     { ] ' ' { > >   @ # ^ / ( _ : < [ < @ [ } | } - 1 ; $ $ 1 # @ $ 1 - $ $ 2 . [ + + { ' ' ! { ! { { + [ [ . 1 + + + . + . $ 1 $ 2 2 @ @ [ + . [ . 3 . + + + . :   . + @ # $ % & * * = - ; @ . > ",
"< @ . @ . ; * 4 5 - ; 2 @ @ + +   + { > , ' ! 6 ' ' ! 6 6 ' 6 7 ! ! 8 { ' { ! 6 ' ' + ' { [ + 2 [ { { { ' , 6   > + 9 $ 0 a b : @ 2 . @ # @ - c - - 5 d 1 0 1 $ $ 0 @ 2 . @ 3 + [ + { { 6 { ' , + 2 @   + + [ @ [ @ @ @ @ $ 5 0 $ 0 2 2 @ $ $ @ @ . 2 [ + [ [ : < @ . @ . ; * 4 5 - ; 2 @ @ + +   + { > , ' ! 6 ' ' ! 6 6 ' 6 7 ! ! 8 { ' { ! 6 ' ' + ' { [ + 2 [ { { { ' , 6   > + 9 $ 0 a b : @ 2 . @ # @ - c - - 5 d 1 0 1 $ $ 0 @ 2 . @ 3 + [ + { { 6 { ' , + 2 @   + + [ @ [ @ @ @ @ $ 5 0 $ 0 2 2 @ $ $ @ @ . 2 [ + [ [ : < @ . @ . ; * 4 5 - ; 2 @ @ + +   + { > , ' ! 6 ' ' ! 6 6 ' 6 7 ! ! 8 { ' { ! 6 ' ' + ' { [ + 2 [ { { { ' , 6   > + 9 $ 0 a b : @ 2 . @ # @ - c - - 5 d 1 0 1 $ $ 0 @ 2 . @ 3 + [ + { { 6 { ' , + 2 @   + + [ @ [ @ @ @ @ $ 5 0 $ 0 2 2 @ $ $ @ @ . 2 [ + [ [ : < @ . @ . ; * 4 5 - ; 2 @ @ + + ",
"@ [ @ # $ $ ; 1 $ ; $ @ . @ <     > , { ' { 6 6 ! { 6 ! ! ! ! ' ' 6 { { ' + ' { 6 { { > , + [ 2 + ,   { { > { + + < $ $ ^ e b : $ # @ . @ 2 @ 1 f g - 5 = * 0 } # 1 2 h 3 . @ . + + + + { { { { , { + 3   + + . + + + . [ $ # 0 | $ $ $ @ @ @ @ @ 2 @ + [ < + : @ [ @ # $ $ ; 1 $ ; $ @ . @ <     > , { ' { 6 6 ! { 6 ! ! ! ! ' ' 6 { { ' + ' { 6 { { > , + [ 2 + ,   { { > { + + < $ $ ^ e b : $ # @ . @ 2 @ 1 f g - 5 = * 0 } # 1 2 h 3 . @ . + + + + { { { { , { + 3   + + . + + + . [ $ # 0 | $ $ $ @ @ @ @ @ 2 @ + [ < + : @ [ @ # $ $ ; 1 $ ; $ @ . @ <     > , { ' { 6 6 ! { 6 ! ! ! ! ' ' 6 { { ' + ' { 6 { { > , + [ 2 + ,   { { > { + + < $ $ ^ e b : $ # @ . @ 2 @ 1 f g - 5 = * 0 } # 1 2 h 3 . @ . + + + + { { { { , { + 3   + + . + + + . [ $ # 0 | $ $ $ @ @ @ @ @ 2 @ + [ < + : @ [ @ # $ $ ; 1 $ ; $ @ . @ <   ",
"9 h ; $ $ # 2 @ @ @ . . @ . @ [ >   {   { ' ' ' ' ' ! ' ' i ' 6 ' ' , 6 { ' ' ' '   ' '   [ . + , ' > , '   + + . @ ; ; a j b : @ $ # @ 2 $ $ 1 $ $ k 4 c l - 0 0 m 9 . [ . + 3 . @ [ {   { 6 ' { , { , + { [ @ < @ 9 + . $ 1 0 - n } 1 # # @ # 1 @ @ . @ 3 . : 9 h ; $ $ # 2 @ @ @ . . @ . @ [ >   {   { ' ' ' ' ' ! ' ' i ' 6 ' ' , 6 { ' ' ' '   ' '   [ . + , ' > , '   + + . @ ; ; a j b : @ $ # @ 2 $ $ 1 $ $ k 4 c l - 0 0 m 9 . [ . + 3 . @ [ {   { 6 ' { , { , + { [ @ < @ 9 + . $ 1 0 - n } 1 # # @ # 1 @ @ . @ 3 . : 9 h ; $ $ # 2 @ @ @ . . @ . @ [ >   {   { ' ' ' ' ' ! ' ' i ' 6 ' ' , 6 { ' ' ' '   ' '   [ . + , ' > , '   + + . @ ; ; a j b : @ $ # @ 2 $ $ 1 $ $ k 4 c l - 0 0 m 9 . [ . + 3 . @ [ {   { 6 ' { , { , + { [ @ < @ 9 + . $ 1 0 - n } 1 # # @ # 1 @ @ . @ 3 . : 9 h ; $ $ # 2 @ @ @ . . @ . @ [ ",
"$ 1 - = 1 2 @ . [ 2 . $ . 9 2 $   +   6 ' ' 6 ' ' 6 , 8 6 ' o ' 6 {   ' , { , { , ' , ' ,   @     , , '   {   [ @ ; 5 / j & a : @ 2 @ 2 @ # m 1 1 $ 0 n g = - 0 ; $ @ @ < + + . 2 @ [ + > { { { { ' { { { + [ @ 2 # @ $ $ $ 5 ; } 5 $ 1 0 3 @ m $ # $ @ $ # @ : $ 1 - = 1 2 @ . [ 2 . $ . 9 2 $   +   6 ' ' 6 ' ' 6 , 8 6 ' o ' 6 {   ' , { , { , ' , ' ,   @     , , '   {   [ @ ; 5 / j & a : @ 2 @ 2 @ # m 1 1 $ 0 n g = - 0 ; $ @ @ < + + . 2 @ [ + > { { { { ' { { { + [ @ 2 # @ $ $ $ 5 ; } 5 $ 1 0 3 @ m $ # $ @ $ # @ : $ 1 - = 1 2 @ . [ 2 . $ . 9 2 $   +   6 ' ' 6 ' ' 6 , 8 6 ' o ' 6 {   ' , { , { , ' , ' ,   @     , , '   {   [ @ ; 5 / j & a : @ 2 @ 2 @ # m 1 1 $ 0 n g = - 0 ; $ @ @ < + + . 2 @ [ + > { { { { ' { { { + [ @ 2 # @ $ $ $ 5 ; } 5 $ 1 0 3 @ m $ # $ @ $ # @ : $ 1 - = 1 2 @ . [ 2 . $ . 9 2 $ ",
"# 0 * a # @ + + + < < @ @ ; = @ [ +   { {   { o 6 , { 6 ! { , ' { { ' { ' , , ' o {   { + , [ + , { '   , + + @ # ^ ( p e / a : 2 2 # 2 $ 2 @ $ 1 - $ 1 - c 4 0 1 $ @ + . + + + # 1 [ + , [ { ' , { { ' ,   2 $ 0 } 0 / = ^ 5 0 ; 1 1 $ 1 # 2 # } 1 $ - * 0 @ : # 0 * a # @ + + + < < @ @ ; = @ [ +   { {   { o 6 , { 6 ! { , ' { { ' { ' , , ' o {   { + , [ + , { '   , + + @ # ^ ( p e / a : 2 2 # 2 $ 2 @ $ 1 - $ 1 - c 4 0 1 $ @ + . + + + # 1 [ + , [ { ' , { { ' ,   2 $ 0 } 0 / = ^ 5 0 ; 1 1 $ 1 # 2 # } 1 $ - * 0 @ : # 0 * a # @ + + + < < @ @ ; = @ [ +   { {   { o 6 , { 6 ! { , ' { { ' { ' , , ' o {   { + , [ + , { '   , + + @ # ^ ( p e / a : 2 2 # 2 $ 2 @ $ 1 - $ 1 - c 4 0 1 $ @ + . + + + # 1 [ + , [ { ' , { { ' ,   2 $ 0 } 0 / = ^ 5 0 ; 1 1 $ 1 # 2 # } 1 $ - * 0 @ : # 0 * a # @ + + + < < @ @ ; = @ ",
"; 0 4 1 @ [     >     < # ; a # . {   ! ' 6 ' ' ' ' ' ' , ' ' 6 ' 6 , '   ' , ,   ' ,   {       ' { > {   . @ # 0 ( q / = ^ % : 1 $ 1 1 # $ $ 1 $ - 0 ; 0 4 c - $ 1 @ @ @ @ [ . m $ @ + > {   , ! { 6 { + [ } * / * e q q e a 0 r $ $ $ 2 $ 2 $ 0 % - 0 q ; @ : ; 0 4 1 @ [     >     < # ; a # . {   ! ' 6 ' ' ' ' ' ' , ' ' 6 ' 6 , '   ' , ,   ' ,   {       ' { > {   . @ # 0 ( q / = ^ % : 1 $ 1 1 # $ $ 1 $ - 0 ; 0 4 c - $ 1 @ @ @ @ [ . m $ @ + > {   , ! { 6 { + [ } * / * e q q e a 0 r $ $ $ 2 $ 2 $ 0 % - 0 q ; @ : ; 0 4 1 @ [     >     < # ; a # . {   ! ' 6 ' ' ' ' ' ' , ' ' 6 ' 6 , '   ' , ,   ' ,   {       ' { > {   . @ # 0 ( q / = ^ % : 1 $ 1 1 # $ $ 1 $ - 0 ; 0 4 c - $ 1 @ @ @ @ [ . m $ @ + > {   , ! { 6 { + [ } * / * e q q e a 0 r $ $ $ 2 $ 2 $ 0 % - 0 q ; @ : ; 0 4 1 @ [     >     < # ; a # ",
"0 d 0 # @ < +   + . [ 9 $ 4 * $ 9 [   + ,   { ' 6 ' { , ' , '   , '   { , ' ,   > , >   .     +       [ @ @ # 0 a s / 5 ^ - / : 1 1 $ $ } 1 $ 2 2 $ $ - 0 0 4 - 1 $ # 9 @ @ + . @ 1 [ + + + { { ' { , ' + @ - j t _ _ b u t / - 0 1 $ $ 1 1 1 1 0 s 0 = - $ @ : 0 d 0 # @ < +   + . [ 9 $ 4 * $ 9 [   + ,   { ' 6 ' { , ' , '   , '   { , ' ,   > , >   .     +       [ @ @ # 0 a s / 5 ^ - / : 1 1 $ $ } 1 $ 2 2 $ $ - 0 0 4 - 1 $ # 9 @ @ + . @ 1 [ + + + { { ' { , ' + @ - j t _ _ b u t / - 0 1 $ $ 1 1 1 1 0 s 0 = - $ @ : 0 d 0 # @ < +   + . [ 9 $ 4 * $ 9 [   + ,   { ' 6 ' { , ' , '   , '   { , ' ,   > , >   .     +       [ @ @ # 0 a s / 5 ^ - / : 1 1 $ $ } 1 $ 2 2 $ $ - 0 0 4 - 1 $ # 9 @ @ + . @ 1 [ + + + { { ' { , ' + @ - j t _ _ b u t / - 0 1 $ $ 1 1 1 1 0 s 0 = - $ @ : 0 d 0 # @ < +   + . [ 9 $ 4 * $ ",
"= / 0 # . +   > +   + # $ a % $ . + >   ' { ' , ' ) , { {   { ,   { , 8 ' { ' '   { { +   > + .   +   . # $ = / * / 0 ; 0 - g : 9 2 1 2 k # m # @ # $ 1 4 4 4 = 0 # m $ @ @ . @ [ 2 @ [ + , , { + 6 + { v 2 5 j p w b x b y = 0 ; 5 # 2 2 @ 2 $ 1 4 - 0 $ ; @ : = / 0 # . +   > +   + # $ a % $ . + >   ' { ' , ' ) , { {   { ,   { , 8 ' { ' '   { { +   > + .   +   . # $ = / * / 0 ; 0 - g : 9 2 1 2 k # m # @ # $ 1 4 4 4 = 0 # m $ @ @ . @ [ 2 @ [ + , , { + 6 + { v 2 5 j p w b x b y = 0 ; 5 # 2 2 @ 2 $ 1 4 - 0 $ ; @ : = / 0 # . +   > +   + # $ a % $ . + >   ' { ' , ' ) , { {   { ,   { , 8 ' { ' '   { { +   > + .   +   . # $ = / * / 0 ; 0 - g : 9 2 1 2 k # m # @ # $ 1 4 4 4 = 0 # m $ @ @ . @ [ 2 @ [ + , , { + 6 + { v 2 5 j p w b x b y = 0 ; 5 # 2 2 @ 2 $ 1 4 - 0 $ ; @ : = / 0 # . +   > +   + # $ a % $ ",
"= z 0 @   < , + > + . @ ; l q ; @ + + { , ' > ' 6 { '   , { , > , 6 A ! + ' { B > { + { C [ < + [ @ + . 1 / e * e ^ 1 $ $ ; = : 2 1 1 2 $ 1 @ $ @ $ - k 5 * f g - $ # $ $ # @ @ + 2 $ [ + + @ + , { , +   + - j j p D E _ a ^ $ $ 0 @ $ < @ @ @ @ 2 0 1 4 0 @ : = z 0 @   < , + > + . @ ; l q ; @ + + { , ' > ' 6 { '   , { , > , 6 A ! + ' { B > { + { C [ < + [ @ + . 1 / e * e ^ 1 $ $ ; = : 2 1 1 2 $ 1 @ $ @ $ - k 5 * f g - $ # $ $ # @ @ + 2 $ [ + + @ + , { , +   + - j j p D E _ a ^ $ $ 0 @ $ < @ @ @ @ 2 0 1 4 0 @ : = z 0 @   < , + > + . @ ; l q ; @ + + { , ' > ' 6 { '   , { , > , 6 A ! + ' { B > { + { C [ < + [ @ + . 1 / e * e ^ 1 $ $ ; = : 2 1 1 2 $ 1 @ $ @ $ - k 5 * f g - $ # $ $ # @ @ + 2 $ [ + + @ + , { , +   + - j j p D E _ a ^ $ $ 0 @ $ < @ @ @ @ 2 0 1 4 0 @ : = z 0 @   < , + > + . @ ; l q ; ",
"= e 0 9 + <     + + < @ ; / * 0 @ +   { > { ' { { ' { { ' +   v   > ' ' {   ' + {     [ + @ 2 2 # @ @ 9 } 4 4 4 4 0 ; # ; $ 4 : # @ $ @ @ 1 m # @ 2 @ 1 4 F * = l 0 $ 1 # $ @ . + @ . C [ , , { { , +   [ < m 0 l j G u & = 0 $ $ @ 9 + @ + . @ + @ $ 1 = 1 1 : = e 0 9 + <     + + < @ ; / * 0 @ +   { > { ' { { ' { { ' +   v   > ' ' {   ' + {     [ + @ 2 2 # @ @ 9 } 4 4 4 4 0 ; # ; $ 4 : # @ $ @ @ 1 m # @ 2 @ 1 4 F * = l 0 $ 1 # $ @ . + @ . C [ , , { { , +   [ < m 0 l j G u & = 0 $ $ @ 9 + @ + . @ + @ $ 1 = 1 1 : = e 0 9 + <     + + < @ ; / * 0 @ +   { > { ' { { ' { { ' +   v   > ' ' {   ' + {     [ + @ 2 2 # @ @ 9 } 4 4 4 4 0 ; # ; $ 4 : # @ $ @ @ 1 m # @ 2 @ 1 4 F * = l 0 $ 1 # $ @ . + @ . C [ , , { { , +   [ < m 0 l j G u & = 0 $ $ @ 9 + @ + . @ + @ $ 1 = 1 1 : = e 0 9 + <     + + < @ ; / * 0 ",
"/ * 4 $ . + +   + + < @ 0 y 0 ; @ < <   , { + { >   ,   +     + , ' , { { ! { +   +   + . 2 0 = $ 2 2 @ 2 @ 1 ; # $ 2 2 @ $ 0 : 2 . 2 @ # 2 1 $ m # $ # - = * * - 0 $ $ 9 m $ # @ < 2 m . 3   {   { { { + + @ @ ; q H t e = 0 $ < @ < + . + @ + + . @ 1 2 $ $ : / * 4 $ . + +   + + < @ 0 y 0 ; @ < <   , { + { >   ,   +     + , ' , { { ! { +   +   + . 2 0 = $ 2 2 @ 2 @ 1 ; # $ 2 2 @ $ 0 : 2 . 2 @ # 2 1 $ m # $ # - = * * - 0 $ $ 9 m $ # @ < 2 m . 3   {   { { { + + @ @ ; q H t e = 0 $ < @ < + . + @ + + . @ 1 2 $ $ : / * 4 $ . + +   + + < @ 0 y 0 ; @ < <   , { + { >   ,   +     + , ' , { { ! { +   +   + . 2 0 = $ 2 2 @ 2 @ 1 ; # $ 2 2 @ $ 0 : 2 . 2 @ # 2 1 $ m # $ # - = * * - 0 $ $ 9 m $ # @ < 2 m . 3   {   { { { + + @ @ ; q H t e = 0 $ < @ < + . + @ + + . @ 1 2 $ $ : / * 4 $ . + +   + + < @ 0 y 0 ; ",
"l = 1 @ @ < + + +   + @ / 0 $ @ 2 < + + +   +   { , + { + , +   > { { { > + + > + . + + # @ 2 # 2 [   + . . 2 @ $ . @ 9 $ 9 ; : . [ + @ [ 2 1 $ 2 @ $ $ - y l * 4 0 0 $ ; $ # 2 h @ . @ . + + + , { , [   + + . 1 = l I a = ; @ @ . 3 @ @ [ . @ [ @ @ 2 [ # 1 : l = 1 @ @ < + + +   + @ / 0 $ @ 2 < + + +   +   { , + { + , +   > { { { > + + > + . + + # @ 2 # 2 [   + . . 2 @ $ . @ 9 $ 9 ; : . [ + @ [ 2 1 $ 2 @ $ $ - y l * 4 0 0 $ ; $ # 2 h @ . @ . + + + , { , [   + + . 1 = l I a = ; @ @ . 3 @ @ [ . @ [ @ @ 2 [ # 1 : l = 1 @ @ < + + +   + @ / 0 $ @ 2 < + + +   +   { , + { + , +   > { { { > + + > + . + + # @ 2 # 2 [   + . . 2 @ $ . @ 9 $ 9 ; : . [ + @ [ 2 1 $ 2 @ $ $ - y l * 4 0 0 $ ; $ # 2 h @ . @ . + + + , { , [   + + . 1 = l I a = ; @ @ . 3 @ @ [ . @ [ @ @ 2 [ # 1 : l = 1 @ @ < + + +   + @ / 0 $ @ ",
"0 0 9 @ . + < + > C + . $ # # @ . + . + + + , { { { ,   { {   { , {   { {   { +   $ . @ [ @ @ [ + . { [ + + @ < @ m @ 0 $ @ @ : + [ @ . @ 2 k 1 2 $ # 1 0 * a 4 4 0 0 $ ; } r ; @ @ @ + 3 + +   + { + [ + + + [ @ $ 0 0 4 5 2 $ > + @ @ @ @ @ < . + [ [ @ 2 m : 0 0 9 @ . + < + > C + . $ # # @ . + . + + + , { { { ,   { {   { , {   { {   { +   $ . @ [ @ @ [ + . { [ + + @ < @ m @ 0 $ @ @ : + [ @ . @ 2 k 1 2 $ # 1 0 * a 4 4 0 0 $ ; } r ; @ @ @ + 3 + +   + { + [ + + + [ @ $ 0 0 4 5 2 $ > + @ @ @ @ @ < . + [ [ @ 2 m : 0 0 9 @ . + < + > C + . $ # # @ . + . + + + , { { { ,   { {   { , {   { {   { +   $ . @ [ @ @ [ + . { [ + + @ < @ m @ 0 $ @ @ : + [ @ . @ 2 k 1 2 $ # 1 0 * a 4 4 0 0 $ ; } r ; @ @ @ + 3 + +   + { + [ + + + [ @ $ 0 0 4 5 2 $ > + @ @ @ @ @ < . + [ [ @ 2 m : 0 0 9 @ . + < + > C + . $ # # @ ",
"$ @ # + < @ + < @ # 9 @ @ < @ # 2 @ + [ +   3 , ,   { + + + . + + + +   > + @ C [ [ @ . @ . +   + . +   @ # @ # $ # $ ; # + + : . . @ + [ @ 9 $ 1 # $ 1 0 * * a * = 0 0 $ $ 1 0 1 # [ 2 . . [ [ + [ + +   + . . $ 2 # 0 $ ; $ $ + + + < 2 1 @ [ @ [ C [ [ . 2 : $ @ # + < @ + < @ # 9 @ @ < @ # 2 @ + [ +   3 , ,   { + + + . + + + +   > + @ C [ [ @ . @ . +   + . +   @ # @ # $ # $ ; # + + : . . @ + [ @ 9 $ 1 # $ 1 0 * * a * = 0 0 $ $ 1 0 1 # [ 2 . . [ [ + [ + +   + . . $ 2 # 0 $ ; $ $ + + + < 2 1 @ [ @ [ C [ [ . 2 : $ @ # + < @ + < @ # 9 @ @ < @ # 2 @ + [ +   3 , ,   { + + + . + + + +   > + @ C [ [ @ . @ . +   + . +   @ # @ # $ # $ ; # + + : . . @ + [ @ 9 $ 1 # $ 1 0 * * a * = 0 0 $ $ 1 0 1 # [ 2 . . [ [ + [ + +   + . . $ 2 # 0 $ ; $ $ + + + < 2 1 @ [ @ [ C [ [ . 2 : $ @ # + < @ + < @ # 9 @ @ < @ # ",
"@ ; @ 9 @ > . @ @ @ @ @ . # @ $ @ + + .   + +     3   +   + . @ . + . + + $ < 2 # < @   > + + @ < +   + + @ @ 0 0 0 $ 0 $ @   : @ + @ . @ . @ # J 1 1 $ 0 y q a * 4 = 0 ; 1 0 - ; $ m @ . @ . + + . + @ [ @ [ @ 2 @ m $ $ $ } ; @ # < [ $ 0 1 @ @ . @ . @ + . : @ ; @ 9 @ > . @ @ @ @ @ . # @ $ @ + + .   + +     3   +   + . @ . + . + + $ < 2 # < @   > + + @ < +   + + @ @ 0 0 0 $ 0 $ @   : @ + @ . @ . @ # J 1 1 $ 0 y q a * 4 = 0 ; 1 0 - ; $ m @ . @ . + + . + @ [ @ [ @ 2 @ m $ $ $ } ; @ # < [ $ 0 1 @ @ . @ . @ + . : @ ; @ 9 @ > . @ @ @ @ @ . # @ $ @ + + .   + +     3   +   + . @ . + . + + $ < 2 # < @   > + + @ < +   + + @ @ 0 0 0 $ 0 $ @   : @ + @ . @ . @ # J 1 1 $ 0 y q a * 4 = 0 ; 1 0 - ; $ m @ . @ . + + . + @ [ @ [ @ 2 @ m $ $ $ } ; @ # < [ $ 0 1 @ @ . @ . @ + . : @ ; @ 9 @ > . @ @ @ @ @ . # @ $ "};
